; generated by Slic3r 1.2.9 on 2017-10-05 at 17:26:25

; external perimeters extrusion width = 0.40mm
; perimeters extrusion width = 0.68mm
; infill extrusion width = 1.28mm
; solid infill extrusion width = 0.68mm
; top infill extrusion width = 0.68mm

M107
M104 S220 ; set temperature
; -- START GCODE --
	G90                     ;set to absolute positioning
G28                     ;move to Home
G92 E0                  ;zero the extruded length
G1 F7200                ;set feedrate to travel_speed value
; -- end of START GCODE --
M109 S220 ; wait for temperature to be reached
G21 ; set units to millimeters
G90 ; use absolute coordinates
M82 ; use absolute distances for extrusion
G92 E0
G1 Z0.400 F9000.000
G1 E-4.00000 F2400.00000
G92 E0
G1 X41.333 Y77.220 F9000.000
G1 E4.00000 F2400.00000
G1 X43.493 Y76.405 E4.27422 F1800.000
G1 X44.750 Y76.286 E4.42419
G1 X155.250 Y76.286 E17.54774
G1 X157.525 Y76.683 E17.82197
G1 X159.530 Y77.827 E18.09619 F1800.000
G1 X161.030 Y79.583 E18.37042
G1 X161.845 Y81.743 E18.64464
G1 X161.964 Y83.000 E18.79461
G1 X161.964 Y117.000 E22.83263
G1 X161.567 Y119.275 E23.10685
G1 X160.423 Y121.280 E23.38107
G1 X158.667 Y122.780 E23.65530
G1 X156.507 Y123.595 E23.92952
G1 X155.250 Y123.714 E24.07949
G1 X44.750 Y123.714 E37.20304
G1 X42.475 Y123.317 E37.47727
G1 X40.470 Y122.173 E37.75149
G1 X38.970 Y120.417 E38.02572
G1 X38.155 Y118.257 E38.29994
G1 X38.036 Y117.000 E38.44991
G1 X38.036 Y83.000 E42.48792
G1 X38.433 Y80.725 E42.76215
G1 X39.577 Y78.720 E43.03637
G1 X41.287 Y77.259 E43.30347
G1 E39.30347 F2400.00000
G92 E0
G1 X146.350 Y115.700 F9000.000
G1 E4.00000 F2400.00000
G1 X146.350 Y101.097 E5.73432 F1800.000
G1 X147.002 Y100.930 E5.81430
G1 X146.935 Y100.689 E5.84402
G1 X146.894 Y100.350 E5.88459
G1 X146.895 Y99.957 E5.93127
G1 X146.962 Y99.450 E5.99205
G1 X146.350 Y99.292 E6.06715
G1 X146.350 Y96.691 E6.37605
G1 X147.073 Y96.691 E6.46186
G1 X147.073 Y93.274 E6.86769
G1 X146.350 Y93.274 E6.95350
G1 X146.350 Y91.718 E7.13831
G1 X147.073 Y91.718 E7.22412
G1 X147.073 Y88.005 E7.66510
G1 X146.350 Y88.005 E7.75091
G1 X146.350 Y84.300 E8.19092
G1 X153.950 Y84.300 E9.09354
G1 X153.950 Y93.274 E10.15935
G1 X153.219 Y93.274 E10.24619
G1 X153.219 Y96.839 E10.66959
G1 X153.950 Y96.839 E10.75643
G1 X153.950 Y99.383 E11.05857
G1 X153.244 Y99.510 E11.14375
G1 X153.288 Y99.774 E11.17547
G1 X153.307 Y100.362 E11.24540
G1 X153.259 Y100.781 E11.29542
G1 X153.950 Y100.913 E11.37903
G1 X153.950 Y103.731 E11.71375
G1 X153.219 Y103.731 E11.80059
G1 X153.219 Y106.445 E12.12294
G1 X153.950 Y106.445 E12.20978
G1 X153.950 Y115.700 E13.30891
G1 X146.410 Y115.700 E14.20440
G1 X145.950 Y115.700 F9000.000
G1 X141.974 Y108.754 F9000.000
G1 X141.683 Y108.659 E14.24073 F1800.000
G1 X141.529 Y109.603 E14.35441
G1 X141.348 Y110.104 E14.41765
G1 X140.857 Y110.636 E14.50359
G1 X140.809 Y111.699 E14.63002
G1 X140.351 Y112.447 E14.73412
G1 X139.739 Y113.198 E14.84917
G1 X139.115 Y113.782 E14.95070
G1 X138.162 Y114.360 E15.08310
G1 X137.589 Y114.656 E15.15970
G1 X137.514 Y114.600 E15.17080
G1 X135.577 Y114.753 E15.40154
G1 X134.345 Y114.724 E15.54785
G1 X134.277 Y113.612 E15.68019
G1 X134.408 Y113.878 E15.71542
G1 X135.573 Y113.727 E15.85496
G1 X135.536 Y112.689 E15.97831
G1 X135.209 Y112.677 E16.01719
G1 X134.449 Y112.585 E16.10817
G1 X134.641 Y112.954 E16.15753
G1 X134.363 Y113.250 E16.20581
G1 X134.646 Y113.230 E16.23957
G1 X133.453 Y114.418 E16.43959
G1 X132.651 Y114.463 E16.53495
G1 X131.782 Y114.031 E16.65030
G1 X131.831 Y113.837 E16.67401
G1 X131.508 Y113.799 E16.71267
G1 X130.497 Y113.542 E16.83652
G1 X129.971 Y113.369 E16.90231
G1 X129.286 Y113.046 E16.99220
G1 X128.973 Y112.645 E17.05265
G1 X128.884 Y112.928 E17.08785
G1 X127.579 Y112.696 E17.24525
G1 X126.660 Y112.122 E17.37395
G1 X126.194 Y111.452 E17.47085
G1 X125.990 Y111.120 E17.51721
G1 X125.418 Y109.863 E17.68113
G1 X125.225 Y109.295 E17.75247
G1 X125.238 Y107.938 E17.91365
G1 X125.440 Y107.298 E17.99332
G1 X126.518 Y106.370 E18.16229
G1 X125.946 Y105.621 E18.27419
G1 X126.067 Y104.772 E18.37603
G1 X126.198 Y104.183 E18.44770
G1 X126.308 Y103.873 E18.48678
G1 X126.432 Y103.046 E18.58612
G1 X126.896 Y102.957 E18.64227
G1 X127.184 Y101.911 E18.77111
G1 X128.353 Y102.488 E18.92592
G1 X128.713 Y102.352 E18.97171
G1 X129.401 Y102.441 E19.05402
G1 X130.054 Y102.771 E19.14094
G1 X130.037 Y103.565 E19.23532
G1 X130.446 Y103.592 E19.28398
G1 X130.550 Y102.652 E19.39631
G1 X131.273 Y102.499 E19.48411
G1 X131.620 Y102.584 E19.52654
G1 X131.925 Y102.762 E19.56846
G1 X132.814 Y103.104 E19.68163
G1 X133.349 Y103.158 E19.74542
G1 X133.595 Y103.546 E19.79994
G1 X133.918 Y103.430 E19.84067
G1 X133.846 Y102.859 E19.90897
G1 X135.024 Y103.242 E20.05600
G1 X135.317 Y103.432 E20.09755
G1 X136.185 Y104.245 E20.23876
G1 X135.815 Y104.538 E20.29476
G1 X137.102 Y104.826 E20.45138
G1 X136.353 Y105.619 E20.58087
G1 X135.312 Y105.849 E20.70754
G1 X134.997 Y105.891 E20.74531
G1 X133.625 Y105.978 E20.90850
G1 X132.000 Y105.855 E21.10208
G1 X131.385 Y105.726 E21.17671
G1 X130.411 Y104.992 E21.32156
G1 X130.391 Y103.955 E21.44475
G1 X128.705 Y104.901 E21.67437
G1 X127.610 Y104.687 E21.80686
G1 X127.282 Y104.464 E21.85395
G1 X127.248 Y104.892 E21.90495
G1 X126.762 Y106.453 E22.09906
G1 X127.139 Y106.522 E22.14458
G1 X127.323 Y106.950 E22.20003
G1 X127.748 Y107.711 E22.30348
G1 X127.963 Y108.011 E22.34733
G1 X129.928 Y109.555 E22.64419
G1 X130.283 Y109.753 E22.69235
G1 X131.538 Y109.624 E22.84225
G1 X132.954 Y109.547 E23.01068
G1 X134.189 Y109.315 E23.15995
G1 X136.302 Y108.719 E23.42062
G1 X136.592 Y108.967 E23.46592
G1 X136.781 Y107.733 E23.61412
G1 X136.828 Y106.961 E23.70602
G1 X136.918 Y106.669 E23.74230
G1 X137.029 Y106.348 E23.78268
G1 X137.183 Y105.999 E23.82799
G1 X137.963 Y104.501 E24.02853
G1 X138.202 Y103.769 E24.11999
G1 X138.535 Y103.009 E24.21854
G1 X138.959 Y102.519 E24.29544
G1 X139.625 Y102.867 E24.38477
G1 X139.203 Y101.582 E24.54546
G1 X138.862 Y101.182 E24.60784
G1 X138.715 Y100.595 E24.67967
G1 X138.666 Y100.123 E24.73602
G1 X138.550 Y99.437 E24.81874
G1 X138.563 Y99.155 E24.85218
G1 X138.139 Y98.880 E24.91223
G1 X137.913 Y98.278 E24.98858
G1 X137.683 Y97.921 E25.03900
G1 X137.382 Y97.170 E25.13505
G1 X136.660 Y96.791 E25.23200
G1 X136.094 Y96.319 E25.31948
G1 X135.338 Y95.806 E25.42801
G1 X135.166 Y95.699 E25.45204
G1 X134.920 Y95.594 E25.48380
G1 X134.684 Y95.462 E25.51592
G1 X134.467 Y95.300 E25.54800
G1 X134.170 Y95.169 E25.58659
G1 X133.821 Y95.078 E25.62941
G1 X133.442 Y94.900 E25.67912
G1 X132.892 Y94.682 E25.74947
G1 X132.425 Y94.530 E25.80775
G1 X131.557 Y94.303 E25.91427
G1 X131.346 Y93.590 E26.00262
G1 X132.687 Y93.146 E26.17030
G1 X133.373 Y93.220 E26.25225
G1 X134.302 Y93.532 E26.36867
G1 X135.954 Y94.396 E26.59002
G1 X136.615 Y95.004 E26.69674
G1 X137.064 Y95.346 E26.76377
G1 X138.889 Y95.631 E26.98317
G1 X140.704 Y95.956 E27.20214
G1 X141.152 Y96.086 E27.25753
G1 X142.659 Y96.902 E27.46101
G1 X141.128 Y97.249 E27.64741
G1 X140.838 Y97.290 E27.68221
G1 X140.775 Y97.674 E27.72846
G1 X140.483 Y100.333 E28.04618
G1 X140.869 Y100.215 E28.09410
G1 X140.694 Y100.562 E28.14026
G1 X141.775 Y101.365 E28.30020
G1 X142.971 Y104.860 E28.73897
G1 X141.928 Y106.148 E28.93574
G1 X141.855 Y106.496 E28.97800
G1 X141.964 Y107.326 E29.07742
G1 X141.974 Y108.694 E29.23984
G1 X141.911 Y109.053 F9000.000
G1 X142.485 Y106.413 F9000.000
G1 X143.403 Y113.107 F9000.000
G1 X138.776 Y115.396 F9000.000
G1 X135.235 Y115.684 F9000.000
G1 X125.255 Y114.142 F9000.000
G1 X118.784 Y102.071 F9000.000
G1 X126.798 Y101.051 F9000.000
G1 X130.103 Y101.310 F9000.000
G1 X131.114 Y101.518 F9000.000
G1 X131.264 Y101.552 F9000.000
G1 X131.402 Y101.640 F9000.000
G1 X131.867 Y102.034 F9000.000
G1 X132.296 Y101.547 F9000.000
G1 X131.823 Y100.588 E29.36680 F1800.000
G1 X131.481 Y100.583 E29.40743
G1 X130.662 Y100.101 E29.52032
G1 X130.213 Y99.946 E29.57670
G1 X129.522 Y99.458 E29.67707
G1 X129.700 Y99.168 E29.71747
G1 X129.382 Y98.685 E29.78615
G1 X129.186 Y98.521 E29.81651
G1 X128.737 Y97.780 E29.91943
G1 X129.424 Y96.426 E30.09969
G1 X130.006 Y96.103 E30.17875
G1 X130.430 Y96.881 E30.28401
G1 X131.125 Y96.940 E30.36691
G1 X130.865 Y95.502 E30.54040
G1 X132.493 Y95.483 E30.73377
G1 X133.507 Y96.282 E30.88705
G1 X133.571 Y97.278 E31.00565
G1 X134.053 Y97.360 E31.06374
G1 X135.265 Y97.437 E31.20805
G1 X135.154 Y98.299 E31.31119
G1 X135.329 Y98.449 E31.33867
G1 X135.012 Y98.987 E31.41280
G1 X134.292 Y99.462 E31.51521
G1 X133.573 Y99.562 E31.60147
G1 X133.211 Y99.633 E31.64522
G1 X133.117 Y99.835 E31.67169
G1 X132.998 Y100.570 E31.76010
G1 X132.331 Y101.498 E31.89586
G1 X131.971 Y101.780 F9000.000
G1 E27.89586 F2400.00000
G92 E0
G1 X131.447 Y101.182 F9000.000
G1 X134.161 Y96.743 F9000.000
G1 X134.247 Y96.657 F9000.000
G1 E4.00000 F2400.00000
G1 X134.206 Y96.013 E4.07669 F1800.000
G1 X134.605 Y96.236 E4.13100
G1 X134.846 Y96.339 E4.16210
G1 X134.762 Y96.690 E4.20499
G1 X134.306 Y96.661 E4.25921
G1 X136.660 Y99.005 F9000.000
G1 X136.966 Y99.822 E4.36284 F1800.000
G1 X137.191 Y99.968 E4.39469
G1 X137.250 Y100.316 E4.43670
G1 X137.305 Y100.844 E4.49973
G1 X137.578 Y101.932 E4.63295
G1 X137.314 Y102.239 E4.68103
G1 X136.970 Y103.023 E4.78276
G1 X136.201 Y102.304 E4.90780
G1 X135.644 Y101.942 E4.98666
G1 X134.126 Y101.448 E5.17629
G1 X134.354 Y101.130 E5.22278
G1 X134.393 Y100.890 E5.25170
G1 X134.809 Y100.832 E5.30156
G1 X136.074 Y99.998 E5.48147
G1 X136.630 Y99.056 E5.61132
G1 X136.248 Y98.298 F9000.000
G1 X135.911 Y98.008 E5.66406 F1800.000
G1 X136.009 Y97.255 E5.75424
G1 X136.817 Y97.680 E5.86267
G1 X137.046 Y98.250 E5.93563
G1 X137.271 Y98.600 E5.98506
G1 X137.552 Y99.351 E6.08024
G1 X137.843 Y99.539 E6.12138
G1 X137.958 Y100.220 E6.20334
G1 X138.010 Y100.720 E6.26303
G1 X138.210 Y101.517 E6.36070
G1 X138.543 Y101.908 E6.42163
G1 X137.924 Y102.624 E6.53394
G1 X137.534 Y103.515 E6.64943
G1 X137.328 Y104.145 E6.72823
G1 X137.059 Y104.085 E6.76100
G1 X135.759 Y102.868 E6.97250
G1 X135.334 Y102.592 E7.03270
G1 X132.976 Y101.825 E7.32722
G1 X133.676 Y100.850 E7.46981
G1 X133.772 Y100.255 E7.54135
G1 X134.550 Y100.147 E7.63467
G1 X135.543 Y99.492 E7.77583
G1 X136.218 Y98.350 E7.93343
G1 E3.93343 F2400.00000
G92 E0
G1 X136.101 Y98.322 F9000.000
G1 X134.325 Y107.580 F9000.000
G1 X134.459 Y107.356 F9000.000
G1 E4.00000 F2400.00000
G1 X134.524 Y107.736 E4.04578 F1800.000
G1 X133.863 Y107.923 E4.12740
G1 X132.782 Y108.126 E4.25796
G1 X131.426 Y108.200 E4.41925
G1 X130.620 Y108.283 E4.51547
G1 X129.005 Y107.012 E4.75956
G1 X128.723 Y106.528 E4.82607
G1 X129.499 Y106.094 E4.93163
G1 X130.781 Y107.058 E5.12220
G1 X131.799 Y107.272 E5.24573
G1 X133.616 Y107.410 E5.46225
G1 X134.399 Y107.360 E5.55543
G1 X136.008 Y108.060 F9000.000
G1 X134.026 Y108.619 E5.80002 F1800.000
G1 X132.868 Y108.837 E5.93993
G1 X131.482 Y108.912 E6.10479
G1 X130.434 Y109.020 E6.22996
G1 X130.326 Y108.959 E6.24468
G1 X128.484 Y107.512 E6.52288
G1 X128.351 Y107.327 E6.54987
G1 X127.965 Y106.634 E6.64408
G1 X127.668 Y105.945 E6.73324
G1 X127.821 Y105.456 E6.79410
G1 X128.825 Y105.652 E6.91570
G1 X129.556 Y105.243 E7.01512
G1 X131.083 Y106.392 E7.24212
G1 X131.899 Y106.563 E7.34121
G1 X133.621 Y106.694 E7.54626
G1 X135.067 Y106.602 E7.71832
G1 X135.436 Y106.553 E7.76260
G1 X136.263 Y106.371 E7.86309
G1 X136.120 Y106.832 E7.92044
G1 X136.070 Y107.658 E8.01868
G1 X136.017 Y108.001 E8.05993
G1 E4.05993 F2400.00000
G92 E0
G1 X136.110 Y108.150 F9000.000
G1 X143.358 Y110.958 F9000.000
G1 X143.416 Y110.727 F9000.000
G1 E4.00000 F2400.00000
G1 X143.392 Y107.228 E4.41560 F1800.000
G1 X143.322 Y106.696 E4.47921
G1 X144.620 Y105.094 E4.72419
G1 X144.563 Y105.103 E4.73102
G1 X142.983 Y100.483 E5.31098
G1 X142.510 Y100.132 E5.38090
G1 X143.496 Y98.177 E5.64091
G1 X144.922 Y97.853 E5.81456
G1 X144.922 Y115.172 E7.87137
G1 X139.721 Y115.172 E8.48901
G1 X140.786 Y114.175 E8.66224
G1 X141.519 Y113.275 E8.80012
G1 X142.219 Y112.132 E8.95930
G1 X142.260 Y111.221 E9.06753
G1 X142.593 Y110.860 E9.12585
G1 X142.723 Y110.501 E9.17128
G1 X143.359 Y110.708 E9.25074
G1 X144.922 Y96.503 F9000.000
G1 X144.306 Y96.169 E9.33390 F1800.000
G1 X144.562 Y95.400 E9.43016
G1 X144.922 Y95.459 E9.47348
G1 X144.922 Y96.443 E9.59037
G1 X144.607 Y95.263 F9000.000
G1 X144.794 Y94.702 E9.66052 F1800.000
G1 X145.644 Y94.702 E9.76153
G1 X145.644 Y95.263 E9.82809
G1 X144.667 Y95.263 E9.94410
G1 X145.636 Y95.977 F9000.000
G1 X145.636 Y99.846 E10.40356 F1800.000
G1 X146.181 Y99.986 E10.47040
G1 X146.180 Y100.404 E10.51998
G1 X145.636 Y100.542 E10.58664
G1 X145.636 Y115.886 E12.40890
G1 X135.533 Y115.886 E13.60871
G1 X135.517 Y115.474 E13.65763
G1 X137.304 Y115.333 E13.87047
G1 X137.521 Y115.494 E13.90262
G1 X138.511 Y114.984 E14.03489
G1 X139.549 Y114.354 E14.17904
G1 X140.263 Y113.686 E14.29512
G1 X140.935 Y112.861 E14.42159
G1 X141.514 Y111.916 E14.55323
G1 X141.559 Y110.929 E14.67056
G1 X141.971 Y110.482 E14.74269
G1 X142.287 Y109.607 E14.85323
G1 X142.695 Y109.740 E14.90429
G1 X142.678 Y107.277 E15.19686
G1 X142.574 Y106.485 E15.29165
G1 X143.775 Y105.003 E15.51822
G1 X142.379 Y100.924 E16.03026
G1 X141.602 Y100.347 E16.14519
G1 X142.259 Y99.043 E16.31854
G1 X141.311 Y99.333 E16.43625
G1 X141.468 Y97.904 E16.60703
G1 X144.669 Y97.178 E16.99682
G1 X142.488 Y95.997 E17.29142
G1 X143.800 Y95.427 E17.46133
G1 X144.718 Y92.665 E17.80700
G1 X144.812 Y92.226 E17.86037
G1 X145.175 Y91.936 E17.91564
G1 X145.210 Y88.719 E18.29767
G1 X146.358 Y88.719 E18.43407
G1 X146.358 Y91.004 E18.70541
G1 X145.636 Y91.004 E18.79122
G1 X145.636 Y93.988 E19.14567
G1 X146.358 Y93.988 E19.23148
G1 X146.358 Y95.977 E19.46768
G1 X145.696 Y95.977 E19.54636
G1 X145.425 Y84.325 F9000.000
G1 X121.285 Y84.167 F9000.000
G1 X80.351 Y88.565 F9000.000
G1 X53.483 Y92.683 F9000.000
G1 X55.286 Y96.686 F9000.000
G1 X55.643 Y98.405 F9000.000
G1 X55.733 Y99.359 F9000.000
G1 X55.748 Y99.729 F9000.000
G1 X55.750 Y99.899 F9000.000
G1 X52.550 Y100.000 F9000.000
G1 X52.666 Y100.000 F9000.000
G1 X52.644 Y100.352 E19.58829 F1800.000
G1 X52.576 Y100.710 E19.63148
G1 X52.401 Y101.199 E19.69322
G1 X52.131 Y101.657 E19.75639
G1 X51.780 Y102.055 E19.81943
G1 X51.361 Y102.380 E19.88243
G1 X50.888 Y102.621 E19.94543
G1 X50.378 Y102.769 E20.00847
G1 X49.850 Y102.819 E20.07148
G1 X49.322 Y102.769 E20.13449
G1 X48.812 Y102.621 E20.19753
G1 X48.339 Y102.380 E20.26054
G1 X47.920 Y102.055 E20.32354
G1 X47.569 Y101.657 E20.38658
G1 X47.308 Y101.216 E20.44749
G1 X47.172 Y100.871 E20.49153
G1 X47.081 Y100.519 E20.53471
G1 X47.032 Y100.016 E20.59467
G1 X47.063 Y99.561 E20.64881
G1 X47.225 Y98.970 E20.72163
G1 X47.470 Y98.489 E20.78569
G1 X47.795 Y98.070 E20.84871
G1 X48.193 Y97.719 E20.91172
G1 X48.650 Y97.449 E20.97474
G1 X49.132 Y97.275 E21.03566
G1 X49.497 Y97.206 E21.07971
G1 X49.859 Y97.183 E21.12289 F1800.000
G1 X50.377 Y97.230 E21.18461
G1 X50.888 Y97.379 E21.24780
G1 X51.361 Y97.620 E21.31081
G1 X51.780 Y97.945 E21.37382
G1 X52.131 Y98.343 E21.43684
G1 X52.401 Y98.800 E21.49986
G1 X52.575 Y99.282 E21.56078
G1 X52.644 Y99.647 E21.60488
G1 X52.663 Y99.940 E21.63976
G1 X51.951 Y100.000 F9000.000
G1 X51.934 Y100.263 E21.67106 F1800.000
G1 X51.885 Y100.522 E21.70235
G1 X51.752 Y100.895 E21.74935
G1 X51.550 Y101.235 E21.79638
G1 X51.289 Y101.532 E21.84337
G1 X50.976 Y101.775 E21.89035
G1 X50.624 Y101.954 E21.93733
G1 X50.244 Y102.065 E21.98432
G1 X49.850 Y102.102 E22.03129
G1 X49.456 Y102.065 E22.07828
G1 X49.076 Y101.954 E22.12526
G1 X48.724 Y101.775 E22.17224
G1 X48.411 Y101.532 E22.21922
G1 X48.150 Y101.235 E22.26621
G1 X47.951 Y100.900 E22.31244
G1 X47.852 Y100.649 E22.34450
G1 X47.786 Y100.394 E22.37578
G1 X47.749 Y100.006 E22.42214
G1 X47.771 Y99.681 E22.46080
G1 X47.894 Y99.229 E22.51645
G1 X48.075 Y98.874 E22.56380
G1 X48.318 Y98.561 E22.61079
G1 X48.615 Y98.300 E22.65777
G1 X48.955 Y98.098 E22.70475
G1 X49.321 Y97.966 E22.75098
G1 X49.587 Y97.916 E22.78305
G1 X49.849 Y97.899 E22.81432 F1800.000
G1 X50.243 Y97.935 E22.86132
G1 X50.624 Y98.046 E22.90836
G1 X50.976 Y98.225 E22.95534
G1 X51.289 Y98.468 E23.00232
G1 X51.550 Y98.765 E23.04930
G1 X51.752 Y99.105 E23.09629
G1 X51.884 Y99.471 E23.14251
G1 X51.934 Y99.737 E23.17460
