;FLAVOR:Marlin
;TIME:8892
;Filament used: 4.56253m
;Layer height: 0.15
;Generated with Cura_SteamEngine 3.6.0
M104 S200
M105
M109 S200
M82 ;absolute extrusion mode
; -- START GCODE --
G21                     ;set units to millimetres
G90                     ;set to absolute positioning
M106 S0                 ;set fan speed to zero (turned off)
G28 X0 Y0               ;move to the X/Y origin (Home)
G28 Z0                  ;move to the Z origin (Home)
G1 Z15.0 F1200          ;move Z to position 15.0 mm
G92 E0                  ;zero the extruded length
G1 E20 F200             ;extrude 20mm of feed stock
G92 E0                  ;zero the extruded length again
G1 F7200                ;set feedrate to 120 mm/s
; -- end of START GCODE --
G92 E0
G1 F1500 E-6.5
;LAYER_COUNT:40
;LAYER:0
M107
G0 F3600 X54.19 Y90.916 Z0.2
;TYPE:SKIRT
G1 F1500 E0
G1 F1200 X59.256 Y87.898 E0.19613
G1 X63.755 Y84.852 E0.37684
G1 X68.102 Y81.537 E0.55866
G1 X72.237 Y77.995 E0.73975
G1 X76.182 Y74.212 E0.92154
G1 X78.038 Y72.274 E1.01079
G1 X81.662 Y68.153 E1.19332
G1 X85.013 Y63.875 E1.37406
G1 X89.051 Y57.986 E1.61155
G1 X89.386 Y57.568 E1.62937
G1 X89.78 Y57.204 E1.64721
G1 X90.223 Y56.902 E1.66504
G1 X90.707 Y56.67 E1.68289
G1 X91.219 Y56.512 E1.70071
G1 X91.75 Y56.432 E1.71857
G1 X92.019 Y56.422 E1.72753
G1 X131.19 Y56.41 E3.03036
G1 X131.725 Y56.45 E3.0482
G1 X132.248 Y56.569 E3.06604
G1 X132.747 Y56.764 E3.08386
G1 X133.212 Y57.031 E3.1017
G1 X133.632 Y57.364 E3.11952
G1 X133.998 Y57.756 E3.13736
G1 X134.316 Y58.222 E3.15613
G1 X136.574 Y62.169 E3.30737
G1 X139.505 Y66.754 E3.48836
G1 X142.71 Y71.192 E3.67044
G1 X146.147 Y75.424 E3.85177
G1 X149.824 Y79.464 E4.03346
G1 X151.695 Y81.353 E4.12189
G1 X155.74 Y85.102 E4.30533
G1 X159.927 Y88.565 E4.48605
G1 X163.347 Y91.123 E4.62809
G1 X163.751 Y91.476 E4.64594
G1 X164.098 Y91.884 E4.66375
G1 X164.381 Y92.34 E4.6816
G1 X164.593 Y92.832 E4.69942
G1 X164.73 Y93.351 E4.71727
G1 X164.79 Y94.006 E4.73915
G1 X164.79 Y115.996 E5.47054
G1 X164.75 Y116.531 E5.48838
G1 X164.631 Y117.054 E5.50622
G1 X164.436 Y117.553 E5.52404
G1 X164.168 Y118.018 E5.54189
G1 X163.919 Y118.344 E5.55554
G1 X161.551 Y121.097 E5.67632
G1 X158.157 Y125.428 E5.85933
G1 X155.057 Y129.881 E6.03979
G1 X152.194 Y134.534 E6.2215
G1 X149.607 Y139.325 E6.40259
G1 X147.281 Y144.286 E6.58483
G1 X146.258 Y146.729 E6.67293
G1 X144.569 Y151.243 E6.83323
G1 X144.344 Y151.729 E6.85104
G1 X144.049 Y152.178 E6.86891
G1 X143.691 Y152.577 E6.88674
G1 X143.278 Y152.919 E6.90457
G1 X142.818 Y153.195 E6.92242
G1 X142.323 Y153.4 E6.94023
G1 X141.803 Y153.53 E6.95806
G1 X141.198 Y153.581 E6.97826
G1 X80.032 Y153.59 E9.01265
G1 X79.497 Y153.55 E9.03049
G1 X78.974 Y153.431 E9.04833
G1 X78.474 Y153.236 E9.06618
G1 X78.009 Y152.969 E9.08401
G1 X77.589 Y152.635 E9.10186
G1 X77.223 Y152.243 E9.1197
G1 X76.92 Y151.801 E9.13752
G1 X76.739 Y151.448 E9.15072
G1 X75.937 Y149.637 E9.21659
G1 X73.533 Y144.704 E9.39911
G1 X70.882 Y139.968 E9.57963
G1 X67.958 Y135.373 E9.76078
G1 X64.765 Y130.932 E9.9427
G1 X61.335 Y126.689 E10.12417
G1 X57.678 Y122.656 E10.30524
G1 X53.51 Y118.559 E10.49963
G1 X53.156 Y118.155 E10.5175
G1 X52.867 Y117.704 E10.53531
G1 X52.647 Y117.214 E10.55318
G1 X52.503 Y116.698 E10.57099
G1 X52.433 Y115.991 E10.59462
G1 X52.433 Y94.009 E11.32575
G1 X52.473 Y93.474 E11.34359
G1 X52.592 Y92.951 E11.36143
G1 X52.787 Y92.452 E11.37925
G1 X53.055 Y91.987 E11.3971
G1 X53.388 Y91.567 E11.41493
G1 X53.78 Y91.201 E11.43277
G1 X54.19 Y90.916 E11.44937
G0 F3600 X54.395 Y91.26
G1 F1200 X59.46 Y88.243 E11.64546
G1 X63.996 Y85.171 E11.82767
G1 X68.35 Y81.851 E12.00978
G1 X72.5 Y78.296 E12.19153
G1 X76.464 Y74.495 E12.37419
G1 X78.345 Y72.532 E12.46462
G1 X81.962 Y68.418 E12.64681
G1 X85.338 Y64.108 E12.82891
G1 X89.381 Y58.212 E13.06668
G1 X89.699 Y57.819 E13.0835
G1 X90.075 Y57.481 E13.10031
G1 X90.499 Y57.207 E13.11711
G1 X90.961 Y57.002 E13.13392
G1 X91.45 Y56.873 E13.15074
G1 X92.019 Y56.822 E13.16974
G1 X131.19 Y56.81 E14.47257
G1 X131.694 Y56.85 E14.48939
G1 X132.185 Y56.968 E14.50618
G1 X132.652 Y57.163 E14.52301
G1 X133.082 Y57.429 E14.53983
G1 X133.465 Y57.759 E14.55665
G1 X133.791 Y58.145 E14.57345
G1 X133.968 Y58.421 E14.58436
G1 X136.225 Y62.366 E14.73552
G1 X139.181 Y66.991 E14.91809
G1 X142.383 Y71.425 E15.1
G1 X145.831 Y75.671 E15.28192
G1 X149.539 Y79.744 E15.46512
G1 X151.434 Y81.657 E15.55468
G1 X155.467 Y85.395 E15.73757
G1 X159.695 Y88.891 E15.92004
G1 X163.107 Y91.444 E16.06177
G1 X163.487 Y91.778 E16.0786
G1 X163.809 Y92.167 E16.0954
G1 X164.066 Y92.603 E16.11223
G1 X164.251 Y93.073 E16.12903
G1 X164.36 Y93.567 E16.14586
G1 X164.39 Y94.006 E16.16049
G1 X164.39 Y115.996 E16.89188
G1 X164.35 Y116.5 E16.9087
G1 X164.231 Y116.991 E16.9255
G1 X164.037 Y117.458 E16.94232
G1 X163.616 Y118.083 E16.96738
G1 X161.236 Y120.85 E17.08878
G1 X157.838 Y125.186 E17.272
G1 X154.717 Y129.668 E17.45365
G1 X151.851 Y134.326 E17.63556
G1 X149.242 Y139.158 E17.8182
G1 X146.921 Y144.111 E18.00013
G1 X145.883 Y146.588 E18.08945
G1 X144.194 Y151.102 E18.24976
G1 X143.98 Y151.56 E18.26657
G1 X143.697 Y151.979 E18.28339
G1 X143.351 Y152.348 E18.30021
G1 X142.951 Y152.657 E18.31702
G1 X142.508 Y152.9 E18.33383
G1 X142.031 Y153.07 E18.35067
G1 X141.535 Y153.163 E18.36746
G1 X141.197 Y153.181 E18.37871
G1 X80.031 Y153.19 E20.4131
G1 X79.527 Y153.15 E20.42992
G1 X79.036 Y153.031 E20.44672
G1 X78.569 Y152.837 E20.46354
G1 X78.139 Y152.571 E20.48036
G1 X77.756 Y152.241 E20.49717
G1 X77.43 Y151.855 E20.51398
G1 X77.105 Y151.286 E20.53577
G1 X76.3 Y149.467 E20.60193
G1 X73.891 Y144.527 E20.78473
G1 X71.23 Y139.772 E20.96596
G1 X68.277 Y135.13 E21.14895
G1 X65.092 Y130.701 E21.3304
G1 X61.635 Y126.425 E21.51328
G1 X57.964 Y122.375 E21.69509
G1 X53.79 Y118.273 E21.88973
G1 X53.459 Y117.892 E21.90652
G1 X53.191 Y117.462 E21.92337
G1 X52.995 Y116.996 E21.94018
G1 X52.875 Y116.505 E21.957
G1 X52.833 Y115.991 E21.97415
G1 X52.833 Y94.009 E22.70527
G1 X52.873 Y93.505 E22.72209
G1 X52.992 Y93.014 E22.73889
G1 X53.186 Y92.547 E22.75571
G1 X53.452 Y92.117 E22.77253
G1 X53.782 Y91.734 E22.78934
G1 X54.169 Y91.408 E22.80617
G1 X54.395 Y91.26 E22.81516
G1 F1500 E16.31516
;MESH:HP_PR1101U_standard.stl(4)
G0 F3600 X91.359 Y81.387
G0 X92.638 Y81.386
G0 X102.418 Y79.67
G0 X102.348 Y79.6
;TYPE:WALL-INNER
G1 F1500 E22.81516
G1 F1200 X102.348 Y75.4 E22.95485
G1 X92.624 Y75.4 E23.27827
G1 X92.623 Y66.8 E23.56431
G1 X92.623 Y66.6 E23.57096
G1 X92.823 Y66.6 E23.57527
G1 X102.348 Y66.6 E23.89207
G1 X102.348 Y62.4 E24.03176
G1 X92.623 Y62.4 E24.35522
G1 X92.623 Y60.6 E24.41509
G1 X108.6 Y60.6 E24.94648
G1 X108.6 Y81.4 E25.6383
G1 X92.624 Y81.4 E26.16966
G1 X92.623 Y79.8 E26.22288
G1 X92.623 Y79.6 E26.22953
G1 X92.823 Y79.6 E26.23384
G1 X102.348 Y79.6 E26.55064
G0 F3600 X101.948 Y79.2
;TYPE:WALL-OUTER
G1 F1200 X101.948 Y75.8 E26.66372
G1 X92.224 Y75.8 E26.98714
G1 X92.223 Y66.4 E27.29979
G1 X92.223 Y66.2 E27.30644
G1 X92.423 Y66.2 E27.31075
G1 X101.948 Y66.2 E27.62755
G1 X101.948 Y62.8 E27.74064
G1 X92.223 Y62.8 E28.06409
G1 X92.223 Y60.2 E28.15057
G1 X109 Y60.2 E28.70857
G1 X109 Y81.8 E29.42699
G1 X92.224 Y81.8 E29.98496
G1 X92.223 Y79.4 E30.06479
G1 X92.223 Y79.2 E30.07144
G1 X92.423 Y79.2 E30.07575
G1 X101.948 Y79.2 E30.39255
G0 F3600 X101.948 Y79
G0 X102.448 Y79
G0 X102.738 Y79.99
;TYPE:SKIN
G1 F1200 X102.738 Y75.01 E30.55818
G1 X93.014 Y75.01 E30.88161
G1 X93.013 Y66.99 E31.14835
G1 X102.738 Y66.99 E31.47181
G1 X102.738 Y62.01 E31.63744
G1 X93.013 Y62.01 E31.9609
G1 X93.013 Y60.99 E31.99482
G1 X108.21 Y60.99 E32.50028
G1 X108.21 Y81.01 E33.16615
G1 X93.014 Y81.01 E33.67157
G1 X93.013 Y79.99 E33.70549
G1 X102.738 Y79.99 E34.02895
G0 F3600 X93.275 Y80.83
G1 F1200 X93.192 Y80.747 E34.03285
G0 F3600 X93.192 Y80.181
G1 F1200 X93.84 Y80.83 E34.06335
G0 F3600 X94.406 Y80.83
G1 F1200 X93.746 Y80.17 E34.0944
G0 F3600 X94.312 Y80.17
G1 F1200 X94.972 Y80.83 E34.12544
G0 F3600 X95.537 Y80.83
G1 F1200 X94.878 Y80.17 E34.15646
G0 F3600 X95.443 Y80.17
G1 F1200 X96.103 Y80.83 E34.18751
G0 F3600 X96.669 Y80.83
G1 F1200 X96.009 Y80.17 E34.21855
G0 F3600 X96.575 Y80.17
G1 F1200 X97.234 Y80.83 E34.24957
G0 F3600 X97.8 Y80.83
G1 F1200 X97.14 Y80.17 E34.28062
G0 F3600 X97.706 Y80.17
G1 F1200 X98.366 Y80.83 E34.31166
G0 F3600 X98.932 Y80.83
G1 F1200 X98.272 Y80.17 E34.34271
G0 F3600 X98.837 Y80.17
G1 F1200 X99.497 Y80.83 E34.37375
G0 F3600 X100.063 Y80.83
G1 F1200 X99.403 Y80.17 E34.4048
G0 F3600 X99.969 Y80.17
G1 F1200 X100.629 Y80.83 E34.43584
G0 F3600 X101.194 Y80.83
G1 F1200 X100.535 Y80.17 E34.46686
G0 F3600 X101.1 Y80.17
G1 F1200 X101.76 Y80.83 E34.4979
G0 F3600 X102.326 Y80.83
G1 F1200 X101.666 Y80.17 E34.52895
G0 F3600 X102.232 Y80.17
G1 F1200 X102.891 Y80.83 E34.55997
G0 F3600 X103.457 Y80.83
G1 F1200 X102.797 Y80.17 E34.59101
G0 F3600 X102.917 Y79.724
G1 F1200 X104.023 Y80.83 E34.64304
G0 F3600 X104.588 Y80.83
G1 F1200 X102.917 Y79.158 E34.72166
G0 F3600 X102.917 Y78.592
G1 F1200 X105.154 Y80.83 E34.8269
G0 F3600 X105.72 Y80.83
G1 F1200 X102.917 Y78.027 E34.95875
G0 F3600 X102.917 Y77.461
G1 F1200 X106.285 Y80.83 E35.11719
G0 F3600 X106.851 Y80.83
G1 F1200 X102.917 Y76.895 E35.30226
G0 F3600 X102.917 Y76.33
G1 F1200 X107.417 Y80.83 E35.51393
G0 F3600 X107.982 Y80.83
G1 F1200 X102.917 Y75.764 E35.75219
G0 F3600 X102.917 Y75.198
G1 F1200 X108.029 Y80.311 E35.99267
G0 F3600 X108.029 Y79.745
G1 F1200 X95.454 Y67.17 E36.58416
G0 F3600 X94.888 Y67.17
G1 F1200 X102.548 Y74.829 E36.94444
G0 F3600 X101.982 Y74.829
G1 F1200 X94.323 Y67.17 E37.30469
G0 F3600 X93.757 Y67.17
G1 F1200 X101.416 Y74.829 E37.66495
G0 F3600 X100.851 Y74.829
G1 F1200 X93.192 Y67.17 E38.0252
G0 F3600 X93.192 Y67.736
G1 F1200 X100.285 Y74.829 E38.35884
G0 F3600 X99.719 Y74.829
G1 F1200 X93.192 Y68.302 E38.66585
G0 F3600 X93.192 Y68.867
G1 F1200 X99.154 Y74.829 E38.94628
G0 F3600 X98.588 Y74.829
G1 F1200 X93.192 Y69.433 E39.20009
G0 F3600 X93.192 Y69.999
G1 F1200 X98.022 Y74.829 E39.42728
G0 F3600 X97.456 Y74.829
G1 F1200 X93.192 Y70.565 E39.62785
G0 F3600 X93.192 Y71.13
G1 F1200 X96.891 Y74.829 E39.80184
G0 F3600 X96.325 Y74.829
G1 F1200 X93.192 Y71.696 E39.9492
G0 F3600 X93.192 Y72.262
G1 F1200 X95.759 Y74.829 E40.06995
G0 F3600 X95.194 Y74.829
G1 F1200 X93.192 Y72.827 E40.16411
G0 F3600 X93.192 Y73.393
G1 F1200 X94.628 Y74.829 E40.23166
G0 F3600 X94.062 Y74.829
G1 F1200 X93.192 Y73.959 E40.27258
G0 F3600 X93.192 Y74.524
G1 F1200 X93.497 Y74.829 E40.28693
G0 F3600 X96.02 Y67.17
G1 F1200 X108.029 Y79.179 E40.85179
G0 F3600 X108.029 Y78.614
G1 F1200 X96.585 Y67.17 E41.39009
G0 F3600 X97.151 Y67.17
G1 F1200 X108.029 Y78.048 E41.90175
G0 F3600 X108.029 Y77.482
G1 F1200 X97.717 Y67.17 E42.3868
G0 F3600 X98.282 Y67.17
G1 F1200 X108.029 Y76.916 E42.84524
G0 F3600 X108.029 Y76.351
G1 F1200 X98.848 Y67.17 E43.27709
G0 F3600 X99.414 Y67.17
G1 F1200 X108.029 Y75.785 E43.68231
G0 F3600 X108.029 Y75.219
G1 F1200 X99.979 Y67.17 E44.06094
G0 F3600 X100.545 Y67.17
G1 F1200 X108.029 Y74.654 E44.41296
G0 F3600 X108.029 Y74.088
G1 F1200 X101.111 Y67.17 E44.73836
G0 F3600 X101.677 Y67.17
G1 F1200 X108.029 Y73.522 E45.03714
G0 F3600 X108.029 Y72.957
G1 F1200 X102.242 Y67.17 E45.30934
G0 F3600 X102.808 Y67.17
G1 F1200 X108.029 Y72.391 E45.55492
G0 F3600 X108.029 Y71.825
G1 F1200 X102.917 Y66.713 E45.79538
G0 F3600 X102.917 Y66.147
G1 F1200 X108.029 Y71.26 E46.03585
G0 F3600 X108.029 Y70.694
G1 F1200 X102.917 Y65.582 E46.27631
G0 F3600 X102.917 Y65.016
G1 F1200 X108.029 Y70.128 E46.51676
G0 F3600 X108.029 Y69.563
G1 F1200 X102.917 Y64.45 E46.75723
G0 F3600 X102.917 Y63.884
G1 F1200 X108.029 Y68.997 E46.99771
G0 F3600 X108.029 Y68.431
G1 F1200 X102.917 Y63.319 E47.23816
G0 F3600 X102.917 Y62.753
G1 F1200 X108.029 Y67.865 E47.47862
G0 F3600 X108.029 Y67.3
G1 F1200 X102.917 Y62.187 E47.71909
G0 F3600 X102.559 Y61.83
G1 F1200 X101.899 Y61.17 E47.75014
G0 F3600 X101.334 Y61.17
G1 F1200 X101.993 Y61.83 E47.78116
G0 F3600 X101.428 Y61.83
G1 F1200 X100.768 Y61.17 E47.8122
G0 F3600 X100.202 Y61.17
G1 F1200 X100.862 Y61.83 E47.84325
G0 F3600 X100.296 Y61.83
G1 F1200 X99.637 Y61.17 E47.87427
G0 F3600 X99.071 Y61.17
G1 F1200 X99.731 Y61.83 E47.90531
G0 F3600 X99.165 Y61.83
G1 F1200 X98.505 Y61.17 E47.93636
G0 F3600 X97.939 Y61.17
G1 F1200 X98.599 Y61.83 E47.9674
G0 F3600 X98.033 Y61.83
G1 F1200 X97.374 Y61.17 E47.99842
G0 F3600 X96.808 Y61.17
G1 F1200 X97.468 Y61.83 E48.02947
G0 F3600 X96.902 Y61.83
G1 F1200 X96.242 Y61.17 E48.06051
G0 F3600 X95.677 Y61.17
G1 F1200 X96.336 Y61.83 E48.09153
G0 F3600 X95.771 Y61.83
G1 F1200 X95.111 Y61.17 E48.12258
G0 F3600 X94.545 Y61.17
G1 F1200 X95.205 Y61.83 E48.15362
G0 F3600 X94.639 Y61.83
G1 F1200 X93.98 Y61.17 E48.18464
G0 F3600 X93.414 Y61.17
G1 F1200 X94.074 Y61.83 E48.21569
G0 F3600 X93.508 Y61.83
G1 F1200 X93.191 Y61.513 E48.2306
G0 F3600 X102.465 Y61.17
G1 F1200 X108.029 Y66.734 E48.49231
G0 F3600 X108.029 Y66.168
G1 F1200 X103.031 Y61.17 E48.7274
G0 F3600 X103.596 Y61.17
G1 F1200 X108.029 Y65.603 E48.93592
G0 F3600 X108.029 Y65.037
G1 F1200 X104.162 Y61.17 E49.11781
G0 F3600 X104.728 Y61.17
G1 F1200 X108.029 Y64.471 E49.27308
G0 F3600 X108.029 Y63.906
G1 F1200 X105.293 Y61.17 E49.40177
G0 F3600 X105.859 Y61.17
G1 F1200 X108.029 Y63.34 E49.50384
G0 F3600 X108.029 Y62.774
G1 F1200 X106.425 Y61.17 E49.57929
G0 F3600 X106.99 Y61.17
G1 F1200 X108.029 Y62.209 E49.62816
G0 F3600 X108.029 Y61.643
G1 F1200 X107.556 Y61.17 E49.65041
G1 F1500 E43.15041
;MESH:HP_PR1101U_standard.stl(5)
G0 F3600 X108.58 Y79.67
G0 X109.865 Y79.67
G0 X113.359 Y79.615
G0 X114.637 Y79.614
G0 X124.418 Y79.67
G0 X124.348 Y79.6
;TYPE:WALL-INNER
G1 F1500 E49.65041
G1 F1200 X124.348 Y75.4 E49.7901
G1 X114.624 Y75.4 E50.11352
G1 X114.623 Y66.8 E50.39956
G1 X114.623 Y66.6 E50.40621
G1 X114.823 Y66.6 E50.41052
G1 X124.348 Y66.6 E50.72732
G1 X124.348 Y62.4 E50.86701
G1 X114.623 Y62.4 E51.19047
G1 X114.623 Y60.6 E51.25034
G1 X130.6 Y60.6 E51.78173
G1 X130.6 Y81.4 E52.47354
G1 X114.624 Y81.4 E53.00491
G1 X114.623 Y79.8 E53.05812
G1 X114.623 Y79.6 E53.06478
G1 X114.823 Y79.6 E53.06908
G1 X124.348 Y79.6 E53.38589
G0 F3600 X123.948 Y79.2
;TYPE:WALL-OUTER
G1 F1200 X123.948 Y75.8 E53.49897
G1 X114.224 Y75.8 E53.82239
G1 X114.223 Y66.4 E54.13504
G1 X114.223 Y66.2 E54.14169
G1 X114.423 Y66.2 E54.146
G1 X123.948 Y66.2 E54.4628
G1 X123.948 Y62.8 E54.57588
G1 X114.223 Y62.8 E54.89934
G1 X114.223 Y60.2 E54.98581
G1 X131 Y60.2 E55.54382
G1 X131 Y81.8 E56.26224
G1 X114.224 Y81.8 E56.82021
G1 X114.223 Y79.4 E56.90003
G1 X114.223 Y79.2 E56.90669
G1 X114.423 Y79.2 E56.91099
G1 X123.948 Y79.2 E57.2278
G0 F3600 X123.948 Y79
G0 X124.448 Y79
G0 X124.738 Y79.99
;TYPE:SKIN
G1 F1200 X124.738 Y75.01 E57.39343
G1 X115.014 Y75.01 E57.71685
G1 X115.013 Y66.99 E57.9836
G1 X124.738 Y66.99 E58.30705
G1 X124.738 Y62.01 E58.47269
G1 X115.013 Y62.01 E58.79615
G1 X115.013 Y60.99 E58.83007
G1 X130.21 Y60.99 E59.33552
G1 X130.21 Y81.01 E60.00139
G1 X115.014 Y81.01 E60.50681
G1 X115.013 Y79.99 E60.54074
G1 X124.738 Y79.99 E60.86419
G0 F3600 X115.336 Y80.829
G1 F1200 X115.192 Y80.685 E60.87097
G0 F3600 X115.242 Y80.17
G1 F1200 X115.901 Y80.829 E60.90196
G0 F3600 X116.467 Y80.829
G1 F1200 X115.808 Y80.17 E60.93296
G0 F3600 X116.374 Y80.17
G1 F1200 X117.033 Y80.829 E60.96396
G0 F3600 X117.598 Y80.829
G1 F1200 X116.939 Y80.17 E60.99496
G0 F3600 X117.505 Y80.17
G1 F1200 X118.164 Y80.829 E61.02595
G0 F3600 X118.73 Y80.829
G1 F1200 X118.071 Y80.17 E61.05695
G0 F3600 X118.636 Y80.17
G1 F1200 X119.295 Y80.829 E61.08795
G0 F3600 X119.861 Y80.829
G1 F1200 X119.202 Y80.17 E61.11895
G0 F3600 X119.768 Y80.17
G1 F1200 X120.427 Y80.829 E61.14994
G0 F3600 X120.993 Y80.829
G1 F1200 X120.334 Y80.17 E61.18094
G0 F3600 X120.899 Y80.17
G1 F1200 X121.558 Y80.829 E61.21194
G0 F3600 X122.124 Y80.829
G1 F1200 X121.465 Y80.17 E61.24294
G0 F3600 X122.031 Y80.17
G1 F1200 X122.69 Y80.829 E61.27393
G0 F3600 X123.255 Y80.829
G1 F1200 X122.596 Y80.17 E61.30493
G0 F3600 X123.162 Y80.17
G1 F1200 X123.821 Y80.829 E61.33593
G0 F3600 X124.387 Y80.829
G1 F1200 X123.728 Y80.17 E61.36692
G0 F3600 X124.293 Y80.17
G1 F1200 X124.952 Y80.829 E61.39792
G0 F3600 X125.518 Y80.829
G1 F1200 X124.859 Y80.17 E61.42892
