;FLAVOR:Marlin
;TIME:10872
;Filament used: 5.57424m
;Layer height: 0.15
;Generated with Cura_SteamEngine 3.6.0
M104 S200
M105
M109 S200
M82 ;absolute extrusion mode
; -- START GCODE --
G21                     ;set units to millimetres
G90                     ;set to absolute positioning
M106 S0                 ;set fan speed to zero (turned off)
G28 X0 Y0               ;move to the X/Y origin (Home)
G28 Z0                  ;move to the Z origin (Home)
G1 Z15.0 F1200          ;move Z to position 15.0 mm
G92 E0                  ;zero the extruded length
G1 E20 F200             ;extrude 20mm of feed stock
G92 E0                  ;zero the extruded length again
G1 F7200                ;set feedrate to 120 mm/s
; -- end of START GCODE --
G92 E0
G1 F1500 E-6.5
;LAYER_COUNT:40
;LAYER:0
M107
G0 F3600 X58.58 Y57.632 Z0.2
;TYPE:SKIRT
G1 F1500 E0
G1 F1200 X58.963 Y57.257 E0.01783
G1 X59.398 Y56.943 E0.03567
G1 X59.874 Y56.697 E0.05349
G1 X60.382 Y56.524 E0.07134
G1 X60.91 Y56.429 E0.08919
G1 X61.283 Y56.409 E0.10161
G1 X83.242 Y56.4 E0.83197
G1 X83.285 Y56.4 E0.8334
G1 X88.931 Y56.465 E1.0212
G1 X91.504 Y56.401 E1.1068
G1 X91.603 Y56.4 E1.1101
G1 X118.907 Y56.466 E2.01823
G1 X121.504 Y56.401 E2.10464
G1 X121.596 Y56.4 E2.1077
G1 X143.943 Y56.41 E2.85096
G1 X144.477 Y56.45 E2.86877
G1 X145 Y56.569 E2.88661
G1 X145.5 Y56.765 E2.90447
G1 X145.964 Y57.032 E2.92228
G1 X146.384 Y57.366 E2.94013
G1 X146.75 Y57.758 E2.95796
G1 X147.053 Y58.201 E2.97582
G1 X147.288 Y58.683 E2.99365
G1 X147.448 Y59.195 E3.01149
G1 X147.539 Y59.889 E3.03477
G1 X147.745 Y66.03 E3.23914
G1 X148.248 Y71.473 E3.42094
G1 X149.05 Y76.838 E3.60137
G1 X150.168 Y82.215 E3.78403
G1 X150.819 Y84.792 E3.87244
G1 X152.396 Y90.079 E4.05594
G1 X153.337 Y92.81 E4.15201
G1 X153.473 Y93.329 E4.16986
G1 X153.533 Y93.971 E4.1913
G1 X153.59 Y110.876 E4.75357
G1 X153.898 Y116.318 E4.93486
G1 X154.515 Y121.753 E5.11679
G1 X155.502 Y127.745 E5.31877
G1 X155.55 Y128.331 E5.33833
G1 X155.541 Y149.992 E6.05877
G1 X155.501 Y150.527 E6.07662
G1 X155.382 Y151.05 E6.09446
G1 X155.186 Y151.55 E6.11232
G1 X154.919 Y152.014 E6.13012
G1 X154.585 Y152.434 E6.14797
G1 X154.193 Y152.8 E6.16581
G1 X153.75 Y153.103 E6.18366
G1 X153.268 Y153.337 E6.20148
G1 X152.756 Y153.497 E6.21932
G1 X152.226 Y153.58 E6.23717
G1 X151.942 Y153.591 E6.24662
G1 X129.982 Y153.6 E6.97701
G1 X129.901 Y153.599 E6.97971
G1 X127.063 Y153.536 E7.07412
G1 X99.989 Y153.6 E7.97461
G1 X99.901 Y153.599 E7.97754
G1 X97.062 Y153.536 E8.07198
G1 X69.287 Y153.59 E8.99579
G1 X68.752 Y153.551 E9.01363
G1 X68.229 Y153.433 E9.03146
G1 X67.729 Y153.239 E9.0493
G1 X67.264 Y152.972 E9.06713
G1 X66.843 Y152.64 E9.08497
G1 X66.476 Y152.248 E9.10283
G1 X66.225 Y151.894 E9.11726
G1 X62.34 Y145.659 E9.3616
G1 X59.169 Y141.242 E9.54245
G1 X55.737 Y136.989 E9.72421
G1 X52.082 Y132.948 E9.90544
G1 X48.202 Y129.122 E10.08668
G1 X44.089 Y125.497 E10.26903
G1 X42.014 Y123.822 E10.35772
G1 X37.568 Y120.531 E10.5417
G1 X35.264 Y118.97 E10.63426
G1 X34.843 Y118.637 E10.65212
G1 X34.477 Y118.245 E10.66995
G1 X34.173 Y117.804 E10.68777
G1 X33.938 Y117.322 E10.7056
G1 X33.778 Y116.81 E10.72344
G1 X33.695 Y116.28 E10.74129
G1 X33.683 Y115.99 E10.75094
G1 X33.683 Y94.009 E11.48203
G1 X33.723 Y93.474 E11.49988
G1 X33.842 Y92.951 E11.51772
G1 X34.037 Y92.452 E11.53553
G1 X34.305 Y91.987 E11.55339
G1 X34.737 Y91.464 E11.57595
G1 X40.023 Y86.177 E11.82461
G1 X43.622 Y82.076 E12.00608
G1 X45.305 Y79.983 E12.09541
G1 X48.551 Y75.579 E12.27738
G1 X51.535 Y71.012 E12.45883
G1 X54.248 Y66.297 E12.63976
G1 X56.718 Y61.382 E12.82271
G1 X58.001 Y58.532 E12.92666
G1 X58.257 Y58.06 E12.94452
G1 X58.58 Y57.632 E12.96236
G0 F3600 X58.919 Y57.853
G1 F1200 X59.288 Y57.508 E12.97916
G1 X59.707 Y57.225 E12.99598
G1 X60.165 Y57.011 E13.01279
G1 X60.651 Y56.872 E13.0296
G1 X61.283 Y56.809 E13.05073
G1 X83.242 Y56.8 E13.78109
G1 X83.28 Y56.8 E13.78235
G1 X88.936 Y56.865 E13.97048
G1 X91.514 Y56.801 E14.05625
G1 X91.602 Y56.8 E14.05918
G1 X118.916 Y56.866 E14.96765
G1 X121.514 Y56.801 E15.05409
G1 X121.595 Y56.8 E15.05678
G1 X143.942 Y56.81 E15.80005
G1 X144.446 Y56.85 E15.81686
G1 X144.938 Y56.969 E15.8337
G1 X145.404 Y57.164 E15.8505
G1 X145.834 Y57.43 E15.86732
G1 X146.217 Y57.76 E15.88413
G1 X146.543 Y58.147 E15.90096
G1 X146.804 Y58.58 E15.91778
G1 X146.993 Y59.049 E15.93459
G1 X147.107 Y59.541 E15.95139
G1 X147.139 Y59.903 E15.96348
G1 X147.346 Y66.063 E16.16848
G1 X147.848 Y71.497 E16.34998
G1 X148.659 Y76.924 E16.53249
G1 X149.778 Y82.303 E16.71523
G1 X150.435 Y84.907 E16.80455
G1 X152.015 Y90.204 E16.9884
G1 X152.958 Y92.94 E17.08465
G1 X153.085 Y93.43 E17.10149
G1 X153.133 Y93.972 E17.11959
G1 X153.19 Y110.882 E17.68202
G1 X153.5 Y116.349 E17.86414
G1 X154.121 Y121.824 E18.04741
G1 X155.107 Y127.81 E18.24919
G1 X155.15 Y128.331 E18.26658
G1 X155.141 Y149.992 E18.98702
G1 X155.101 Y150.496 E19.00384
G1 X154.982 Y150.988 E19.02068
G1 X154.787 Y151.454 E19.03748
G1 X154.521 Y151.884 E19.05429
G1 X154.191 Y152.267 E19.07111
G1 X153.804 Y152.593 E19.08794
G1 X153.371 Y152.854 E19.10475
G1 X152.902 Y153.043 E19.12157
G1 X152.41 Y153.156 E19.13836
G1 X151.942 Y153.191 E19.15397
G1 X129.982 Y153.2 E19.88436
G1 X129.91 Y153.199 E19.88676
G1 X127.071 Y153.136 E19.98121
G1 X99.989 Y153.2 E20.88196
G1 X99.91 Y153.199 E20.88459
G1 X97.071 Y153.136 E20.97904
G1 X69.286 Y153.19 E21.90317
G1 X68.782 Y153.151 E21.91999
G1 X68.291 Y153.033 E21.93678
G1 X67.824 Y152.839 E21.9536
G1 X67.393 Y152.574 E21.97043
G1 X67.009 Y152.245 E21.98725
G1 X66.564 Y151.682 E22.01112
G1 X62.672 Y145.436 E22.25589
G1 X59.482 Y140.991 E22.43786
G1 X56.046 Y136.734 E22.61982
G1 X52.377 Y132.678 E22.80173
G1 X48.474 Y128.829 E22.98404
G1 X44.335 Y125.182 E23.16752
G1 X42.257 Y123.504 E23.25636
G1 X37.814 Y120.215 E23.44022
G1 X35.488 Y118.639 E23.53367
G1 X35.093 Y118.323 E23.55049
G1 X34.753 Y117.949 E23.5673
G1 X34.476 Y117.526 E23.58412
G1 X34.269 Y117.065 E23.60093
G1 X34.137 Y116.577 E23.61774
G1 X34.083 Y115.99 E23.63735
G1 X34.083 Y94.009 E24.36844
G1 X34.123 Y93.505 E24.38526
G1 X34.242 Y93.014 E24.40206
G1 X34.436 Y92.547 E24.41888
G1 X34.702 Y92.117 E24.4357
G1 X35.02 Y91.746 E24.45195
G1 X40.317 Y86.448 E24.70113
G1 X43.939 Y82.32 E24.88378
G1 X45.613 Y80.239 E24.97261
G1 X48.884 Y75.801 E25.15598
G1 X51.87 Y71.23 E25.33758
G1 X54.61 Y66.47 E25.52025
G1 X57.074 Y61.566 E25.70279
G1 X58.366 Y58.696 E25.80747
G1 X58.609 Y58.253 E25.82428
G1 X58.919 Y57.853 E25.84111
G1 F1500 E19.34111
;MESH:HP_PR1101U_long.stl(8)
G0 F3600 X60.608 Y60.614
G0 X61.887 Y60.614
G0 X71.626 Y62.372
G0 X71.668 Y79.67
G0 X71.598 Y79.6
;TYPE:WALL-INNER
G1 F1500 E25.84111
G1 F1200 X71.598 Y75.4 E25.9808
G1 X61.874 Y75.4 E26.30422
G1 X61.873 Y66.8 E26.59026
G1 X61.873 Y66.6 E26.59691
G1 X62.073 Y66.6 E26.60122
G1 X71.598 Y66.6 E26.91802
G1 X71.598 Y62.4 E27.05772
G1 X61.873 Y62.4 E27.38117
G1 X61.873 Y60.6 E27.44104
G1 X83.35 Y60.6 E28.15537
G1 X83.35 Y81.4 E28.84718
G1 X61.874 Y81.4 E29.56147
G1 X61.873 Y79.8 E29.61469
G1 X61.873 Y79.6 E29.62134
G1 X62.073 Y79.6 E29.62565
G1 X71.598 Y79.6 E29.94245
G0 F3600 X71.198 Y79.2
;TYPE:WALL-OUTER
G1 F1200 X71.198 Y75.8 E30.05553
G1 X61.474 Y75.8 E30.37896
G1 X61.473 Y66.4 E30.6916
G1 X61.473 Y66.2 E30.69825
G1 X61.673 Y66.2 E30.70256
G1 X71.198 Y66.2 E31.01936
G1 X71.198 Y62.8 E31.13245
G1 X61.473 Y62.8 E31.4559
G1 X61.473 Y60.2 E31.54238
G1 X83.75 Y60.2 E32.28332
G1 X83.75 Y81.8 E33.00173
G1 X61.474 Y81.8 E33.74264
G1 X61.473 Y79.4 E33.82246
G1 X61.473 Y79.2 E33.82911
G1 X61.673 Y79.2 E33.83342
G1 X71.198 Y79.2 E34.15022
G0 F3600 X71.198 Y79
G0 X71.698 Y79
G0 X71.988 Y79.99
;TYPE:SKIN
G1 F1200 X71.988 Y75.01 E34.31586
G1 X62.264 Y75.01 E34.63928
G1 X62.263 Y66.99 E34.90603
G1 X71.988 Y66.99 E35.22948
G1 X71.988 Y62.01 E35.39512
G1 X62.263 Y62.01 E35.71857
G1 X62.263 Y60.99 E35.7525
G1 X82.96 Y60.99 E36.44088
G1 X82.96 Y81.01 E37.10675
G1 X62.264 Y81.01 E37.7951
G1 X62.263 Y79.99 E37.82903
G1 X71.988 Y79.99 E38.15248
G0 F3600 X62.727 Y80.829
G1 F1200 X62.443 Y80.545 E38.16584
G0 F3600 X62.633 Y80.169
G1 F1200 X63.293 Y80.829 E38.19688
G0 F3600 X63.858 Y80.829
G1 F1200 X63.199 Y80.169 E38.22791
G0 F3600 X63.764 Y80.169
G1 F1200 X64.424 Y80.829 E38.25895
G0 F3600 X64.99 Y80.829
G1 F1200 X64.33 Y80.169 E38.28999
G0 F3600 X64.896 Y80.169
G1 F1200 X65.555 Y80.829 E38.32102
G0 F3600 X66.121 Y80.829
G1 F1200 X65.461 Y80.169 E38.35206
G0 F3600 X66.027 Y80.169
G1 F1200 X66.687 Y80.829 E38.3831
G0 F3600 X67.252 Y80.829
G1 F1200 X66.593 Y80.169 E38.41412
G0 F3600 X67.158 Y80.169
G1 F1200 X67.818 Y80.829 E38.44517
G0 F3600 X68.384 Y80.829
G1 F1200 X67.724 Y80.169 E38.47621
G0 F3600 X68.29 Y80.169
G1 F1200 X68.949 Y80.829 E38.50723
G0 F3600 X69.515 Y80.829
G1 F1200 X68.855 Y80.169 E38.53828
G0 F3600 X69.421 Y80.169
G1 F1200 X70.081 Y80.829 E38.56932
G0 F3600 X70.647 Y80.829
G1 F1200 X69.987 Y80.169 E38.60037
G0 F3600 X70.552 Y80.169
G1 F1200 X71.212 Y80.829 E38.63141
G0 F3600 X71.778 Y80.829
G1 F1200 X71.118 Y80.169 E38.66246
G0 F3600 X71.684 Y80.169
G1 F1200 X72.344 Y80.829 E38.6935
G0 F3600 X72.909 Y80.829
G1 F1200 X72.168 Y80.087 E38.72838
G0 F3600 X72.168 Y79.521
G1 F1200 X73.475 Y80.829 E38.78988
G0 F3600 X74.041 Y80.829
G1 F1200 X72.168 Y78.956 E38.87798
G0 F3600 X72.168 Y78.39
G1 F1200 X74.606 Y80.829 E38.99268
G0 F3600 X75.172 Y80.829
G1 F1200 X72.168 Y77.824 E39.134
G0 F3600 X72.168 Y77.259
G1 F1200 X75.738 Y80.829 E39.30192
G0 F3600 X76.303 Y80.829
G1 F1200 X72.168 Y76.693 E39.49644
G0 F3600 X72.168 Y76.127
G1 F1200 X76.869 Y80.829 E39.71759
G0 F3600 X77.435 Y80.829
G1 F1200 X72.168 Y75.562 E39.96533
G0 F3600 X72.168 Y74.996
G1 F1200 X78 Y80.829 E40.23968
G0 F3600 X78.566 Y80.829
G1 F1200 X64.906 Y67.169 E40.8822
G0 F3600 X64.341 Y67.169
G1 F1200 X72.001 Y74.829 E41.2425
G0 F3600 X71.435 Y74.829
G1 F1200 X63.775 Y67.169 E41.60281
G0 F3600 X63.209 Y67.169
G1 F1200 X70.869 Y74.829 E41.96311
G0 F3600 X70.304 Y74.829
G1 F1200 X62.644 Y67.169 E42.32341
G0 F3600 X62.443 Y67.534
G1 F1200 X69.738 Y74.829 E42.66655
G0 F3600 X69.172 Y74.829
G1 F1200 X62.443 Y68.1 E42.98306
G0 F3600 X62.443 Y68.665
G1 F1200 X68.607 Y74.829 E43.27299
G0 F3600 X68.041 Y74.829
G1 F1200 X62.443 Y69.231 E43.53631
G0 F3600 X62.443 Y69.797
G1 F1200 X67.475 Y74.829 E43.773
G0 F3600 X66.909 Y74.829
G1 F1200 X62.443 Y70.362 E43.98309
G0 F3600 X62.443 Y70.928
G1 F1200 X66.344 Y74.829 E44.16658
G0 F3600 X65.778 Y74.829
G1 F1200 X62.443 Y71.494 E44.32345
G0 F3600 X62.443 Y72.059
G1 F1200 X65.212 Y74.829 E44.45371
G0 F3600 X64.647 Y74.829
G1 F1200 X62.443 Y72.625 E44.55738
G0 F3600 X62.443 Y73.191
G1 F1200 X64.081 Y74.829 E44.63443
G0 F3600 X63.515 Y74.829
G1 F1200 X62.443 Y73.756 E44.68488
G0 F3600 X62.443 Y74.322
G1 F1200 X62.95 Y74.829 E44.70872
G0 F3600 X65.472 Y67.169
G1 F1200 X79.132 Y80.829 E45.35125
G0 F3600 X79.698 Y80.829
G1 F1200 X66.038 Y67.169 E45.99377
G0 F3600 X66.603 Y67.169
G1 F1200 X80.263 Y80.829 E46.6363
G0 F3600 X80.829 Y80.829
G1 F1200 X67.169 Y67.169 E47.27882
G0 F3600 X67.735 Y67.169
G1 F1200 X81.395 Y80.829 E47.92135
G0 F3600 X81.96 Y80.829
G1 F1200 X68.3 Y67.169 E48.56387
G0 F3600 X68.866 Y67.169
G1 F1200 X82.526 Y80.829 E49.2064
G0 F3600 X82.779 Y80.516
G1 F1200 X69.432 Y67.169 E49.8342
G0 F3600 X69.997 Y67.169
G1 F1200 X82.779 Y79.951 E50.43542
G0 F3600 X82.779 Y79.385
G1 F1200 X70.563 Y67.169 E51.01003
G0 F3600 X71.129 Y67.169
G1 F1200 X82.779 Y78.819 E51.55801
G0 F3600 X82.779 Y78.254
G1 F1200 X71.694 Y67.169 E52.07941
G0 F3600 X72.167 Y67.076
G1 F1200 X82.779 Y77.688 E52.57857
G0 F3600 X82.779 Y77.122
G1 F1200 X72.167 Y66.51 E53.07772
G0 F3600 X72.167 Y65.944
G1 F1200 X82.779 Y76.557 E53.5769
G0 F3600 X82.779 Y75.991
G1 F1200 X72.167 Y65.379 E54.07606
G0 F3600 X72.167 Y64.813
G1 F1200 X82.779 Y75.425 E54.57522
G0 F3600 X82.779 Y74.859
G1 F1200 X72.167 Y64.247 E55.07437
G0 F3600 X72.167 Y63.682
G1 F1200 X82.779 Y74.294 E55.57353
G0 F3600 X82.779 Y73.728
G1 F1200 X72.167 Y63.116 E56.07268
G0 F3600 X72.167 Y62.55
G1 F1200 X82.779 Y73.162 E56.57184
G0 F3600 X82.779 Y72.597
G1 F1200 X72.167 Y61.984 E57.07102
G0 F3600 X72.011 Y61.829
G1 F1200 X71.352 Y61.17 E57.10202
G0 F3600 X70.787 Y61.17
G1 F1200 X71.446 Y61.829 E57.13301
G0 F3600 X70.88 Y61.829
G1 F1200 X70.221 Y61.17 E57.16401
G0 F3600 X69.655 Y61.17
G1 F1200 X70.314 Y61.829 E57.19501
G1 X70.384 Y61.899
G0 F3600 X71.918 Y61.17
G1 F1200 X82.779 Y72.031 E57.70588
G0 F3600 X82.779 Y71.465
G1 F1200 X72.484 Y61.17 E58.19012
G0 F3600 X73.049 Y61.17
G1 F1200 X82.779 Y70.9 E58.64779
G0 F3600 X82.779 Y70.334
G1 F1200 X73.615 Y61.17 E59.07884
G0 F3600 X74.181 Y61.17
G1 F1200 X82.779 Y69.768 E59.48326
G0 F3600 X82.779 Y69.203
G1 F1200 X74.746 Y61.17 E59.86111
G0 F3600 X75.312 Y61.17
G1 F1200 X82.779 Y68.637 E60.21233
G0 F3600 X82.779 Y68.071
G1 F1200 X75.878 Y61.17 E60.53694
G0 F3600 X76.443 Y61.17
G1 F1200 X82.779 Y67.506 E60.83496
G0 F3600 X82.779 Y66.94
G1 F1200 X77.009 Y61.17 E61.10636
G0 F3600 X77.575 Y61.17
G1 F1200 X82.779 Y66.374 E61.35114
G0 F3600 X82.779 Y65.809
G1 F1200 X78.14 Y61.17 E61.56935
G0 F3600 X78.706 Y61.17
G1 F1200 X82.779 Y65.243 E61.76093
G0 F3600 X82.779 Y64.677
G1 F1200 X79.272 Y61.17 E61.92589
G0 F3600 X79.838 Y61.17
G1 F1200 X82.779 Y64.111 E62.06422
G0 F3600 X82.779 Y63.546
G1 F1200 X80.403 Y61.17 E62.17598
G0 F3600 X80.969 Y61.17
G1 F1200 X82.779 Y62.98 E62.26112
G0 F3600 X82.779 Y62.414
G1 F1200 X81.535 Y61.17 E62.31964
G0 F3600 X82.1 Y61.17
G1 F1200 X82.779 Y61.849 E62.35157
G0 F3600 X82.779 Y61.283
G1 F1200 X82.666 Y61.17 E62.35689
G0 F3600 X69.749 Y61.829
G1 F1200 X69.089 Y61.17 E62.38791
G0 F3600 X68.524 Y61.17
G1 F1200 X69.183 Y61.829 E62.41891
G0 F3600 X68.617 Y61.829
G1 F1200 X67.958 Y61.17 E62.4499
G0 F3600 X67.392 Y61.17
G1 F1200 X68.051 Y61.829 E62.4809
G0 F3600 X67.486 Y61.829
G1 F1200 X66.827 Y61.17 E62.5119
G0 F3600 X66.261 Y61.17
G1 F1200 X66.92 Y61.829 E62.5429
G0 F3600 X66.354 Y61.829
G1 F1200 X65.695 Y61.17 E62.57389
G0 F3600 X65.13 Y61.17
G1 F1200 X65.789 Y61.829 E62.60489
G0 F3600 X65.223 Y61.829
G1 F1200 X64.564 Y61.17 E62.63589
G0 F3600 X63.998 Y61.17
G1 F1200 X64.657 Y61.829 E62.66689
G0 F3600 X64.092 Y61.829
G1 F1200 X63.433 Y61.17 E62.69788
G0 F3600 X62.867 Y61.17
G1 F1200 X63.526 Y61.829 E62.72888
G0 F3600 X62.96 Y61.829
G1 F1200 X62.442 Y61.311 E62.75325
G1 F1500 E56.25325
;MESH:HP_PR1101U_long.stl(4)
G0 F3600 X71.626 Y62.372
G0 X83.33 Y79.67
G0 X84.615 Y79.67
G0 X90.609 Y79.615
G0 X91.887 Y79.614
G0 X101.668 Y79.67
G0 X101.598 Y79.6
;TYPE:WALL-INNER
G1 F1500 E62.75325
G1 F1200 X101.598 Y75.4 E62.89294
G1 X91.874 Y75.4 E63.21636
G1 X91.873 Y66.8 E63.5024
G1 X91.873 Y66.6 E63.50905
G1 X92.073 Y66.6 E63.51336
G1 X101.598 Y66.6 E63.83016
G1 X101.598 Y62.4 E63.96985
G1 X91.873 Y62.4 E64.29331
G1 X91.873 Y60.6 E64.35317
G1 X113.35 Y60.6 E65.0675
G1 X113.35 Y81.4 E65.75931
G1 X91.874 Y81.4 E66.47361
G1 X91.873 Y79.8 E66.52682
G1 X91.873 Y79.6 E66.53348
G1 X92.073 Y79.6 E66.53778
G1 X101.598 Y79.6 E66.85459
G0 F3600 X101.198 Y79.2
;TYPE:WALL-OUTER
G1 F1200 X101.198 Y75.8 E66.96767
G1 X91.474 Y75.8 E67.29109
G1 X91.473 Y66.4 E67.60374
G1 X91.473 Y66.2 E67.61039
G1 X91.673 Y66.2 E67.6147
G1 X101.198 Y66.2 E67.9315
G1 X101.198 Y62.8 E68.04458
G1 X91.473 Y62.8 E68.36804
G1 X91.473 Y60.2 E68.45451
G1 X113.75 Y60.2 E69.19545
G1 X113.75 Y81.8 E69.91387
G1 X91.474 Y81.8 E70.65477
G1 X91.473 Y79.4 E70.7346
G1 X91.473 Y79.2 E70.74125
G1 X91.673 Y79.2 E70.74556
G1 X101.198 Y79.2 E71.06236
G0 F3600 X101.198 Y79
G0 X101.698 Y79
G0 X101.988 Y79.99
;TYPE:SKIN
G1 F1200 X101.988 Y75.01 E71.22799
G1 X92.264 Y75.01 E71.55142
G1 X92.263 Y66.99 E71.81816
G1 X101.988 Y66.99 E72.14162
G1 X101.988 Y62.01 E72.30725
G1 X92.263 Y62.01 E72.63071
G1 X92.263 Y60.99 E72.66463
G1 X112.96 Y60.99 E73.35302
G1 X112.96 Y81.01 E74.01889
G1 X92.264 Y81.01 E74.70724
G1 X92.263 Y79.99 E74.74116
G1 X101.988 Y79.99 E75.06462
G0 F3600 X92.708 Y80.829
G1 F1200 X92.442 Y80.563 E75.07713
G0 F3600 X92.615 Y80.17
G1 F1200 X93.274 Y80.829 E75.10813
G0 F3600 X93.84 Y80.829
G1 F1200 X93.181 Y80.17 E75.13912
G0 F3600 X93.746 Y80.17
G1 F1200 X94.405 Y80.829 E75.17012
G0 F3600 X94.971 Y80.829
G1 F1200 X94.312 Y80.17 E75.20112
