;FLAVOR:Marlin
;TIME:1098
;Filament used: 0.565982m
;Layer height: 0.15
;Generated with Cura_SteamEngine 3.6.0
M104 S200
M105
M109 S200
M82 ;absolute extrusion mode
; -- START GCODE --
G21                     ;set units to millimetres
G90                     ;set to absolute positioning
M106 S0                 ;set fan speed to zero (turned off)
G28 X0 Y0               ;move to the X/Y origin (Home)
G28 Z0                  ;move to the Z origin (Home)
G1 Z15.0 F1200          ;move Z to position 15.0 mm
G92 E0                  ;zero the extruded length
G1 E20 F200             ;extrude 20mm of feed stock
G92 E0                  ;zero the extruded length again
G1 F7200                ;set feedrate to 120 mm/s
; -- end of START GCODE --
G92 E0
G1 F1500 E-6.5
;LAYER_COUNT:40
;LAYER:0
M107
G0 F3600 X94.242 Y91.41 Z0.2
;TYPE:SKIRT
G1 F1500 E0
G1 F1200 X94.639 Y91.007 E0.01882
G1 X95.089 Y90.665 E0.03761
G1 X95.582 Y90.389 E0.05641
G1 X96.11 Y90.185 E0.07523
G1 X96.66 Y90.058 E0.09401
G1 X97.283 Y90.009 E0.11479
G1 X119.941 Y90.01 E0.8684
G1 X120.505 Y90.05 E0.88721
G1 X121.058 Y90.169 E0.90602
G1 X121.588 Y90.365 E0.92481
G1 X122.086 Y90.633 E0.94362
G1 X122.54 Y90.97 E0.96243
G1 X122.943 Y91.366 E0.98122
G1 X123.286 Y91.816 E1.00004
G1 X123.561 Y92.309 E1.01882
G1 X123.765 Y92.837 E1.03764
G1 X123.892 Y93.388 E1.05645
G1 X123.941 Y94.01 E1.0772
G1 X123.941 Y115.991 E1.80829
G1 X123.901 Y116.555 E1.8271
G1 X123.782 Y117.108 E1.84591
G1 X123.586 Y117.638 E1.86471
G1 X123.318 Y118.135 E1.88349
G1 X122.982 Y118.59 E1.9023
G1 X122.585 Y118.993 E1.92112
G1 X122.135 Y119.335 E1.93991
G1 X121.642 Y119.611 E1.95871
G1 X121.114 Y119.815 E1.97753
G1 X120.564 Y119.942 E1.99631
G1 X119.941 Y119.991 E2.01709
G1 X97.283 Y119.991 E2.7707
G1 X96.719 Y119.951 E2.78951
G1 X96.166 Y119.832 E2.80832
G1 X95.636 Y119.636 E2.82712
G1 X95.139 Y119.368 E2.8459
G1 X94.684 Y119.032 E2.86471
G1 X94.281 Y118.635 E2.88352
G1 X93.939 Y118.185 E2.90232
G1 X93.663 Y117.692 E2.92111
G1 X93.459 Y117.164 E2.93994
G1 X93.332 Y116.614 E2.95872
G1 X93.283 Y115.991 E2.9795
G1 X93.283 Y94.009 E3.71062
G1 X93.323 Y93.445 E3.72943
G1 X93.442 Y92.892 E3.74824
G1 X93.638 Y92.362 E3.76704
G1 X93.906 Y91.865 E3.78582
G1 X94.242 Y91.41 E3.80463
G0 F3600 X94.638 Y91.567
G1 F1200 X95.03 Y91.201 E3.82247
G1 X95.472 Y90.898 E3.84029
G1 X95.955 Y90.663 E3.85816
G1 X96.466 Y90.503 E3.87597
G1 X96.996 Y90.42 E3.89381
G1 X97.283 Y90.409 E3.90336
G1 X119.941 Y90.41 E4.65697
G1 X120.476 Y90.45 E4.67482
G1 X120.999 Y90.569 E4.69265
G1 X121.498 Y90.764 E4.71047
G1 X121.963 Y91.032 E4.72832
G1 X122.383 Y91.365 E4.74615
G1 X122.749 Y91.757 E4.76399
G1 X123.053 Y92.199 E4.78183
G1 X123.287 Y92.682 E4.79968
G1 X123.447 Y93.193 E4.81749
G1 X123.53 Y93.723 E4.83533
G1 X123.541 Y94.01 E4.84489
G1 X123.541 Y115.991 E5.57598
G1 X123.501 Y116.526 E5.59382
G1 X123.382 Y117.049 E5.61166
G1 X123.187 Y117.548 E5.62948
G1 X122.919 Y118.013 E5.64733
G1 X122.586 Y118.433 E5.66516
G1 X122.194 Y118.799 E5.683
G1 X121.752 Y119.102 E5.70082
G1 X121.269 Y119.337 E5.71869
G1 X120.758 Y119.497 E5.73649
G1 X120.228 Y119.58 E5.75434
G1 X119.941 Y119.591 E5.76389
G1 X97.283 Y119.591 E6.5175
G1 X96.748 Y119.551 E6.53534
G1 X96.225 Y119.432 E6.55318
G1 X95.726 Y119.237 E6.571
G1 X95.261 Y118.969 E6.58885
G1 X94.841 Y118.636 E6.60668
G1 X94.475 Y118.244 E6.62452
G1 X94.172 Y117.802 E6.64234
G1 X93.937 Y117.319 E6.66021
G1 X93.777 Y116.808 E6.67801
G1 X93.694 Y116.278 E6.69586
G1 X93.683 Y115.991 E6.70541
G1 X93.683 Y94.009 E7.43653
G1 X93.723 Y93.474 E7.45438
G1 X93.842 Y92.951 E7.47222
G1 X94.037 Y92.452 E7.49004
G1 X94.305 Y91.987 E7.50789
G1 X94.638 Y91.567 E7.52572
G0 F3600 X94.702 Y92.117
G1 F1200 X95.032 Y91.734 E7.54253
G1 X95.419 Y91.408 E7.55936
G1 X95.852 Y91.147 E7.57618
G1 X96.32 Y90.957 E7.59298
G1 X96.813 Y90.844 E7.6098
G1 X97.283 Y90.809 E7.62547
G1 X119.941 Y90.81 E8.37908
G1 X120.445 Y90.85 E8.3959
G1 X120.937 Y90.969 E8.41273
G1 X121.403 Y91.164 E8.42953
G1 X121.833 Y91.429 E8.44633
G1 X122.216 Y91.76 E8.46317
G1 X122.542 Y92.146 E8.47998
G1 X122.803 Y92.579 E8.49679
G1 X122.993 Y93.048 E8.51362
G1 X123.106 Y93.54 E8.53041
G1 X123.141 Y94.01 E8.54609
G1 X123.141 Y115.991 E9.27718
G1 X123.101 Y116.495 E9.29399
G1 X122.982 Y116.986 E9.3108
G1 X122.788 Y117.453 E9.32762
G1 X122.522 Y117.883 E9.34443
G1 X122.192 Y118.266 E9.36125
G1 X121.805 Y118.592 E9.37808
G1 X121.372 Y118.853 E9.39489
G1 X120.904 Y119.043 E9.41169
G1 X120.411 Y119.156 E9.42852
G1 X119.941 Y119.191 E9.44419
G1 X97.283 Y119.191 E10.1978
G1 X96.779 Y119.151 E10.21462
G1 X96.288 Y119.032 E10.23142
G1 X95.821 Y118.838 E10.24824
G1 X95.391 Y118.572 E10.26506
G1 X95.008 Y118.242 E10.28187
G1 X94.682 Y117.855 E10.2987
G1 X94.421 Y117.422 E10.31552
G1 X94.231 Y116.954 E10.33232
G1 X94.118 Y116.461 E10.34914
G1 X94.083 Y115.991 E10.36481
G1 X94.083 Y94.009 E11.09594
G1 X94.123 Y93.505 E11.11275
G1 X94.242 Y93.014 E11.12956
G1 X94.436 Y92.547 E11.14638
G1 X94.702 Y92.117 E11.16319
G1 F1500 E4.66319
;MESH:HP_PR1101U_long.stl
G0 F3600 X96.62 Y97.653
G0 X97.887 Y99.335
G0 X97.887 Y100.614
G0 X107.626 Y109.372
G0 X107.668 Y113.67
G0 X107.598 Y113.6
;TYPE:WALL-INNER
G1 F1500 E11.16319
G1 F1200 X107.598 Y109.4 E11.30289
G1 X97.874 Y109.4 E11.62631
G1 X97.873 Y100.8 E11.91235
G1 X97.873 Y100.6 E11.919
G1 X98.073 Y100.6 E11.9233
G1 X107.598 Y100.6 E12.24011
G1 X107.598 Y96.4 E12.3798
G1 X97.873 Y96.4 E12.70325
G1 X97.873 Y94.6 E12.76312
G1 X119.35 Y94.6 E13.47745
G1 X119.35 Y115.4 E14.16926
G1 X97.874 Y115.4 E14.88356
G1 X97.873 Y113.8 E14.93677
G1 X97.873 Y113.6 E14.94342
G1 X98.073 Y113.6 E14.94773
G1 X107.598 Y113.6 E15.26453
G0 F3600 X107.198 Y113.2
;TYPE:WALL-OUTER
G1 F1200 X107.198 Y109.8 E15.37762
G1 X97.474 Y109.8 E15.70104
G1 X97.473 Y100.4 E16.01369
G1 X97.473 Y100.2 E16.02034
G1 X97.673 Y100.2 E16.02465
G1 X107.198 Y100.2 E16.34145
G1 X107.198 Y96.8 E16.45453
G1 X97.473 Y96.8 E16.77799
G1 X97.473 Y94.2 E16.86446
G1 X119.75 Y94.2 E17.6054
G1 X119.75 Y115.8 E18.32382
G1 X97.474 Y115.8 E19.06472
G1 X97.473 Y113.4 E19.14455
G1 X97.473 Y113.2 E19.1512
G1 X97.673 Y113.2 E19.15551
G1 X107.198 Y113.2 E19.47231
G0 F3600 X107.198 Y113
G0 X107.698 Y113
G0 X107.988 Y113.99
;TYPE:SKIN
G1 F1200 X107.988 Y109.01 E19.63794
G1 X98.264 Y109.01 E19.96136
G1 X98.263 Y100.99 E20.22811
G1 X107.988 Y100.99 E20.55157
G1 X107.988 Y96.01 E20.7172
G1 X98.263 Y96.01 E21.04066
G1 X98.263 Y94.99 E21.07458
G1 X118.96 Y94.99 E21.76297
G1 X118.96 Y115.01 E22.42883
G1 X98.264 Y115.01 E23.11719
G1 X98.263 Y113.99 E23.15111
G1 X107.988 Y113.99 E23.47457
G0 F3600 X98.989 Y114.829
G1 F1200 X98.443 Y114.282 E23.50027
G0 F3600 X98.895 Y114.169
G1 F1200 X99.555 Y114.829 E23.53132
G0 F3600 X100.121 Y114.829
G1 F1200 X99.461 Y114.169 E23.56236
G0 F3600 X100.027 Y114.169
G1 F1200 X100.687 Y114.829 E23.59341
G0 F3600 X101.252 Y114.829
G1 F1200 X100.593 Y114.169 E23.62443
G0 F3600 X101.158 Y114.169
G1 F1200 X101.818 Y114.829 E23.65547
G0 F3600 X102.384 Y114.829
G1 F1200 X101.724 Y114.169 E23.68651
G0 F3600 X102.29 Y114.169
G1 F1200 X102.949 Y114.829 E23.71754
G0 F3600 X103.515 Y114.829
G1 F1200 X102.855 Y114.169 E23.74858
G0 F3600 X103.421 Y114.169
G1 F1200 X104.081 Y114.829 E23.77962
G0 F3600 X104.646 Y114.829
G1 F1200 X103.987 Y114.169 E23.81065
G0 F3600 X104.552 Y114.169
G1 F1200 X105.212 Y114.829 E23.84169
G0 F3600 X105.778 Y114.829
G1 F1200 X105.118 Y114.169 E23.87273
G0 F3600 X105.684 Y114.169
G1 F1200 X106.343 Y114.829 E23.90375
G0 F3600 X106.909 Y114.829
G1 F1200 X106.249 Y114.169 E23.9348
G0 F3600 X106.815 Y114.169
G1 F1200 X107.475 Y114.829 E23.96584
G0 F3600 X108.04 Y114.829
G1 F1200 X107.381 Y114.169 E23.99686
G0 F3600 X107.946 Y114.169
G1 F1200 X108.606 Y114.829 E24.02791
G0 F3600 X109.172 Y114.829
G1 F1200 X108.167 Y113.824 E24.07518
G0 F3600 X108.167 Y113.258
G1 F1200 X109.738 Y114.829 E24.14908
G0 F3600 X110.303 Y114.829
G1 F1200 X108.167 Y112.693 E24.24955
G0 F3600 X108.167 Y112.127
G1 F1200 X110.869 Y114.829 E24.37664
G0 F3600 X111.435 Y114.829
G1 F1200 X108.167 Y111.561 E24.53036
G0 F3600 X108.167 Y110.995
G1 F1200 X112 Y114.829 E24.71067
G0 F3600 X112.566 Y114.829
G1 F1200 X108.167 Y110.43 E24.91759
G0 F3600 X108.167 Y109.864
G1 F1200 X113.132 Y114.829 E25.15113
G0 F3600 X113.697 Y114.829
G1 F1200 X108.167 Y109.298 E25.41127
G0 F3600 X107.698 Y108.829
G1 F1200 X100.038 Y101.17 E25.77154
G0 F3600 X100.604 Y101.17
G1 F1200 X114.263 Y114.829 E26.41402
G0 F3600 X114.829 Y114.829
G1 F1200 X101.17 Y101.17 E27.0565
G0 F3600 X101.735 Y101.17
G1 F1200 X115.394 Y114.829 E27.69898
G0 F3600 X115.96 Y114.829
G1 F1200 X102.301 Y101.17 E28.34145
G0 F3600 X102.867 Y101.17
G1 F1200 X116.526 Y114.829 E28.98393
G0 F3600 X117.091 Y114.829
G1 F1200 X103.432 Y101.17 E29.62641
G0 F3600 X103.998 Y101.17
G1 F1200 X117.657 Y114.829 E30.26889
G0 F3600 X118.223 Y114.829
G1 F1200 X104.564 Y101.17 E30.91136
G0 F3600 X105.129 Y101.17
G1 F1200 X118.779 Y114.819 E31.5534
G0 F3600 X118.779 Y114.254
G1 F1200 X105.695 Y101.17 E32.16883
G0 F3600 X106.261 Y101.17
G1 F1200 X118.779 Y113.688 E32.75763
G0 F3600 X118.779 Y113.122
G1 F1200 X106.826 Y101.17 E33.31984
G0 F3600 X107.392 Y101.17
G1 F1200 X118.779 Y112.557 E33.85545
G0 F3600 X118.779 Y111.991
G1 F1200 X107.958 Y101.17 E34.36444
G0 F3600 X108.167 Y100.813
G1 F1200 X118.779 Y111.425 E34.8636
G0 F3600 X118.779 Y110.86
G1 F1200 X108.167 Y100.247 E35.36278
G0 F3600 X108.167 Y99.682
G1 F1200 X118.779 Y110.294 E35.86193
G0 F3600 X118.779 Y109.728
G1 F1200 X108.167 Y99.116 E36.36109
G0 F3600 X108.167 Y98.55
G1 F1200 X118.779 Y109.163 E36.86027
G0 F3600 X118.779 Y108.597
G1 F1200 X108.167 Y97.985 E37.35942
G0 F3600 X108.167 Y97.419
G1 F1200 X118.779 Y108.031 E37.85858
G0 F3600 X118.779 Y107.466
G1 F1200 X108.167 Y96.853 E38.35776
G0 F3600 X108.167 Y96.288
G1 F1200 X118.779 Y106.9 E38.85691
G0 F3600 X118.779 Y106.334
G1 F1200 X107.615 Y95.17 E39.38203
G0 F3600 X107.049 Y95.17
G1 F1200 X107.709 Y95.829 E39.41306
G0 F3600 X107.143 Y95.829
G1 F1200 X106.483 Y95.17 E39.44408
G0 F3600 X105.918 Y95.17
G1 F1200 X106.577 Y95.829 E39.47507
G0 F3600 X106.012 Y95.829
G1 F1200 X105.352 Y95.17 E39.50609
G0 F3600 X104.786 Y95.17
G1 F1200 X105.446 Y95.829 E39.53712
G0 F3600 X104.88 Y95.829
G1 F1200 X104.221 Y95.17 E39.56811
G0 F3600 X103.655 Y95.17
G1 F1200 X104.315 Y95.829 E39.59913
G0 F3600 X103.749 Y95.829
G1 F1200 X103.089 Y95.17 E39.63015
G0 F3600 X102.524 Y95.17
G1 F1200 X103.183 Y95.829 E39.66115
G0 F3600 X102.618 Y95.829
G1 F1200 X101.958 Y95.17 E39.69217
G0 F3600 X101.392 Y95.17
G1 F1200 X102.052 Y95.829 E39.72319
G0 F3600 X101.486 Y95.829
G1 F1200 X100.827 Y95.17 E39.75419
G0 F3600 X100.261 Y95.17
G1 F1200 X100.921 Y95.829 E39.78521
G0 F3600 X100.355 Y95.829
G1 F1200 X99.695 Y95.17 E39.81623
G0 F3600 X99.13 Y95.17
G1 F1200 X99.789 Y95.829 E39.84723
G0 F3600 X99.224 Y95.829
G1 F1200 X98.564 Y95.17 E39.87825
G0 F3600 X98.441 Y95.613
G1 F1200 X98.658 Y95.829 E39.88843
G0 F3600 X107.626 Y96.372
G0 X107.626 Y100.628
G0 X98.907 Y101.17
G1 F1200 X106.566 Y108.829 E40.24869
G0 F3600 X107.132 Y108.829
G1 F1200 X99.472 Y101.17 E40.60897
G1 X99.402 Y101.1
G0 F3600 X98.442 Y101.271
G1 F1200 X106 Y108.829 E40.96447
G0 F3600 X105.435 Y108.829
G1 F1200 X98.442 Y101.836 E41.2934
G0 F3600 X98.442 Y102.402
G1 F1200 X104.869 Y108.829 E41.59571
G0 F3600 X104.303 Y108.829
G1 F1200 X98.442 Y102.968 E41.87139
G0 F3600 X98.442 Y103.533
G1 F1200 X103.738 Y108.829 E42.1205
G0 F3600 X103.172 Y108.829
G1 F1200 X98.442 Y104.099 E42.34299
G0 F3600 X98.442 Y104.665
G1 F1200 X102.606 Y108.829 E42.53885
G0 F3600 X102.041 Y108.829
G1 F1200 X98.442 Y105.23 E42.70813
G0 F3600 X98.442 Y105.796
G1 F1200 X101.475 Y108.829 E42.8508
G0 F3600 X100.909 Y108.829
G1 F1200 X98.442 Y106.362 E42.96684
G0 F3600 X98.442 Y106.927
G1 F1200 X100.344 Y108.829 E43.0563
G0 F3600 X99.778 Y108.829
G1 F1200 X98.442 Y107.493 E43.11914
G0 F3600 X98.442 Y108.059
G1 F1200 X99.212 Y108.829 E43.15536
G0 F3600 X98.647 Y108.829
G1 F1200 X98.442 Y108.625 E43.16498
G0 F3600 X107.626 Y100.628
G0 X108.18 Y95.17
G1 F1200 X118.779 Y105.769 E43.66352
G0 F3600 X118.779 Y105.203
G1 F1200 X108.746 Y95.17 E44.13545
G0 F3600 X109.312 Y95.17
G1 F1200 X118.779 Y104.637 E44.58074
G0 F3600 X118.779 Y104.071
G1 F1200 X109.878 Y95.17 E44.99942
G0 F3600 X110.443 Y95.17
G1 F1200 X118.779 Y103.506 E45.39152
G0 F3600 X118.779 Y102.94
G1 F1200 X111.009 Y95.17 E45.757
G0 F3600 X111.575 Y95.17
G1 F1200 X118.779 Y102.374 E46.09585
G0 F3600 X118.779 Y101.809
G1 F1200 X112.14 Y95.17 E46.40813
G0 F3600 X112.706 Y95.17
G1 F1200 X118.779 Y101.243 E46.69378
G0 F3600 X118.779 Y100.677
G1 F1200 X113.272 Y95.17 E46.95282
G0 F3600 X113.837 Y95.17
G1 F1200 X118.779 Y100.112 E47.18527
G0 F3600 X118.779 Y99.546
G1 F1200 X114.403 Y95.17 E47.39111
G0 F3600 X114.969 Y95.17
G1 F1200 X118.779 Y98.98 E47.57032
G0 F3600 X118.779 Y98.415
G1 F1200 X115.534 Y95.17 E47.72295
G0 F3600 X116.1 Y95.17
G1 F1200 X118.779 Y97.849 E47.84896
G0 F3600 X118.779 Y97.283
G1 F1200 X116.666 Y95.17 E47.94835
G0 F3600 X117.231 Y95.17
G1 F1200 X118.779 Y96.718 E48.02117
G0 F3600 X118.779 Y96.152
G1 F1200 X117.797 Y95.17 E48.06736
G0 F3600 X118.363 Y95.17
G1 F1200 X118.779 Y95.586 E48.08692
;MESH:NONMESH
G0 F3600 X107.668 Y113.67
G0 X107.598 Y113.6
;TIME_ELAPSED:85.041017
;LAYER:1
M106 S255
;MESH:HP_PR1101U_long.stl
G0 F5400 X107.598 Y113.6 Z0.35
;TYPE:WALL-INNER
G1 F2220 X107.598 Y109.4 E48.19169
G1 X97.37 Y109.4 E48.44683
G1 X97.369 Y100.8 E48.66136
G1 X97.369 Y100.6 E48.66635
G1 X97.569 Y100.6 E48.66958
G1 X107.598 Y100.6 E48.91975
G1 X107.598 Y96.4 E49.02452
G1 X97.369 Y96.4 E49.27969
G1 X97.369 Y94.6 E49.32459
G1 X119.266 Y94.6 E49.87081
G1 X119.266 Y115.4 E50.38967
G1 X97.37 Y115.4 E50.93587
G1 X97.369 Y113.8 E50.97578
G1 X97.369 Y113.6 E50.98077
G1 X97.569 Y113.6 E50.984
G1 X107.598 Y113.6 E51.23417
G0 F5400 X107.198 Y113.2
;TYPE:WALL-OUTER
G1 F1410 X107.198 Y109.8 E51.31899
G1 X96.97 Y109.8 E51.57413
G1 X96.969 Y100.4 E51.80861
G1 X96.969 Y100.2 E51.8136
G1 X97.169 Y100.2 E51.81683
G1 X107.198 Y100.2 E52.067
G1 X107.198 Y96.8 E52.15182
G1 X96.969 Y96.8 E52.40698
G1 X96.969 Y94.2 E52.47184
G1 X119.666 Y94.2 E53.03802
G1 X119.666 Y115.8 E53.57683
G1 X96.97 Y115.8 E54.14298
G1 X96.969 Y113.4 E54.20285
G1 X96.969 Y113.2 E54.20784
G1 X97.169 Y113.2 E54.21107
G1 X107.198 Y113.2 E54.46125
G0 F5400 X107.198 Y113
G0 X107.698 Y113
G0 X107.988 Y113.99
;TYPE:SKIN
G1 F1200 X107.988 Y109.01 E54.58547
G1 X97.76 Y109.01 E54.84061
G1 X97.759 Y100.99 E55.04067
G1 X107.988 Y100.99 E55.29583
G1 X107.988 Y96.01 E55.42006
G1 X97.759 Y96.01 E55.67522
G1 X97.759 Y94.99 E55.70067
G1 X118.876 Y94.99 E56.22743
G1 X118.876 Y115.01 E56.72684
G1 X97.76 Y115.01 E57.25358
G1 X97.759 Y113.99 E57.27902
G1 X107.988 Y113.99 E57.53418
G0 F5400 X118.694 Y114.367
G1 F1200 X118.232 Y114.829 E57.55048
G0 F5400 X117.666 Y114.829
G1 F1200 X118.694 Y113.801 E57.58675
G0 F5400 X118.694 Y113.236
G1 F1200 X117.101 Y114.829 E57.64294
G0 F5400 X116.535 Y114.829
G1 F1200 X118.694 Y112.67 E57.71911
G0 F5400 X118.694 Y112.104
G1 F1200 X115.969 Y114.829 E57.81524
G0 F5400 X115.404 Y114.829
G1 F1200 X118.694 Y111.539 E57.9313
G0 F5400 X118.694 Y110.973
G1 F1200 X114.838 Y114.829 E58.06734
G0 F5400 X114.272 Y114.829
G1 F1200 X118.694 Y110.407 E58.22333
G0 F5400 X118.694 Y109.841
G1 F1200 X113.707 Y114.829 E58.39928
G0 F5400 X113.141 Y114.829
G1 F1200 X118.694 Y109.276 E58.59518
G0 F5400 X118.694 Y108.71
G1 F1200 X112.575 Y114.829 E58.81104
G0 F5400 X112.009 Y114.829
G1 F1200 X118.694 Y108.144 E59.04687
G0 F5400 X118.694 Y107.579
G1 F1200 X111.444 Y114.829 E59.30264
G0 F5400 X110.878 Y114.829
G1 F1200 X118.694 Y107.013 E59.57837
G0 F5400 X118.694 Y106.447
G1 F1200 X110.312 Y114.829 E59.87406
G0 F5400 X109.747 Y114.829
G1 F1200 X118.694 Y105.882 E60.18969
G0 F5400 X118.694 Y105.316
G1 F1200 X109.181 Y114.829 E60.52529
G0 F5400 X108.615 Y114.829
G1 F1200 X118.694 Y104.75 E60.88086
G0 F5400 X118.694 Y104.185
G1 F1200 X108.05 Y114.829 E61.25635
G0 F5400 X107.484 Y114.829
G1 F1200 X108.144 Y114.169 E61.27963
G0 F5400 X108.167 Y114.146
G1 F1200 X118.694 Y103.619 E61.651
G0 F5400 X118.694 Y103.053
