;FLAVOR:Marlin
;TIME:902
;Filament used: 0.464038m
;Layer height: 0.15
;Generated with Cura_SteamEngine 3.6.0
M104 S200
M105
M109 S200
M82 ;absolute extrusion mode
; -- START GCODE --
G21                     ;set units to millimetres
G90                     ;set to absolute positioning
M106 S0                 ;set fan speed to zero (turned off)
G28 X0 Y0               ;move to the X/Y origin (Home)
G28 Z0                  ;move to the Z origin (Home)
G1 Z15.0 F1200          ;move Z to position 15.0 mm
G92 E0                  ;zero the extruded length
G1 E20 F200             ;extrude 20mm of feed stock
G92 E0                  ;zero the extruded length again
G1 F7200                ;set feedrate to 120 mm/s
; -- end of START GCODE --
G92 E0
G1 F1500 E-6.5
;LAYER_COUNT:40
;LAYER:0
M107
G0 F3600 X96.992 Y91.41 Z0.2
;TYPE:SKIRT
G1 F1500 E0
G1 F1200 X97.389 Y91.007 E0.01882
G1 X97.839 Y90.665 E0.03761
G1 X98.332 Y90.389 E0.05641
G1 X98.86 Y90.185 E0.07523
G1 X99.41 Y90.058 E0.09401
G1 X100.033 Y90.009 E0.11479
G1 X117.191 Y90.01 E0.68547
G1 X117.755 Y90.05 E0.70428
G1 X118.308 Y90.169 E0.72309
G1 X118.838 Y90.365 E0.74188
G1 X119.336 Y90.633 E0.76069
G1 X119.79 Y90.97 E0.7795
G1 X120.193 Y91.366 E0.79829
G1 X120.536 Y91.816 E0.81711
G1 X120.811 Y92.309 E0.83589
G1 X121.015 Y92.837 E0.85471
G1 X121.142 Y93.388 E0.87352
G1 X121.191 Y94.01 E0.89427
G1 X121.191 Y115.991 E1.62536
G1 X121.151 Y116.555 E1.64417
G1 X121.032 Y117.108 E1.66298
G1 X120.836 Y117.638 E1.68178
G1 X120.568 Y118.135 E1.70056
G1 X120.232 Y118.59 E1.71937
G1 X119.835 Y118.993 E1.73819
G1 X119.385 Y119.335 E1.75698
G1 X118.892 Y119.611 E1.77578
G1 X118.364 Y119.815 E1.7946
G1 X117.814 Y119.942 E1.81338
G1 X117.191 Y119.991 E1.83416
G1 X100.033 Y119.991 E2.40484
G1 X99.469 Y119.951 E2.42365
G1 X98.916 Y119.832 E2.44246
G1 X98.386 Y119.636 E2.46125
G1 X97.889 Y119.368 E2.48003
G1 X97.434 Y119.032 E2.49885
G1 X97.031 Y118.635 E2.51766
G1 X96.689 Y118.185 E2.53646
G1 X96.413 Y117.692 E2.55525
G1 X96.209 Y117.164 E2.57408
G1 X96.082 Y116.614 E2.59285
G1 X96.033 Y115.991 E2.61364
G1 X96.033 Y94.009 E3.34476
G1 X96.073 Y93.445 E3.36357
G1 X96.192 Y92.892 E3.38238
G1 X96.388 Y92.362 E3.40118
G1 X96.656 Y91.865 E3.41996
G1 X96.992 Y91.41 E3.43877
G0 F3600 X97.388 Y91.567
G1 F1200 X97.78 Y91.201 E3.45661
G1 X98.222 Y90.898 E3.47443
G1 X98.705 Y90.663 E3.4923
G1 X99.216 Y90.503 E3.51011
G1 X99.746 Y90.42 E3.52795
G1 X100.033 Y90.409 E3.5375
G1 X117.191 Y90.41 E4.10818
G1 X117.726 Y90.45 E4.12602
G1 X118.249 Y90.569 E4.14386
G1 X118.748 Y90.764 E4.16168
G1 X119.213 Y91.032 E4.17953
G1 X119.633 Y91.365 E4.19736
G1 X119.999 Y91.757 E4.2152
G1 X120.303 Y92.199 E4.23304
G1 X120.537 Y92.682 E4.25089
G1 X120.697 Y93.194 E4.26873
G1 X120.78 Y93.723 E4.28654
G1 X120.791 Y94.01 E4.29609
G1 X120.791 Y115.991 E5.02719
G1 X120.751 Y116.526 E5.04503
G1 X120.632 Y117.049 E5.06287
G1 X120.437 Y117.548 E5.08069
G1 X120.169 Y118.013 E5.09854
G1 X119.836 Y118.433 E5.11637
G1 X119.444 Y118.799 E5.1342
G1 X119.002 Y119.102 E5.15203
G1 X118.519 Y119.337 E5.16989
G1 X118.008 Y119.497 E5.1877
G1 X117.478 Y119.58 E5.20554
G1 X117.191 Y119.591 E5.2151
G1 X100.033 Y119.591 E5.78577
G1 X99.498 Y119.551 E5.80362
G1 X98.975 Y119.432 E5.82146
G1 X98.476 Y119.237 E5.83928
G1 X98.011 Y118.969 E5.85713
G1 X97.591 Y118.636 E5.87495
G1 X97.225 Y118.244 E5.89279
G1 X96.922 Y117.802 E5.91062
G1 X96.687 Y117.319 E5.92848
G1 X96.527 Y116.808 E5.94629
G1 X96.444 Y116.278 E5.96413
G1 X96.433 Y115.991 E5.97369
G1 X96.433 Y94.009 E6.70481
G1 X96.473 Y93.474 E6.72265
G1 X96.592 Y92.951 E6.74049
G1 X96.787 Y92.452 E6.75831
G1 X97.055 Y91.987 E6.77616
G1 X97.388 Y91.567 E6.79399
G0 F3600 X97.452 Y92.117
G1 F1200 X97.782 Y91.734 E6.81081
G1 X98.169 Y91.408 E6.82764
G1 X98.602 Y91.147 E6.84445
G1 X99.07 Y90.957 E6.86125
G1 X99.563 Y90.844 E6.87807
G1 X100.033 Y90.809 E6.89375
G1 X117.191 Y90.81 E7.46443
G1 X117.695 Y90.85 E7.48124
G1 X118.187 Y90.969 E7.49808
G1 X118.653 Y91.164 E7.51488
G1 X119.083 Y91.429 E7.53168
G1 X119.466 Y91.76 E7.54852
G1 X119.792 Y92.146 E7.56532
G1 X120.053 Y92.579 E7.58214
G1 X120.243 Y93.048 E7.59897
G1 X120.356 Y93.54 E7.61576
G1 X120.391 Y94.01 E7.63143
G1 X120.391 Y115.991 E8.36252
G1 X120.351 Y116.495 E8.37934
G1 X120.232 Y116.986 E8.39614
G1 X120.038 Y117.453 E8.41296
G1 X119.772 Y117.883 E8.42978
G1 X119.442 Y118.266 E8.44659
G1 X119.055 Y118.592 E8.46342
G1 X118.622 Y118.853 E8.48024
G1 X118.154 Y119.043 E8.49704
G1 X117.661 Y119.156 E8.51386
G1 X117.191 Y119.191 E8.52954
G1 X100.033 Y119.191 E9.10021
G1 X99.529 Y119.151 E9.11703
G1 X99.038 Y119.032 E9.13383
G1 X98.571 Y118.838 E9.15065
G1 X98.141 Y118.572 E9.16747
G1 X97.758 Y118.242 E9.18429
G1 X97.432 Y117.855 E9.20112
G1 X97.171 Y117.422 E9.21793
G1 X96.981 Y116.954 E9.23473
G1 X96.868 Y116.461 E9.25155
G1 X96.833 Y115.991 E9.26723
G1 X96.833 Y94.009 E9.99835
G1 X96.873 Y93.505 E10.01517
G1 X96.992 Y93.014 E10.03197
G1 X97.186 Y92.547 E10.04879
G1 X97.452 Y92.117 E10.06561
G1 F1500 E3.56561
;MESH:HP_PR1101U_standard.stl
G0 F3600 X99.358 Y94.614
G0 X100.637 Y94.614
G0 X110.376 Y96.372
G0 X110.418 Y113.67
G0 X110.348 Y113.6
;TYPE:WALL-INNER
G1 F1500 E10.06561
G1 F1200 X110.348 Y109.4 E10.2053
G1 X100.624 Y109.4 E10.52872
G1 X100.623 Y100.8 E10.81476
G1 X100.623 Y100.6 E10.82141
G1 X100.823 Y100.6 E10.82572
G1 X110.348 Y100.6 E11.14252
G1 X110.348 Y96.4 E11.28221
G1 X100.623 Y96.4 E11.60567
G1 X100.623 Y94.6 E11.66554
G1 X116.6 Y94.6 E12.19693
G1 X116.6 Y115.4 E12.88875
G1 X100.624 Y115.4 E13.42011
G1 X100.623 Y113.8 E13.47333
G1 X100.623 Y113.6 E13.47998
G1 X100.823 Y113.6 E13.48428
G1 X110.348 Y113.6 E13.80109
G0 F3600 X109.948 Y113.2
;TYPE:WALL-OUTER
G1 F1200 X109.948 Y109.8 E13.91417
G1 X100.224 Y109.8 E14.23759
G1 X100.223 Y100.4 E14.55024
G1 X100.223 Y100.2 E14.55689
G1 X100.423 Y100.2 E14.5612
G1 X109.948 Y100.2 E14.878
G1 X109.948 Y96.8 E14.99109
G1 X100.223 Y96.8 E15.31454
G1 X100.223 Y94.2 E15.40102
G1 X117 Y94.2 E15.95902
G1 X117 Y115.8 E16.67744
G1 X100.224 Y115.8 E17.23541
G1 X100.223 Y113.4 E17.31524
G1 X100.223 Y113.2 E17.32189
G1 X100.423 Y113.2 E17.3262
G1 X109.948 Y113.2 E17.643
G0 F3600 X109.948 Y113
G0 X110.448 Y113
G0 X110.738 Y113.99
;TYPE:SKIN
G1 F1200 X110.738 Y109.01 E17.80863
G1 X101.014 Y109.01 E18.13206
G1 X101.013 Y100.99 E18.3988
G1 X110.738 Y100.99 E18.72226
G1 X110.738 Y96.01 E18.88789
G1 X101.013 Y96.01 E19.21135
G1 X101.013 Y94.99 E19.24527
G1 X116.21 Y94.99 E19.75073
G1 X116.21 Y115.01 E20.4166
G1 X101.014 Y115.01 E20.92202
G1 X101.013 Y113.99 E20.95594
G1 X110.738 Y113.99 E21.2794
G0 F3600 X101.253 Y114.829
G1 F1200 X101.193 Y114.769 E21.28222
G0 F3600 X101.192 Y114.203
G1 F1200 X101.819 Y114.829 E21.31169
G0 F3600 X102.384 Y114.829
G1 F1200 X101.724 Y114.169 E21.34273
G0 F3600 X102.29 Y114.169
G1 F1200 X102.95 Y114.829 E21.37378
G0 F3600 X103.516 Y114.829
G1 F1200 X102.855 Y114.169 E21.40484
G0 F3600 X103.421 Y114.169
G1 F1200 X104.081 Y114.829 E21.43589
G0 F3600 X104.647 Y114.829
G1 F1200 X103.987 Y114.169 E21.46693
G0 F3600 X104.552 Y114.169
G1 F1200 X105.213 Y114.829 E21.498
G0 F3600 X105.778 Y114.829
G1 F1200 X105.118 Y114.169 E21.52904
G0 F3600 X105.684 Y114.169
G1 F1200 X106.344 Y114.829 E21.56009
G0 F3600 X106.91 Y114.829
G1 F1200 X106.249 Y114.169 E21.59116
G0 F3600 X106.815 Y114.169
G1 F1200 X107.475 Y114.829 E21.6222
G0 F3600 X108.041 Y114.829
G1 F1200 X107.381 Y114.169 E21.65325
G0 F3600 X107.946 Y114.169
G1 F1200 X108.607 Y114.829 E21.68431
G0 F3600 X109.173 Y114.829
G1 F1200 X108.512 Y114.169 E21.71538
G0 F3600 X109.078 Y114.169
G1 F1200 X109.738 Y114.829 E21.74643
G0 F3600 X110.304 Y114.829
G1 F1200 X109.643 Y114.169 E21.77749
G0 F3600 X110.209 Y114.169
G1 F1200 X110.87 Y114.829 E21.80856
G0 F3600 X111.435 Y114.829
G1 F1200 X110.775 Y114.169 E21.83961
G0 F3600 X110.917 Y113.745
G1 F1200 X112.001 Y114.829 E21.89059
G0 F3600 X112.567 Y114.829
G1 F1200 X110.917 Y113.18 E21.96818
G0 F3600 X110.917 Y112.614
G1 F1200 X113.132 Y114.829 E22.07237
G0 F3600 X113.698 Y114.829
G1 F1200 X110.917 Y112.048 E22.20318
G0 F3600 X110.917 Y111.483
G1 F1200 X114.264 Y114.829 E22.36059
G0 F3600 X114.829 Y114.829
G1 F1200 X110.917 Y110.917 E22.5446
G0 F3600 X110.917 Y110.351
G1 F1200 X115.395 Y114.829 E22.75523
G0 F3600 X115.961 Y114.829
G1 F1200 X110.917 Y109.786 E22.99246
G0 F3600 X110.917 Y109.22
G1 F1200 X116.029 Y114.332 E23.23291
G0 F3600 X116.029 Y113.766
G1 F1200 X103.432 Y101.17 E23.82541
G0 F3600 X102.867 Y101.17
G1 F1200 X110.526 Y108.829 E24.18567
G0 F3600 X109.96 Y108.829
G1 F1200 X102.301 Y101.17 E24.54592
G1 X102.231 Y101.1
G0 F3600 X103.998 Y101.17
G1 F1200 X116.029 Y113.2 E25.1118
G0 F3600 X116.029 Y112.635
G1 F1200 X104.564 Y101.17 E25.65108
G0 F3600 X105.129 Y101.17
G1 F1200 X116.029 Y112.069 E26.16376
G0 F3600 X116.029 Y111.503
G1 F1200 X105.695 Y101.17 E26.64981
G0 F3600 X106.261 Y101.17
G1 F1200 X116.029 Y110.937 E27.10925
G0 F3600 X116.029 Y110.372
G1 F1200 X106.826 Y101.17 E27.54211
G0 F3600 X107.392 Y101.17
G1 F1200 X116.029 Y109.806 E27.94834
G0 F3600 X116.029 Y109.24
G1 F1200 X107.958 Y101.17 E28.32795
G0 F3600 X108.523 Y101.17
G1 F1200 X116.029 Y108.675 E28.68099
G0 F3600 X116.029 Y108.109
G1 F1200 X109.089 Y101.17 E29.0074
G0 F3600 X109.655 Y101.17
G1 F1200 X116.029 Y107.543 E29.30719
G0 F3600 X116.029 Y106.978
G1 F1200 X110.22 Y101.17 E29.5804
G0 F3600 X110.786 Y101.17
G1 F1200 X116.029 Y106.412 E29.827
G0 F3600 X116.029 Y105.846
G1 F1200 X110.916 Y100.734 E30.06747
G0 F3600 X110.916 Y100.168
G1 F1200 X116.029 Y105.281 E30.30797
G0 F3600 X116.029 Y104.715
G1 F1200 X110.916 Y99.603 E30.54845
G0 F3600 X110.916 Y99.037
G1 F1200 X116.029 Y104.149 E30.78892
G0 F3600 X116.029 Y103.584
G1 F1200 X110.916 Y98.471 E31.02942
G0 F3600 X110.916 Y97.906
G1 F1200 X116.029 Y103.018 E31.2699
G0 F3600 X116.029 Y102.452
G1 F1200 X110.916 Y97.34 E31.51038
G0 F3600 X110.916 Y96.774
G1 F1200 X116.029 Y101.887 E31.75088
G0 F3600 X116.029 Y101.321
G1 F1200 X110.916 Y96.208 E31.99138
G0 F3600 X110.537 Y95.829
G1 F1200 X109.878 Y95.17 E32.02237
G0 F3600 X109.312 Y95.17
G1 F1200 X109.972 Y95.829 E32.05339
G0 F3600 X109.406 Y95.829
G1 F1200 X108.746 Y95.17 E32.08442
G0 F3600 X108.18 Y95.17
G1 F1200 X108.84 Y95.829 E32.11544
G0 F3600 X108.275 Y95.829
G1 F1200 X107.615 Y95.17 E32.14646
G0 F3600 X107.049 Y95.17
G1 F1200 X107.709 Y95.829 E32.17748
G0 F3600 X107.143 Y95.829
G1 F1200 X106.483 Y95.17 E32.2085
G0 F3600 X105.918 Y95.17
G1 F1200 X106.577 Y95.829 E32.2395
G0 F3600 X106.012 Y95.829
G1 F1200 X105.352 Y95.17 E32.27052
G0 F3600 X104.786 Y95.17
G1 F1200 X105.446 Y95.829 E32.30154
G0 F3600 X104.88 Y95.829
G1 F1200 X104.221 Y95.17 E32.33254
G0 F3600 X103.655 Y95.17
G1 F1200 X104.315 Y95.829 E32.36356
G0 F3600 X103.749 Y95.829
G1 F1200 X103.089 Y95.17 E32.39458
G0 F3600 X102.524 Y95.17
G1 F1200 X103.183 Y95.829 E32.42557
G0 F3600 X102.618 Y95.829
G1 F1200 X101.958 Y95.17 E32.4566
G0 F3600 X101.392 Y95.17
G1 F1200 X102.052 Y95.829 E32.48762
G0 F3600 X101.486 Y95.829
G1 F1200 X101.191 Y95.535 E32.50147
G0 F3600 X110.376 Y96.372
G0 X110.376 Y100.628
G0 X101.192 Y101.192
G1 F1200 X108.829 Y108.829 E32.86069
G0 F3600 X109.395 Y108.829
G1 F1200 X101.735 Y101.17 E33.22097
G1 X101.665 Y101.1
G0 F3600 X101.192 Y101.758
G1 F1200 X108.263 Y108.829 E33.55357
G0 F3600 X107.698 Y108.829
G1 F1200 X101.192 Y102.324 E33.85957
G0 F3600 X101.192 Y102.889
G1 F1200 X107.132 Y108.829 E34.13897
G0 F3600 X106.566 Y108.829
G1 F1200 X101.192 Y103.455 E34.39174
G0 F3600 X101.192 Y104.021
G1 F1200 X106 Y108.829 E34.6179
G0 F3600 X105.435 Y108.829
G1 F1200 X101.192 Y104.586 E34.81747
G0 F3600 X101.193 Y105.153
G1 F1200 X104.869 Y108.829 E34.99038
G0 F3600 X104.303 Y108.829
G1 F1200 X101.193 Y105.718 E35.13669
G0 F3600 X101.193 Y106.284
G1 F1200 X103.738 Y108.829 E35.2564
G0 F3600 X103.172 Y108.829
G1 F1200 X101.193 Y106.85 E35.34948
G0 F3600 X101.193 Y107.415
G1 F1200 X102.606 Y108.829 E35.41597
G0 F3600 X102.041 Y108.829
G1 F1200 X101.193 Y107.981 E35.45586
G0 F3600 X101.193 Y108.547
G1 F1200 X101.475 Y108.829 E35.46912
G0 F3600 X110.376 Y100.628
G0 X110.443 Y95.17
G1 F1200 X116.029 Y100.755 E35.73185
G0 F3600 X116.029 Y100.189
G1 F1200 X111.009 Y95.17 E35.96795
G0 F3600 X111.575 Y95.17
G1 F1200 X116.029 Y99.624 E36.17745
G0 F3600 X116.029 Y99.058
G1 F1200 X112.14 Y95.17 E36.36035
G0 F3600 X112.706 Y95.17
G1 F1200 X116.029 Y98.492 E36.51664
G0 F3600 X116.029 Y97.927
G1 F1200 X113.272 Y95.17 E36.64632
G0 F3600 X113.837 Y95.17
G1 F1200 X116.029 Y97.361 E36.7494
G0 F3600 X116.029 Y96.795
G1 F1200 X114.403 Y95.17 E36.82586
G0 F3600 X114.969 Y95.17
G1 F1200 X116.029 Y96.23 E36.87572
G0 F3600 X116.029 Y95.664
G1 F1200 X115.534 Y95.17 E36.89897
;MESH:NONMESH
G0 F3600 X110.418 Y113.67
G0 X110.348 Y113.6
;TIME_ELAPSED:68.145228
;LAYER:1
M106 S255
;MESH:HP_PR1101U_standard.stl
G0 F5400 X110.348 Y113.6 Z0.35
;TYPE:WALL-INNER
G1 F2220 X110.348 Y109.4 E37.00374
G1 X100.12 Y109.4 E37.25888
G1 X100.119 Y100.8 E37.47341
G1 X100.119 Y100.6 E37.4784
G1 X100.319 Y100.6 E37.48163
G1 X110.348 Y100.6 E37.7318
G1 X110.348 Y96.4 E37.83657
G1 X100.119 Y96.4 E38.09174
G1 X100.119 Y94.6 E38.13664
G1 X116.516 Y94.6 E38.54566
G1 X116.516 Y115.4 E39.06452
G1 X100.12 Y115.4 E39.47352
G1 X100.119 Y113.8 E39.51343
G1 X100.119 Y113.6 E39.51842
G1 X100.319 Y113.6 E39.52165
G1 X110.348 Y113.6 E39.77183
G0 F5400 X109.948 Y113.2
;TYPE:WALL-OUTER
G1 F1410 X109.948 Y109.8 E39.85664
G1 X99.72 Y109.8 E40.11178
G1 X99.719 Y100.4 E40.34626
G1 X99.719 Y100.2 E40.35125
G1 X99.919 Y100.2 E40.35448
G1 X109.948 Y100.2 E40.60466
G1 X109.948 Y96.8 E40.68947
G1 X99.719 Y96.8 E40.94463
G1 X99.719 Y94.2 E41.00949
G1 X116.916 Y94.2 E41.43847
G1 X116.916 Y115.8 E41.97729
G1 X99.72 Y115.8 E42.40624
G1 X99.719 Y113.4 E42.46611
G1 X99.719 Y113.2 E42.4711
G1 X99.919 Y113.2 E42.47433
G1 X109.948 Y113.2 E42.7245
G0 F5400 X109.948 Y113
G0 X110.448 Y113
G0 X110.738 Y113.99
;TYPE:SKIN
G1 F1200 X110.738 Y109.01 E42.84873
G1 X100.51 Y109.01 E43.10387
G1 X100.509 Y100.99 E43.30393
G1 X110.738 Y100.99 E43.55909
G1 X110.738 Y96.01 E43.68332
G1 X100.509 Y96.01 E43.93848
G1 X100.509 Y94.99 E43.96393
G1 X116.126 Y94.99 E44.35349
G1 X116.126 Y115.01 E44.85289
G1 X100.51 Y115.01 E45.24244
G1 X100.509 Y113.99 E45.26788
G1 X110.738 Y113.99 E45.52305
G0 F5400 X115.404 Y114.829
G1 F1200 X115.945 Y114.288 E45.54213
G0 F5400 X115.945 Y113.723
G1 F1200 X114.838 Y114.829 E45.58117
G0 F5400 X114.272 Y114.829
G1 F1200 X115.945 Y113.157 E45.64017
G0 F5400 X115.945 Y112.591
G1 F1200 X113.707 Y114.829 E45.71912
G0 F5400 X113.141 Y114.829
G1 F1200 X115.945 Y112.026 E45.81802
G0 F5400 X115.945 Y111.46
G1 F1200 X112.575 Y114.829 E45.93689
G0 F5400 X112.009 Y114.829
G1 F1200 X115.945 Y110.894 E46.07572
G0 F5400 X115.945 Y110.329
G1 F1200 X111.444 Y114.829 E46.23449
G0 F5400 X110.878 Y114.829
G1 F1200 X115.945 Y109.763 E46.41323
G0 F5400 X115.945 Y109.197
G1 F1200 X110.312 Y114.829 E46.61193
G0 F5400 X109.747 Y114.829
G1 F1200 X110.407 Y114.169 E46.63521
G0 F5400 X109.841 Y114.169
G1 F1200 X109.181 Y114.829 E46.65849
G0 F5400 X108.615 Y114.829
G1 F1200 X109.276 Y114.169 E46.68179
G0 F5400 X108.71 Y114.169
G1 F1200 X108.05 Y114.829 E46.70508
G0 F5400 X107.484 Y114.829
G1 F1200 X108.144 Y114.169 E46.72836
G0 F5400 X107.579 Y114.169
G1 F1200 X106.918 Y114.829 E46.75166
G0 F5400 X106.353 Y114.829
G1 F1200 X107.013 Y114.169 E46.77494
G0 F5400 X106.447 Y114.169
G1 F1200 X105.787 Y114.829 E46.79823
G0 F5400 X105.221 Y114.829
G1 F1200 X105.882 Y114.169 E46.82153
G0 F5400 X105.316 Y114.169
G1 F1200 X104.656 Y114.829 E46.84481
G0 F5400 X104.09 Y114.829
G1 F1200 X104.75 Y114.169 E46.8681
G0 F5400 X104.185 Y114.169
G1 F1200 X103.524 Y114.829 E46.8914
G0 F5400 X102.958 Y114.829
G1 F1200 X103.619 Y114.169 E46.9147
G0 F5400 X103.053 Y114.169
G1 F1200 X102.393 Y114.829 E46.93798
G0 F5400 X101.827 Y114.829
G1 F1200 X102.488 Y114.169 E46.96128
G0 F5400 X101.922 Y114.169
G1 F1200 X101.261 Y114.829 E46.98458
G0 F5400 X100.696 Y114.829
G1 F1200 X101.356 Y114.169 E47.00787
G0 F5400 X100.791 Y114.169
G1 F1200 X100.689 Y114.27 E47.01145
G0 F5400 X110.376 Y113.628
G0 X110.376 Y109.372
G0 X101.039 Y108.83
