; generated by Slic3r 1.2.9 on 2017-10-02 at 10:22:31

; external perimeters extrusion width = 0.40mm
; perimeters extrusion width = 0.68mm
; infill extrusion width = 1.28mm
; solid infill extrusion width = 0.68mm
; top infill extrusion width = 0.68mm

M107
M104 S220 ; set temperature
; -- START GCODE --
	G90                     ;set to absolute positioning
G28                     ;move to Home
G92 E0                  ;zero the extruded length
G1 F7200                ;set feedrate to travel_speed value
; -- end of START GCODE --
M109 S220 ; wait for temperature to be reached
G21 ; set units to millimeters
G90 ; use absolute coordinates
M82 ; use absolute distances for extrusion
G92 E0
G1 Z0.400 F9000.000
G1 E-4.00000 F2400.00000
G92 E0
G1 X90.194 Y87.163 F9000.000
G1 E4.00000 F2400.00000
G1 X92.582 Y85.481 E4.34689 F1800.000
G1 X95.335 Y84.507 E4.69379
G1 X97.500 Y84.286 E4.95224
G1 X117.500 Y84.286 E7.32755
G1 X120.394 Y84.684 E7.67444
G1 X123.072 Y85.849 E8.02134 F1800.000
G1 X125.337 Y87.694 E8.36823
G1 X127.019 Y90.082 E8.71512
G1 X127.993 Y92.835 E9.06202
G1 X128.214 Y95.000 E9.32047
G1 X128.214 Y115.000 E11.69578
G1 X127.816 Y117.894 E12.04267
G1 X126.651 Y120.572 E12.38957
G1 X124.806 Y122.837 E12.73646
G1 X122.418 Y124.519 E13.08336
G1 X119.665 Y125.493 E13.43025
G1 X117.500 Y125.714 E13.68870
G1 X97.500 Y125.714 E16.06401
G1 X94.606 Y125.316 E16.41090
G1 X91.928 Y124.151 E16.75780
G1 X89.663 Y122.306 E17.10469
G1 X87.981 Y119.918 E17.45159
G1 X87.007 Y117.165 E17.79848
G1 X86.786 Y115.000 E18.05693
G1 X86.786 Y95.000 E20.43224
G1 X87.184 Y92.106 E20.77913
G1 X88.349 Y89.428 E21.12603
G1 X90.156 Y87.210 E21.46580
G1 E17.46580 F2400.00000
G92 E0
G1 X91.958 Y88.928 F9000.000
G1 E4.00000 F2400.00000
G1 X94.098 Y86.787 E4.35949 F1800.000
G1 X120.902 Y86.787 E7.54284
G1 X125.713 Y91.598 E8.35089
G1 X125.713 Y118.402 E11.53424 F1800.000
G1 X120.902 Y123.213 E12.34229
G1 X94.098 Y123.213 E15.52564
G1 X89.287 Y118.402 E16.33368
G1 X89.287 Y91.598 E19.51703
G1 X91.915 Y88.970 E19.95846
G1 X92.463 Y89.433 F9000.000
G1 X94.394 Y87.501 E20.28282 F1800.000
G1 X120.606 Y87.501 E23.39590
G1 X124.999 Y91.894 E24.13369 F1800.000
G1 X124.999 Y118.106 E27.24677
G1 X120.606 Y122.499 E27.98455
G1 X94.394 Y122.499 E31.09764
G1 X90.001 Y118.106 E31.83542
G1 X90.001 Y91.894 E34.94850
G1 X92.420 Y89.475 E35.35480
G1 X92.968 Y89.938 F9000.000
G1 X94.690 Y88.215 E35.64403 F1800.000
G1 X120.310 Y88.215 E38.68685
G1 X124.285 Y92.190 E39.35436
G1 X124.285 Y117.810 E42.39718 F1800.000
G1 X120.310 Y121.785 E43.06470
G1 X94.690 Y121.785 E46.10752
G1 X90.715 Y117.810 E46.77503
G1 X90.715 Y92.190 E49.81785
G1 X92.925 Y89.980 E50.18902
G1 X93.473 Y90.442 F9000.000
G1 X94.986 Y88.930 E50.44311 F1800.000
G1 X120.014 Y88.930 E53.41567
G1 X123.570 Y92.486 E54.01292 F1800.000
G1 X123.570 Y117.514 E56.98547
G1 X120.014 Y121.070 E57.58273
G1 X94.986 Y121.070 E60.55528
G1 X91.430 Y117.514 E61.15253
G1 X91.430 Y92.486 E64.12509
G1 X93.430 Y90.485 E64.46112
G1 X93.978 Y90.947 F9000.000
G1 X95.281 Y89.644 E64.68008 F1800.000
G1 X119.719 Y89.644 E67.58237
G1 X122.856 Y92.781 E68.10936
G1 X122.856 Y117.219 E71.01165 F1800.000
G1 X119.719 Y120.356 E71.53863
G1 X95.281 Y120.356 E74.44092
G1 X92.144 Y117.219 E74.96791
G1 X92.144 Y92.781 E77.87020
G1 X93.935 Y90.990 E78.17110
G1 X94.483 Y91.452 F9000.000
G1 X95.577 Y90.358 E78.35493 F1800.000
G1 X119.423 Y90.358 E81.18695
G1 X122.142 Y93.077 E81.64368 F1800.000
G1 X122.142 Y116.923 E84.47570
G1 X119.423 Y119.642 E84.93242
G1 X95.577 Y119.642 E87.76445
G1 X92.858 Y116.923 E88.22117
G1 X92.858 Y93.077 E91.05320
G1 X94.440 Y91.495 E91.31896
G1 X94.988 Y91.957 F9000.000
G1 X95.873 Y91.072 E91.46766 F1800.000
G1 X119.127 Y91.072 E94.22942
G1 X121.428 Y93.373 E94.61588
G1 X121.428 Y116.627 E97.37764 F1800.000
G1 X119.127 Y118.928 E97.76409
G1 X95.873 Y118.928 E100.52585
G1 X93.572 Y116.627 E100.91231
G1 X93.572 Y93.373 E103.67407
G1 X94.945 Y92.000 E103.90470
G1 X95.493 Y92.462 F9000.000
G1 X96.169 Y91.786 E104.01827 F1800.000
G1 X118.831 Y91.786 E106.70977
G1 X120.714 Y93.669 E107.02596 F1800.000
G1 X120.714 Y116.331 E109.71745
G1 X118.831 Y118.214 E110.03364
G1 X96.169 Y118.214 E112.72514
G1 X94.286 Y116.331 E113.04133
G1 X94.286 Y93.669 E115.73283
G1 X95.450 Y92.505 E115.92833
G1 X95.998 Y92.967 F9000.000
G1 X96.465 Y92.500 E116.00676 F1800.000
G1 X118.535 Y92.500 E118.62799
G1 X120.000 Y93.965 E118.87392
G1 X120.000 Y116.035 E121.49515 F1800.000
G1 X118.535 Y117.500 E121.74108
G1 X96.465 Y117.500 E124.36231
G1 X95.000 Y116.035 E124.60823
G1 X95.000 Y93.965 E127.22947
G1 X95.955 Y93.010 E127.38983
G1 X96.503 Y93.472 F9000.000
G1 X96.760 Y93.215 E127.43313 F1800.000
G1 X118.240 Y93.215 E129.98410
G1 X119.285 Y94.260 E130.15976 F1800.000
G1 X119.285 Y115.740 E132.71073
G1 X118.240 Y116.785 E132.88639
G1 X96.760 Y116.785 E135.43736
G1 X95.715 Y115.740 E135.61302
G1 X95.715 Y94.260 E138.16398
G1 X96.460 Y93.515 E138.28922
G1 X97.008 Y93.977 F9000.000
G1 X97.056 Y93.929 E138.29739 F1800.000
G1 X117.944 Y93.929 E140.77809
G1 X118.571 Y94.556 E140.88349
G1 X118.571 Y115.444 E143.36419 F1800.000
G1 X117.944 Y116.071 E143.46958
G1 X97.056 Y116.071 E145.95028
G1 X96.429 Y115.444 E146.05568
G1 X96.429 Y94.556 E148.53638
G1 X96.965 Y94.020 E148.62648
G1 X97.352 Y94.643 F9000.000
G1 X117.648 Y94.643 E151.03692 F1800.000
G1 X117.857 Y94.852 E151.07205 F1800.000
G1 X117.857 Y115.148 E153.48249
G1 X117.648 Y115.357 E153.51762
G1 X97.352 Y115.357 E155.92806
G1 X97.143 Y115.148 E155.96319
G1 X97.143 Y94.852 E158.37363
G1 X97.310 Y94.685 E158.40163
G1 E154.40163 F2400.00000
G92 E0
G1 X117.100 Y114.600 F9000.000
G1 E4.00000 F2400.00000
G1 X97.900 Y114.600 E6.28029 F1800.000
G1 X97.900 Y95.400 E8.56058
G1 X117.100 Y95.400 E10.84087
G1 X117.100 Y114.540 E13.11404
G1 X116.754 Y114.400 F9000.000
G1 X116.386 Y113.886 F9000.000
G1 X98.614 Y113.886 E15.22470 F1800.000
G1 X98.614 Y96.114 E17.33535
G1 X116.386 Y96.114 E19.44601
G1 X116.386 Y113.826 E21.54954
G1 X115.672 Y113.172 F9000.000
G1 X99.328 Y113.172 E23.49056 F1800.000
G1 X99.328 Y96.828 E25.43159
G1 X115.672 Y96.828 E27.37261
G1 X115.672 Y113.112 E29.30651
G1 X115.236 Y97.607 F9000.000
G1 X114.893 Y97.264 E29.36602 F1800.000
G1 X113.850 Y97.264 E29.49404
G1 X115.236 Y98.650 E29.73461
G1 X115.236 Y99.694 E29.86263
G1 X112.806 Y97.264 E30.28425
G1 X111.763 Y97.264 E30.41227
G1 X115.236 Y100.737 E31.01493
G1 X115.236 Y101.780 E31.14295
G1 X110.720 Y97.264 E31.92667
G1 X109.676 Y97.264 E32.05469
G1 X115.236 Y102.824 E33.01945
G1 X115.236 Y103.867 E33.14748
G1 X108.633 Y97.264 E34.29329
G1 X107.589 Y97.264 E34.42131
G1 X115.236 Y104.911 E35.74818
G1 X115.236 Y105.954 E35.87620
G1 X106.546 Y97.264 E37.38411
G1 X105.503 Y97.264 E37.51213
G1 X115.236 Y106.997 E39.20110
G1 X115.236 Y108.041 E39.32912
G1 X104.459 Y97.264 E41.19913
G1 X103.416 Y97.264 E41.32715
G1 X115.236 Y109.084 E43.37821
G1 X115.236 Y110.128 E43.50624
G1 X102.372 Y97.264 E45.73835
G1 X101.329 Y97.264 E45.86637
G1 X115.236 Y111.171 E48.27953
G1 X115.236 Y112.214 E48.40755
G1 X100.286 Y97.264 E51.00177
G1 X99.764 Y97.786 E51.09229
G1 X114.714 Y112.736 E53.68650
G1 X113.671 Y112.736 E53.81452
G1 X99.764 Y98.829 E56.22769
G1 X99.764 Y99.872 E56.35571
G1 X112.628 Y112.736 E58.58782
G1 X111.584 Y112.736 E58.71584
G1 X99.764 Y100.916 E60.76690
G1 X99.764 Y101.959 E60.89492
G1 X110.541 Y112.736 E62.76493
G1 X109.497 Y112.736 E62.89295
G1 X99.764 Y103.003 E64.58192
G1 X99.764 Y104.046 E64.70994
G1 X108.454 Y112.736 E66.21785
G1 X107.411 Y112.736 E66.34587
G1 X99.764 Y105.089 E67.67273
G1 X99.764 Y106.133 E67.80075
G1 X106.367 Y112.736 E68.94657
G1 X105.324 Y112.736 E69.07459
G1 X99.764 Y107.176 E70.03935
G1 X99.764 Y108.220 E70.16737
G1 X104.280 Y112.736 E70.95109
G1 X103.237 Y112.736 E71.07911
G1 X99.764 Y109.263 E71.68177
G1 X99.764 Y110.306 E71.80979
G1 X102.194 Y112.736 E72.23140
G1 X101.150 Y112.736 E72.35943
G1 X99.764 Y111.350 E72.59999
G1 X99.764 Y112.393 E72.72801
G1 X100.107 Y112.736 E72.78752
G1 Z0.500 F9000.000
G1 X116.123 Y113.623 F9000.000
G1 X98.877 Y113.623 E73.25970 F2100.000
G1 X98.877 Y96.377 E73.73187
G1 X116.123 Y96.377 E74.20404
G1 X116.123 Y113.563 E74.67457
G1 X116.781 Y114.281 F9000.000
G1 X98.219 Y114.281 E75.18280 F2100.000
G1 X98.219 Y95.719 E75.69104
G1 X116.781 Y95.719 E76.19927
G1 X116.781 Y114.221 E76.70586
G1 X117.300 Y114.800 F9000.000
G1 X97.700 Y114.800 E77.01432 F1050.000
G1 X97.700 Y95.200 E77.32278
G1 X117.300 Y95.200 E77.63124
G1 X117.300 Y114.740 E77.93876
G1 X116.954 Y114.600 F9000.000
G1 X115.403 Y113.223 F9000.000
G1 X115.723 Y112.903 E77.95136 F1200.000
G1 X115.723 Y111.955 E77.97781
G1 X114.455 Y113.223 E78.02782
G1 X113.506 Y113.223 E78.05427
G1 X115.723 Y111.006 E78.14170
G1 X115.723 Y110.058 E78.16815
G1 X112.558 Y113.223 E78.29298
G1 X111.609 Y113.223 E78.31944
G1 X115.723 Y109.109 E78.48168
G1 X115.723 Y108.160 E78.50813
G1 X110.660 Y113.223 E78.70779
G1 X109.712 Y113.223 E78.73425
G1 X115.723 Y107.212 E78.97131
G1 X115.723 Y106.263 E78.99777
G1 X108.763 Y113.223 E79.27225
G1 X107.815 Y113.223 E79.29870
G1 X115.723 Y105.315 E79.61059
G1 X115.723 Y104.366 E79.63705
G1 X106.866 Y113.223 E79.98635
G1 X105.917 Y113.223 E80.01281
G1 X115.723 Y103.417 E80.39952
G1 X115.723 Y102.469 E80.42598
G1 X104.969 Y113.223 E80.85010
G1 X104.020 Y113.223 E80.87656
G1 X115.723 Y101.520 E81.33810
G1 X115.723 Y100.572 E81.36455
G1 X103.072 Y113.223 E81.86351
G1 X102.123 Y113.223 E81.88996
G1 X115.723 Y99.623 E82.42632
G1 X115.723 Y98.674 E82.45278
G1 X101.174 Y113.223 E83.02655
G1 X100.226 Y113.223 E83.05301
G1 X115.723 Y97.726 E83.66419
G1 X115.703 Y96.797 E83.69010
G1 X99.297 Y113.203 E84.33712
G1 X99.277 Y112.274 E84.36302
G1 X114.774 Y96.777 E84.97421
G1 X113.826 Y96.777 E85.00066
G1 X99.277 Y111.326 E85.57444
G1 X99.277 Y110.377 E85.60089
G1 X112.877 Y96.777 E86.13725
G1 X111.928 Y96.777 E86.16371
G1 X99.277 Y109.428 E86.66266
G1 X99.277 Y108.480 E86.68911
G1 X110.980 Y96.777 E87.15065
G1 X110.031 Y96.777 E87.17710
G1 X99.277 Y107.531 E87.60123
G1 X99.277 Y106.583 E87.62768
G1 X109.083 Y96.777 E88.01440
G1 X108.134 Y96.777 E88.04085
G1 X99.277 Y105.634 E88.39016
G1 X99.277 Y104.685 E88.41661
G1 X107.185 Y96.777 E88.72850
G1 X106.237 Y96.777 E88.75495
G1 X99.277 Y103.737 E89.02943
G1 X99.277 Y102.788 E89.05589
G1 X105.288 Y96.777 E89.29295
G1 X104.340 Y96.777 E89.31941
G1 X99.277 Y101.840 E89.51906
G1 X99.277 Y100.891 E89.54552
G1 X103.391 Y96.777 E89.70776
G1 X102.442 Y96.777 E89.73421
G1 X99.277 Y99.942 E89.85904
G1 X99.277 Y98.994 E89.88550
G1 X101.494 Y96.777 E89.97292
G1 X100.545 Y96.777 E89.99937
G1 X99.277 Y98.045 E90.04938
G1 X99.277 Y97.096 E90.07583
G1 X99.596 Y96.777 E90.08843
G1 Z0.600 F9000.000
G1 X116.123 Y113.623 F9000.000
G1 X98.877 Y113.623 E90.56060 F2100.000
G1 X98.877 Y96.377 E91.03277
G1 X116.123 Y96.377 E91.50494
G1 X116.123 Y113.563 E91.97547
G1 X116.781 Y114.281 F9000.000
G1 X98.219 Y114.281 E92.48371 F2100.000
G1 X98.219 Y95.719 E92.99194
G1 X116.781 Y95.719 E93.50017
G1 X116.781 Y114.221 E94.00676
G1 X117.300 Y114.800 F9000.000
G1 X97.700 Y114.800 E94.31522 F1050.000
G1 X97.700 Y95.200 E94.62369
G1 X117.300 Y95.200 E94.93215
G1 X117.300 Y114.740 E95.23967
G1 X116.954 Y114.600 F9000.000
G1 X115.723 Y97.097 F9000.000
G1 X115.403 Y96.777 E95.25226 F1200.000
G1 X114.455 Y96.777 E95.27872
G1 X115.723 Y98.045 E95.32872
G1 X115.723 Y98.994 E95.35518
G1 X113.506 Y96.777 E95.44260
G1 X112.558 Y96.777 E95.46905
G1 X115.723 Y99.942 E95.59389
G1 X115.723 Y100.891 E95.62034
G1 X111.609 Y96.777 E95.78258
G1 X110.660 Y96.777 E95.80904
G1 X115.723 Y101.840 E96.00869
G1 X115.723 Y102.788 E96.03515
G1 X109.712 Y96.777 E96.27222
G1 X108.763 Y96.777 E96.29867
G1 X115.723 Y103.737 E96.57315
G1 X115.723 Y104.685 E96.59961
G1 X107.815 Y96.777 E96.91150
G1 X106.866 Y96.777 E96.93795
G1 X115.723 Y105.634 E97.28726
G1 X115.723 Y106.583 E97.31371
G1 X105.917 Y96.777 E97.70043
G1 X104.969 Y96.777 E97.72688
G1 X115.723 Y107.531 E98.15101
G1 X115.723 Y108.480 E98.17746
G1 X104.020 Y96.777 E98.63900
G1 X103.072 Y96.777 E98.66546
G1 X115.723 Y109.428 E99.16441
G1 X115.723 Y110.377 E99.19086
G1 X102.123 Y96.777 E99.72723
G1 X101.174 Y96.777 E99.75368
G1 X115.723 Y111.326 E100.32746
G1 X115.723 Y112.274 E100.35391
G1 X100.226 Y96.777 E100.96510
G1 X99.297 Y96.797 E100.99100
G1 X115.703 Y113.203 E101.63802
G1 X114.774 Y113.223 E101.66392
G1 X99.277 Y97.726 E102.27511
G1 X99.277 Y98.674 E102.30156
G1 X113.826 Y113.223 E102.87534
G1 X112.877 Y113.223 E102.90179
G1 X99.277 Y99.623 E103.43816
G1 X99.277 Y100.572 E103.46461
G1 X111.928 Y113.223 E103.96356
G1 X110.980 Y113.223 E103.99001
G1 X99.277 Y101.520 E104.45155
G1 X99.277 Y102.469 E104.47801
G1 X110.031 Y113.223 E104.90213
G1 X109.083 Y113.223 E104.92859
G1 X99.277 Y103.417 E105.31530
G1 X99.277 Y104.366 E105.34176
G1 X108.134 Y113.223 E105.69106
G1 X107.185 Y113.223 E105.71751
G1 X99.277 Y105.315 E106.02940
G1 X99.277 Y106.263 E106.05586
G1 X106.237 Y113.223 E106.33034
G1 X105.288 Y113.223 E106.35679
G1 X99.277 Y107.212 E106.59386
G1 X99.277 Y108.160 E106.62031
G1 X104.340 Y113.223 E106.81997
G1 X103.391 Y113.223 E106.84642
G1 X99.277 Y109.109 E107.00866
G1 X99.277 Y110.058 E107.03512
G1 X102.442 Y113.223 E107.15995
G1 X101.494 Y113.223 E107.18640
G1 X99.277 Y111.006 E107.27382
G1 X99.277 Y111.955 E107.30027
G1 X100.545 Y113.223 E107.35028
G1 X99.596 Y113.223 E107.37674
G1 X99.277 Y112.904 E107.38933
M106 S178.5
G1 Z0.700 F9000.000
G1 X116.123 Y113.623 F9000.000
G1 X98.877 Y113.623 E107.86150 F2100.000
G1 X98.877 Y96.377 E108.33368
G1 X116.123 Y96.377 E108.80585
G1 X116.123 Y113.563 E109.27638
G1 X116.781 Y114.281 F9000.000
G1 X98.219 Y114.281 E109.78461 F2100.000
G1 X98.219 Y95.719 E110.29284
G1 X116.781 Y95.719 E110.80107
G1 X116.781 Y114.221 E111.30766
G1 X117.300 Y114.800 F9000.000
G1 X97.700 Y114.800 E111.61613 F1050.000
G1 X97.700 Y95.200 E111.92459
G1 X117.300 Y95.200 E112.23305
G1 X117.300 Y114.740 E112.54057
G1 X116.954 Y114.600 F9000.000
G1 X115.403 Y113.223 F9000.000
G1 X115.723 Y112.903 E112.55316 F1200.000
G1 X115.723 Y111.955 E112.57962
G1 X114.455 Y113.223 E112.62963
G1 X113.506 Y113.223 E112.65608
G1 X115.723 Y111.006 E112.74350
G1 X115.723 Y110.058 E112.76996
G1 X112.558 Y113.223 E112.89479
G1 X111.609 Y113.223 E112.92124
G1 X115.723 Y109.109 E113.08349
G1 X115.723 Y108.160 E113.10994
G1 X110.660 Y113.223 E113.30960
G1 X109.712 Y113.223 E113.33605
G1 X115.723 Y107.212 E113.57312
G1 X115.723 Y106.263 E113.59957
G1 X108.763 Y113.223 E113.87405
G1 X107.815 Y113.223 E113.90051
G1 X115.723 Y105.315 E114.21240
G1 X115.723 Y104.366 E114.23885
G1 X106.866 Y113.223 E114.58816
G1 X105.917 Y113.223 E114.61461
G1 X115.723 Y103.417 E115.00133
G1 X115.723 Y102.469 E115.02778
G1 X104.969 Y113.223 E115.45191
G1 X104.020 Y113.223 E115.47837
G1 X115.723 Y101.520 E115.93991
G1 X115.723 Y100.572 E115.96636
G1 X103.072 Y113.223 E116.46531
G1 X102.123 Y113.223 E116.49177
G1 X115.723 Y99.623 E117.02813
G1 X115.723 Y98.674 E117.05458
G1 X101.174 Y113.223 E117.62836
G1 X100.226 Y113.223 E117.65481
G1 X115.723 Y97.726 E118.26600
G1 X115.703 Y96.797 E118.29190
G1 X99.297 Y113.203 E118.93892
G1 X99.277 Y112.274 E118.96483
G1 X114.774 Y96.777 E119.57601
G1 X113.826 Y96.777 E119.60247
G1 X99.277 Y111.326 E120.17624
G1 X99.277 Y110.377 E120.20270
G1 X112.877 Y96.777 E120.73906
G1 X111.928 Y96.777 E120.76551
G1 X99.277 Y109.428 E121.26446
G1 X99.277 Y108.480 E121.29092
G1 X110.980 Y96.777 E121.75246
G1 X110.031 Y96.777 E121.77891
G1 X99.277 Y107.531 E122.20304
G1 X99.277 Y106.583 E122.22949
G1 X109.083 Y96.777 E122.61621
G1 X108.134 Y96.777 E122.64266
G1 X99.277 Y105.634 E122.99196
G1 X99.277 Y104.685 E123.01842
G1 X107.185 Y96.777 E123.33031
G1 X106.237 Y96.777 E123.35676
G1 X99.277 Y103.737 E123.63124
G1 X99.277 Y102.788 E123.65769
G1 X105.288 Y96.777 E123.89476
G1 X104.340 Y96.777 E123.92121
G1 X99.277 Y101.840 E124.12087
G1 X99.277 Y100.891 E124.14732
G1 X103.391 Y96.777 E124.30957
G1 X102.442 Y96.777 E124.33602
G1 X99.277 Y99.942 E124.46085
G1 X99.277 Y98.994 E124.48731
G1 X101.494 Y96.777 E124.57472
G1 X100.545 Y96.777 E124.60118
