; generated by Slic3r 1.2.9 on 2017-10-02 at 10:35:29

; external perimeters extrusion width = 0.40mm
; perimeters extrusion width = 0.68mm
; infill extrusion width = 1.28mm
; solid infill extrusion width = 0.68mm
; top infill extrusion width = 0.68mm

M107
M104 S220 ; set temperature
; -- START GCODE --
	G90                     ;set to absolute positioning
G28                     ;move to Home
G92 E0                  ;zero the extruded length
G1 F7200                ;set feedrate to travel_speed value
; -- end of START GCODE --
M109 S220 ; wait for temperature to be reached
G21 ; set units to millimeters
G90 ; use absolute coordinates
M82 ; use absolute distances for extrusion
G92 E0
G1 Z0.400 F9000.000
G1 E-4.00000 F2400.00000
G92 E0
G1 X92.327 Y90.720 F9000.000
G1 E4.00000 F2400.00000
G1 X94.083 Y89.220 E4.27422 F1800.000
G1 X96.243 Y88.405 E4.54845
G1 X97.500 Y88.286 E4.69842
G1 X117.500 Y88.286 E7.07372
G1 X119.775 Y88.683 E7.34794
G1 X121.780 Y89.827 E7.62217 F1800.000
G1 X123.280 Y91.583 E7.89639
G1 X124.095 Y93.743 E8.17062
G1 X124.214 Y95.000 E8.32059
G1 X124.214 Y115.000 E10.69589
G1 X123.817 Y117.275 E10.97011
G1 X122.673 Y119.280 E11.24434
G1 X120.917 Y120.780 E11.51856
G1 X118.757 Y121.595 E11.79279
G1 X117.500 Y121.714 E11.94275
G1 X97.500 Y121.714 E14.31806
G1 X95.225 Y121.317 E14.59228
G1 X93.220 Y120.173 E14.86651
G1 X91.720 Y118.417 E15.14073
G1 X90.905 Y116.257 E15.41496
G1 X90.786 Y115.000 E15.56492
G1 X90.786 Y95.000 E17.94023
G1 X91.183 Y92.725 E18.21445
G1 X92.297 Y90.772 E18.48155
G1 E14.48155 F2400.00000
G92 E0
G1 X115.672 Y113.172 F9000.000
G1 E4.00000 F2400.00000
G1 X99.328 Y113.172 E5.94103 F1800.000
G1 X99.328 Y96.828 E7.88205
G1 X115.672 Y96.828 E9.82308
G1 X115.672 Y113.112 E11.75698
G1 X116.386 Y113.886 F9000.000
G1 X98.614 Y113.886 E13.86765 F1800.000
G1 X98.614 Y96.114 E15.97831
G1 X116.386 Y96.114 E18.08897
G1 X116.386 Y113.826 E20.19250
G1 X117.100 Y114.600 F9000.000
G1 X97.900 Y114.600 E22.47280 F1800.000
G1 X97.900 Y95.400 E24.75310
G1 X117.100 Y95.400 E27.03339
G1 X117.100 Y114.540 E29.30656
G1 X116.754 Y114.400 F9000.000
G1 X115.236 Y97.607 F9000.000
G1 X114.893 Y97.264 E29.36608 F1800.000
G1 X113.850 Y97.264 E29.49410
G1 X115.236 Y98.650 E29.73467
G1 X115.236 Y99.694 E29.86269
G1 X112.806 Y97.264 E30.28431
G1 X111.763 Y97.264 E30.41233
G1 X115.236 Y100.737 E31.01500
G1 X115.236 Y101.780 E31.14302
G1 X110.720 Y97.264 E31.92674
G1 X109.676 Y97.264 E32.05476
G1 X115.236 Y102.824 E33.01953
G1 X115.236 Y103.867 E33.14755
G1 X108.633 Y97.264 E34.29337
G1 X107.589 Y97.264 E34.42140
G1 X115.236 Y104.911 E35.74827
G1 X115.236 Y105.954 E35.87629
G1 X106.546 Y97.264 E37.38421
G1 X105.503 Y97.264 E37.51223
G1 X115.236 Y106.997 E39.20120
G1 X115.236 Y108.041 E39.32923
G1 X104.459 Y97.264 E41.19925
G1 X103.416 Y97.264 E41.32727
G1 X115.236 Y109.084 E43.37835
G1 X115.236 Y110.128 E43.50637
G1 X102.372 Y97.264 E45.73849
G1 X101.329 Y97.264 E45.86651
G1 X115.236 Y111.171 E48.27969
G1 X115.236 Y112.214 E48.40771
G1 X100.286 Y97.264 E51.00194
G1 X99.764 Y97.786 E51.09246
G1 X114.714 Y112.736 E53.68669
G1 X113.671 Y112.736 E53.81471
G1 X99.764 Y98.829 E56.22788
G1 X99.764 Y99.872 E56.35591
G1 X112.628 Y112.736 E58.58803
G1 X111.584 Y112.736 E58.71605
G1 X99.764 Y100.916 E60.76712
G1 X99.764 Y101.959 E60.89515
G1 X110.541 Y112.736 E62.76517
G1 X109.497 Y112.736 E62.89319
G1 X99.764 Y103.003 E64.58216
G1 X99.764 Y104.046 E64.71018
G1 X108.454 Y112.736 E66.21810
G1 X107.411 Y112.736 E66.34612
G1 X99.764 Y105.089 E67.67299
G1 X99.764 Y106.133 E67.80101
G1 X106.367 Y112.736 E68.94683
G1 X105.324 Y112.736 E69.07486
G1 X99.764 Y107.176 E70.03962
G1 X99.764 Y108.220 E70.16764
G1 X104.280 Y112.736 E70.95136
G1 X103.237 Y112.736 E71.07938
G1 X99.764 Y109.263 E71.68205
G1 X99.764 Y110.306 E71.81007
G1 X102.194 Y112.736 E72.23169
G1 X101.150 Y112.736 E72.35971
G1 X99.764 Y111.350 E72.60027
G1 X99.764 Y112.393 E72.72830
G1 X100.107 Y112.736 E72.78781
G1 Z0.500 F9000.000
G1 X116.123 Y113.623 F9000.000
G1 X98.877 Y113.623 E73.25998 F2100.000
G1 X98.877 Y96.377 E73.73216
G1 X116.123 Y96.377 E74.20433
G1 X116.123 Y113.563 E74.67486
G1 X116.781 Y114.281 F9000.000
G1 X98.219 Y114.281 E75.18309 F2100.000
G1 X98.219 Y95.719 E75.69133
G1 X116.781 Y95.719 E76.19956
G1 X116.781 Y114.221 E76.70615
G1 X117.300 Y114.800 F9000.000
G1 X97.700 Y114.800 E77.01461 F1050.000
G1 X97.700 Y95.200 E77.32308
G1 X117.300 Y95.200 E77.63154
G1 X117.300 Y114.740 E77.93906
G1 X116.954 Y114.600 F9000.000
G1 X115.404 Y113.223 F9000.000
G1 X115.723 Y112.904 E77.95165 F1200.000
G1 X115.723 Y111.955 E77.97811
G1 X114.455 Y113.223 E78.02812
G1 X113.506 Y113.223 E78.05457
G1 X115.723 Y111.006 E78.14199
G1 X115.723 Y110.058 E78.16845
G1 X112.558 Y113.223 E78.29328
G1 X111.609 Y113.223 E78.31973
G1 X115.723 Y109.109 E78.48198
G1 X115.723 Y108.160 E78.50843
G1 X110.660 Y113.223 E78.70809
G1 X109.712 Y113.223 E78.73455
G1 X115.723 Y107.212 E78.97162
G1 X115.723 Y106.263 E78.99807
G1 X108.763 Y113.223 E79.27255
G1 X107.815 Y113.223 E79.29901
G1 X115.723 Y105.315 E79.61090
G1 X115.723 Y104.366 E79.63735
G1 X106.866 Y113.223 E79.98666
G1 X105.917 Y113.223 E80.01311
G1 X115.723 Y103.417 E80.39983
G1 X115.723 Y102.469 E80.42629
G1 X104.969 Y113.223 E80.85042
G1 X104.020 Y113.223 E80.87687
G1 X115.723 Y101.520 E81.33841
G1 X115.723 Y100.572 E81.36487
G1 X103.072 Y113.223 E81.86382
G1 X102.123 Y113.223 E81.89028
G1 X115.723 Y99.623 E82.42664
G1 X115.723 Y98.674 E82.45310
G1 X101.174 Y113.223 E83.02687
G1 X100.226 Y113.223 E83.05333
G1 X115.723 Y97.726 E83.66452
G1 X115.703 Y96.797 E83.69042
G1 X99.297 Y113.203 E84.33745
G1 X99.277 Y112.274 E84.36335
G1 X114.774 Y96.777 E84.97454
G1 X113.826 Y96.777 E85.00099
G1 X99.277 Y111.326 E85.57477
G1 X99.277 Y110.377 E85.60122
G1 X112.877 Y96.777 E86.13759
G1 X111.928 Y96.777 E86.16404
G1 X99.277 Y109.428 E86.66300
G1 X99.277 Y108.480 E86.68945
G1 X110.980 Y96.777 E87.15099
G1 X110.031 Y96.777 E87.17745
G1 X99.277 Y107.531 E87.60157
G1 X99.277 Y106.583 E87.62803
G1 X109.083 Y96.777 E88.01475
G1 X108.134 Y96.777 E88.04120
G1 X99.277 Y105.634 E88.39050
G1 X99.277 Y104.685 E88.41696
G1 X107.185 Y96.777 E88.72885
G1 X106.237 Y96.777 E88.75530
G1 X99.277 Y103.737 E89.02978
G1 X99.277 Y102.788 E89.05624
G1 X105.288 Y96.777 E89.29331
G1 X104.340 Y96.777 E89.31976
G1 X99.277 Y101.840 E89.51942
G1 X99.277 Y100.891 E89.54587
G1 X103.391 Y96.777 E89.70811
G1 X102.442 Y96.777 E89.73457
G1 X99.277 Y99.942 E89.85940
G1 X99.277 Y98.994 E89.88585
G1 X101.494 Y96.777 E89.97327
G1 X100.545 Y96.777 E89.99973
G1 X99.277 Y98.045 E90.04973
G1 X99.277 Y97.096 E90.07619
G1 X99.596 Y96.777 E90.08878
G1 Z0.600 F9000.000
G1 X116.123 Y113.623 F9000.000
G1 X98.877 Y113.623 E90.56096 F2100.000
G1 X98.877 Y96.377 E91.03313
G1 X116.123 Y96.377 E91.50530
G1 X116.123 Y113.563 E91.97583
G1 X116.781 Y114.281 F9000.000
G1 X98.219 Y114.281 E92.48407 F2100.000
G1 X98.219 Y95.719 E92.99230
G1 X116.781 Y95.719 E93.50054
G1 X116.781 Y114.221 E94.00713
G1 X117.300 Y114.800 F9000.000
G1 X97.700 Y114.800 E94.31559 F1050.000
G1 X97.700 Y95.200 E94.62405
G1 X117.300 Y95.200 E94.93251
G1 X117.300 Y114.740 E95.24003
G1 X116.954 Y114.600 F9000.000
G1 X115.723 Y97.096 F9000.000
G1 X115.404 Y96.777 E95.25263 F1200.000
G1 X114.455 Y96.777 E95.27908
G1 X115.723 Y98.045 E95.32909
G1 X115.723 Y98.994 E95.35555
G1 X113.506 Y96.777 E95.44297
G1 X112.558 Y96.777 E95.46942
G1 X115.723 Y99.942 E95.59425
G1 X115.723 Y100.891 E95.62071
G1 X111.609 Y96.777 E95.78295
G1 X110.660 Y96.777 E95.80941
G1 X115.723 Y101.840 E96.00907
G1 X115.723 Y102.788 E96.03552
G1 X109.712 Y96.777 E96.27259
G1 X108.763 Y96.777 E96.29904
G1 X115.723 Y103.737 E96.57353
G1 X115.723 Y104.685 E96.59998
G1 X107.815 Y96.777 E96.91187
G1 X106.866 Y96.777 E96.93833
G1 X115.723 Y105.634 E97.28763
G1 X115.723 Y106.583 E97.31409
G1 X105.917 Y96.777 E97.70081
G1 X104.969 Y96.777 E97.72726
G1 X115.723 Y107.531 E98.15139
G1 X115.723 Y108.480 E98.17784
G1 X104.020 Y96.777 E98.63939
G1 X103.072 Y96.777 E98.66584
G1 X115.723 Y109.428 E99.16480
G1 X115.723 Y110.377 E99.19125
G1 X102.123 Y96.777 E99.72762
G1 X101.174 Y96.777 E99.75407
G1 X115.723 Y111.326 E100.32785
G1 X115.723 Y112.274 E100.35430
G1 X100.226 Y96.777 E100.96549
G1 X99.297 Y96.797 E100.99140
G1 X115.703 Y113.203 E101.63842
G1 X114.774 Y113.223 E101.66432
G1 X99.277 Y97.726 E102.27551
G1 X99.277 Y98.674 E102.30197
G1 X113.826 Y113.223 E102.87574
G1 X112.877 Y113.223 E102.90220
G1 X99.277 Y99.623 E103.43856
G1 X99.277 Y100.572 E103.46502
G1 X111.928 Y113.223 E103.96397
G1 X110.980 Y113.223 E103.99042
G1 X99.277 Y101.520 E104.45197
G1 X99.277 Y102.469 E104.47842
G1 X110.031 Y113.223 E104.90255
G1 X109.083 Y113.223 E104.92900
G1 X99.277 Y103.417 E105.31572
G1 X99.277 Y104.366 E105.34217
G1 X108.134 Y113.223 E105.69148
G1 X107.185 Y113.223 E105.71793
G1 X99.277 Y105.315 E106.02982
G1 X99.277 Y106.263 E106.05628
G1 X106.237 Y113.223 E106.33076
G1 X105.288 Y113.223 E106.35721
G1 X99.277 Y107.212 E106.59428
G1 X99.277 Y108.160 E106.62073
G1 X104.340 Y113.223 E106.82039
G1 X103.391 Y113.223 E106.84684
G1 X99.277 Y109.109 E107.00909
G1 X99.277 Y110.058 E107.03554
G1 X102.442 Y113.223 E107.16037
G1 X101.494 Y113.223 E107.18683
G1 X99.277 Y111.006 E107.27425
G1 X99.277 Y111.955 E107.30070
G1 X100.545 Y113.223 E107.35071
G1 X99.596 Y113.223 E107.37716
G1 X99.277 Y112.904 E107.38976
M106 S178.5
G1 Z0.700 F9000.000
G1 X116.123 Y113.623 F9000.000
G1 X98.877 Y113.623 E107.86193 F2100.000
G1 X98.877 Y96.377 E108.33410
G1 X116.123 Y96.377 E108.80628
G1 X116.123 Y113.563 E109.27681
G1 X116.781 Y114.281 F9000.000
G1 X98.219 Y114.281 E109.78504 F2100.000
G1 X98.219 Y95.719 E110.29328
G1 X116.781 Y95.719 E110.80151
G1 X116.781 Y114.221 E111.30810
G1 X117.300 Y114.800 F9000.000
G1 X97.700 Y114.800 E111.61656 F1050.000
G1 X97.700 Y95.200 E111.92503
G1 X117.300 Y95.200 E112.23349
G1 X117.300 Y114.740 E112.54101
G1 X116.954 Y114.600 F9000.000
G1 X115.404 Y113.223 F9000.000
G1 X115.723 Y112.904 E112.55360 F1200.000
G1 X115.723 Y111.955 E112.58006
G1 X114.455 Y113.223 E112.63007
G1 X113.506 Y113.223 E112.65652
G1 X115.723 Y111.006 E112.74394
G1 X115.723 Y110.058 E112.77040
G1 X112.558 Y113.223 E112.89523
G1 X111.609 Y113.223 E112.92168
G1 X115.723 Y109.109 E113.08393
G1 X115.723 Y108.160 E113.11038
G1 X110.660 Y113.223 E113.31004
G1 X109.712 Y113.223 E113.33649
G1 X115.723 Y107.212 E113.57356
G1 X115.723 Y106.263 E113.60002
G1 X108.763 Y113.223 E113.87450
G1 X107.815 Y113.223 E113.90095
G1 X115.723 Y105.315 E114.21285
G1 X115.723 Y104.366 E114.23930
G1 X106.866 Y113.223 E114.58861
G1 X105.917 Y113.223 E114.61506
G1 X115.723 Y103.417 E115.00178
G1 X115.723 Y102.469 E115.02823
G1 X104.969 Y113.223 E115.45236
G1 X104.020 Y113.223 E115.47882
G1 X115.723 Y101.520 E115.94036
G1 X115.723 Y100.572 E115.96681
G1 X103.072 Y113.223 E116.46577
G1 X102.123 Y113.223 E116.49222
G1 X115.723 Y99.623 E117.02859
G1 X115.723 Y98.674 E117.05504
G1 X101.174 Y113.223 E117.62882
G1 X100.226 Y113.223 E117.65528
G1 X115.723 Y97.726 E118.26647
G1 X115.703 Y96.797 E118.29237
G1 X99.297 Y113.203 E118.93939
G1 X99.277 Y112.274 E118.96530
G1 X114.774 Y96.777 E119.57649
G1 X113.826 Y96.777 E119.60294
G1 X99.277 Y111.326 E120.17672
G1 X99.277 Y110.377 E120.20317
G1 X112.877 Y96.777 E120.73954
G1 X111.928 Y96.777 E120.76599
G1 X99.277 Y109.428 E121.26494
G1 X99.277 Y108.480 E121.29140
G1 X110.980 Y96.777 E121.75294
G1 X110.031 Y96.777 E121.77939
G1 X99.277 Y107.531 E122.20352
G1 X99.277 Y106.583 E122.22998
G1 X109.083 Y96.777 E122.61669
G1 X108.134 Y96.777 E122.64315
G1 X99.277 Y105.634 E122.99245
G1 X99.277 Y104.685 E123.01891
G1 X107.185 Y96.777 E123.33080
G1 X106.237 Y96.777 E123.35725
G1 X99.277 Y103.737 E123.63173
G1 X99.277 Y102.788 E123.65819
G1 X105.288 Y96.777 E123.89525
G1 X104.340 Y96.777 E123.92171
G1 X99.277 Y101.840 E124.12136
G1 X99.277 Y100.891 E124.14782
G1 X103.391 Y96.777 E124.31006
G1 X102.442 Y96.777 E124.33652
G1 X99.277 Y99.942 E124.46135
G1 X99.277 Y98.994 E124.48780
G1 X101.494 Y96.777 E124.57522
G1 X100.545 Y96.777 E124.60168
G1 X99.277 Y98.045 E124.65168
G1 X99.277 Y97.096 E124.67814
G1 X99.596 Y96.777 E124.69073
G1 Z0.800 F9000.000
G1 X116.123 Y113.623 F9000.000
G1 X98.877 Y113.623 E125.16291 F2100.000
G1 X98.877 Y96.377 E125.63508
G1 X116.123 Y96.377 E126.10725
G1 X116.123 Y113.563 E126.57778
G1 X116.781 Y114.281 F9000.000
G1 X98.219 Y114.281 E127.08602 F2100.000
G1 X98.219 Y95.719 E127.59425
G1 X116.781 Y95.719 E128.10248
G1 X116.781 Y114.221 E128.60907
G1 X117.300 Y114.800 F9000.000
G1 X97.700 Y114.800 E128.91754 F1050.000
G1 X97.700 Y95.200 E129.22600
G1 X117.300 Y95.200 E129.53446
G1 X117.300 Y114.740 E129.84198
G1 X116.954 Y114.600 F9000.000
G1 X115.723 Y97.096 F9000.000
G1 X115.404 Y96.777 E129.85458 F1200.000
G1 X114.455 Y96.777 E129.88103
G1 X115.723 Y98.045 E129.93104
G1 X115.723 Y98.994 E129.95749
G1 X113.506 Y96.777 E130.04492
G1 X112.558 Y96.777 E130.07137
G1 X115.723 Y99.942 E130.19620
G1 X115.723 Y100.891 E130.22266
G1 X111.609 Y96.777 E130.38490
G1 X110.660 Y96.777 E130.41136
G1 X115.723 Y101.840 E130.61101
G1 X115.723 Y102.788 E130.63747
G1 X109.712 Y96.777 E130.87454
G1 X108.763 Y96.777 E130.90099
G1 X115.723 Y103.737 E131.17547
G1 X115.723 Y104.685 E131.20193
G1 X107.815 Y96.777 E131.51382
G1 X106.866 Y96.777 E131.54028
G1 X115.723 Y105.634 E131.88958
G1 X115.723 Y106.583 E131.91604
G1 X105.917 Y96.777 E132.30275
G1 X104.969 Y96.777 E132.32921
G1 X115.723 Y107.531 E132.75334
G1 X115.723 Y108.480 E132.77979
G1 X104.020 Y96.777 E133.24133
G1 X103.072 Y96.777 E133.26779
G1 X115.723 Y109.428 E133.76674
G1 X115.723 Y110.377 E133.79320
G1 X102.123 Y96.777 E134.32956
G1 X101.174 Y96.777 E134.35602
G1 X115.723 Y111.326 E134.92980
G1 X115.723 Y112.274 E134.95625
G1 X100.226 Y96.777 E135.56744
G1 X99.297 Y96.797 E135.59334
G1 X115.703 Y113.203 E136.24037
G1 X114.774 Y113.223 E136.26627
G1 X99.277 Y97.726 E136.87746
G1 X99.277 Y98.674 E136.90391
G1 X113.826 Y113.223 E137.47769
G1 X112.877 Y113.223 E137.50415
G1 X99.277 Y99.623 E138.04051
G1 X99.277 Y100.572 E138.06697
G1 X111.928 Y113.223 E138.56592
G1 X110.980 Y113.223 E138.59237
G1 X99.277 Y101.520 E139.05391
G1 X99.277 Y102.469 E139.08037
G1 X110.031 Y113.223 E139.50450
G1 X109.083 Y113.223 E139.53095
G1 X99.277 Y103.417 E139.91767
G1 X99.277 Y104.366 E139.94412
G1 X108.134 Y113.223 E140.29342
G1 X107.185 Y113.223 E140.31988
G1 X99.277 Y105.315 E140.63177
G1 X99.277 Y106.263 E140.65823
G1 X106.237 Y113.223 E140.93271
G1 X105.288 Y113.223 E140.95916
G1 X99.277 Y107.212 E141.19623
G1 X99.277 Y108.160 E141.22268
G1 X104.340 Y113.223 E141.42234
G1 X103.391 Y113.223 E141.44879
G1 X99.277 Y109.109 E141.61104
G1 X99.277 Y110.058 E141.63749
G1 X102.442 Y113.223 E141.76232
G1 X101.494 Y113.223 E141.78878
G1 X99.277 Y111.006 E141.87619
G1 X99.277 Y111.955 E141.90265
G1 X100.545 Y113.223 E141.95266
G1 X99.596 Y113.223 E141.97911
G1 X99.277 Y112.904 E141.99171
M106 S239.7
G1 Z0.900 F9000.000
G1 X116.123 Y113.623 F9000.000
G1 X98.877 Y113.623 E142.46388 F2100.000
G1 X98.877 Y96.377 E142.93605
G1 X116.123 Y96.377 E143.40823
G1 X116.123 Y113.563 E143.87876
G1 X116.781 Y114.281 F9000.000
G1 X98.219 Y114.281 E144.38699 F2100.000
G1 X98.219 Y95.719 E144.89522
G1 X116.781 Y95.719 E145.40346
G1 X116.781 Y114.221 E145.91005
G1 X117.300 Y114.800 F9000.000
G1 X97.700 Y114.800 E146.21851 F1050.000
G1 X97.700 Y95.200 E146.52697
G1 X117.300 Y95.200 E146.83544
G1 X117.300 Y114.740 E147.14295
G1 X116.954 Y114.600 F9000.000
G1 X105.849 Y109.964 F9000.000
G1 X99.736 Y108.326 E147.47359 F3600.000
G1 X99.736 Y112.764 E147.70546
G1 X106.599 Y112.764 E148.06402
G1 X105.849 Y109.964 E148.21548
G1 X109.101 Y97.826 F9000.000
G1 X106.899 Y97.236 E148.33456 F3600.000
G1 X99.917 Y97.236 E148.69937
G1 X99.736 Y97.417 E148.71274
G1 X99.736 Y107.025 E149.21472
G1 X106.174 Y108.750 E149.56295
G1 X110.278 Y104.646 E149.86619
G1 X115.264 Y105.982 E150.13587
G1 X115.264 Y104.681 E150.20384
G1 X110.603 Y103.432 E150.45593
G1 X109.101 Y97.826 E150.75917
G1 Z1.000 F9000.000
G1 X116.123 Y113.623 F9000.000
G1 X98.877 Y113.623 E151.23134 F2100.000
