;FLAVOR:Marlin
;TIME:481
;Filament used: 0.317537m
;Layer height: 0.2
;Generated with Cura_SteamEngine master
M104 S200
M109 S200
; -- START GCODE --
G21                     ;set units to millimetres
G90                     ;set to absolute positioning
M106 S0                 ;set fan speed to zero (turned off)
G28 X0 Y0               ;move to the X/Y origin (Home)
G28 Z0                  ;move to the Z origin (Home)
G1 Z15.0 F1200          ;move Z to position 15.0 mm
G92 E0                  ;zero the extruded length
G1 E20 F200             ;extrude 20mm of feed stock
G92 E0                  ;zero the extruded length again
G1 F7200                ;set feedrate to 120 mm/s
; -- end of START GCODE --
;LAYER_COUNT:20
;LAYER:0
M107
G0 F3600 X93.991 Y94.507 Z0.2
;TYPE:SKIRT
G1 F1200 X94.441 Y94.165 E0.0188
G1 X94.934 Y93.889 E0.03759
G1 X95.462 Y93.685 E0.05642
G1 X96.012 Y93.558 E0.07519
G1 X96.635 Y93.509 E0.09598
G1 X119.717 Y93.51 E0.86369
G1 X120.281 Y93.55 E0.88249
G1 X120.834 Y93.669 E0.90131
G1 X121.364 Y93.865 E0.9201
G1 X121.862 Y94.133 E0.93891
G1 X122.316 Y94.47 E0.95772
G1 X122.719 Y94.866 E0.97651
G1 X123.062 Y95.316 E0.99533
G1 X123.337 Y95.809 E1.0141
G1 X123.541 Y96.337 E1.03293
G1 X123.668 Y96.888 E1.05174
G1 X123.717 Y97.51 E1.07249
G1 X123.718 Y112.49 E1.57073
G1 X123.678 Y113.054 E1.58953
G1 X123.559 Y113.606 E1.60831
G1 X123.363 Y114.137 E1.62714
G1 X123.095 Y114.634 E1.64592
G1 X122.759 Y115.089 E1.66473
G1 X122.362 Y115.492 E1.68355
G1 X121.912 Y115.834 E1.70235
G1 X121.419 Y116.11 E1.72114
G1 X120.892 Y116.314 E1.73993
G1 X120.341 Y116.441 E1.75874
G1 X119.718 Y116.49 E1.77953
G1 X96.635 Y116.491 E2.54727
G1 X96.071 Y116.451 E2.56608
G1 X95.519 Y116.332 E2.58486
G1 X94.988 Y116.136 E2.60368
G1 X94.491 Y115.868 E2.62246
G1 X94.036 Y115.532 E2.64128
G1 X93.633 Y115.135 E2.66009
G1 X93.291 Y114.685 E2.67889
G1 X93.015 Y114.192 E2.69768
G1 X92.811 Y113.665 E2.71648
G1 X92.684 Y113.114 E2.73528
G1 X92.635 Y112.491 E2.75607
G1 X92.635 Y97.509 E3.25437
G1 X92.675 Y96.945 E3.27318
G1 X92.794 Y96.392 E3.29199
G1 X92.99 Y95.862 E3.31079
G1 X93.258 Y95.365 E3.32957
G1 X93.594 Y94.91 E3.34838
G1 X93.991 Y94.507 E3.36719
G0 F3600 X94.382 Y94.701
G1 F1200 X94.824 Y94.398 E3.38502
G1 X95.307 Y94.163 E3.40288
G1 X95.818 Y94.003 E3.42069
G1 X96.348 Y93.92 E3.43854
G1 X96.635 Y93.909 E3.44809
G1 X119.717 Y93.91 E4.2158
G1 X120.252 Y93.95 E4.23364
G1 X120.775 Y94.069 E4.25148
G1 X121.274 Y94.264 E4.2693
G1 X121.739 Y94.532 E4.28715
G1 X122.159 Y94.865 E4.30498
G1 X122.525 Y95.257 E4.32282
G1 X122.829 Y95.699 E4.34066
G1 X123.063 Y96.182 E4.35851
G1 X123.223 Y96.693 E4.37632
G1 X123.306 Y97.223 E4.39416
G1 X123.317 Y97.51 E4.40372
G1 X123.318 Y112.49 E4.90195
G1 X123.278 Y113.025 E4.9198
G1 X123.159 Y113.547 E4.9376
G1 X122.964 Y114.047 E4.95545
G1 X122.697 Y114.512 E4.97329
G1 X122.363 Y114.932 E4.99114
G1 X121.971 Y115.298 E5.00897
G1 X121.529 Y115.601 E5.0268
G1 X121.047 Y115.836 E5.04463
G1 X120.535 Y115.996 E5.06247
G1 X120.005 Y116.079 E5.08032
G1 X119.718 Y116.09 E5.08987
G1 X96.635 Y116.091 E5.85761
G1 X96.1 Y116.051 E5.87546
G1 X95.577 Y115.932 E5.8933
G1 X95.078 Y115.737 E5.91111
G1 X94.613 Y115.47 E5.92895
G1 X94.193 Y115.136 E5.9468
G1 X93.827 Y114.744 E5.96463
G1 X93.524 Y114.302 E5.98246
G1 X93.289 Y113.82 E6.00029
G1 X93.129 Y113.308 E6.01813
G1 X93.046 Y112.778 E6.03598
G1 X93.035 Y112.491 E6.04553
G1 X93.035 Y97.509 E6.54383
G1 X93.075 Y96.974 E6.56168
G1 X93.194 Y96.451 E6.57952
G1 X93.389 Y95.952 E6.59734
G1 X93.657 Y95.487 E6.61519
G1 X93.99 Y95.067 E6.63301
G1 X94.382 Y94.701 E6.65085
G0 F3600 X94.771 Y94.908
G1 F1200 X95.204 Y94.647 E6.66767
G1 X95.672 Y94.457 E6.68447
G1 X96.165 Y94.344 E6.70129
G1 X96.635 Y94.309 E6.71696
G1 X119.717 Y94.31 E7.48467
G1 X120.221 Y94.35 E7.50149
G1 X120.713 Y94.469 E7.51833
G1 X121.179 Y94.664 E7.53513
G1 X121.609 Y94.929 E7.55193
G1 X121.992 Y95.26 E7.56876
G1 X122.318 Y95.646 E7.58557
G1 X122.579 Y96.079 E7.60238
G1 X122.769 Y96.547 E7.61918
G1 X122.882 Y97.04 E7.63601
G1 X122.917 Y97.51 E7.65168
G1 X122.918 Y112.49 E8.14992
G1 X122.878 Y112.994 E8.16673
G1 X122.759 Y113.485 E8.18354
G1 X122.565 Y113.952 E8.20036
G1 X122.299 Y114.382 E8.21717
G1 X121.969 Y114.765 E8.23399
G1 X121.582 Y115.091 E8.25082
G1 X121.149 Y115.352 E8.26764
G1 X120.681 Y115.542 E8.28443
G1 X120.188 Y115.655 E8.30126
G1 X119.718 Y115.69 E8.31693
G1 X96.635 Y115.691 E9.08468
G1 X96.131 Y115.651 E9.10149
G1 X95.64 Y115.532 E9.1183
G1 X95.173 Y115.338 E9.13512
G1 X94.743 Y115.072 E9.15193
G1 X94.36 Y114.742 E9.16875
G1 X94.034 Y114.355 E9.18558
G1 X93.773 Y113.922 E9.20239
G1 X93.583 Y113.454 E9.21919
G1 X93.47 Y112.961 E9.23601
G1 X93.435 Y112.491 E9.25169
G1 X93.435 Y97.509 E9.74999
G1 X93.475 Y97.005 E9.76681
G1 X93.594 Y96.514 E9.78361
G1 X93.788 Y96.047 E9.80043
G1 X94.054 Y95.617 E9.81725
G1 X94.384 Y95.234 E9.83406
G1 X94.771 Y94.908 E9.85089
G1 F1500 E3.35089
G0 F3600 X97.24 Y96.835
G0 X97.24 Y98.114
G0 X97.296 Y98.17
G0 X97.226 Y98.1
;TYPE:WALL-INNER
G1 F1500 E9.85089
G1 F1200 X119.126 Y98.1 E10.57929
G1 X119.127 Y111.7 E11.03163
G1 X119.127 Y111.9 E11.03828
G1 X118.927 Y111.9 E11.04259
G1 X97.226 Y111.9 E11.76437
G1 X97.226 Y111.1 E11.79097
G1 X105.279 Y111.099 E12.05882
G1 X105.445 Y111.089 E12.06435
G1 X105.625 Y111.056 E12.07044
G1 X105.795 Y111.004 E12.07635
G1 X105.961 Y110.934 E12.08234
G1 X106.118 Y110.844 E12.08836
G1 X106.258 Y110.742 E12.09412
G1 X106.394 Y110.621 E12.10018
G1 X106.514 Y110.482 E12.10628
G1 X106.615 Y110.334 E12.11224
G1 X106.699 Y110.179 E12.11811
G1 X106.766 Y110.013 E12.12406
G1 X106.814 Y109.84 E12.13003
G1 X106.843 Y109.66 E12.1361
G1 X106.849 Y109.481 E12.14205
G1 X106.839 Y109.306 E12.14788
G1 X106.806 Y109.125 E12.154
G1 X106.754 Y108.955 E12.15992
G1 X106.684 Y108.789 E12.16591
G1 X106.594 Y108.632 E12.17193
G1 X106.492 Y108.492 E12.17769
G1 X106.371 Y108.356 E12.18374
G1 X106.232 Y108.236 E12.18985
G1 X106.084 Y108.135 E12.19581
G1 X105.929 Y108.051 E12.20167
G1 X105.763 Y107.984 E12.20763
G1 X105.591 Y107.936 E12.21357
G1 X105.414 Y107.908 E12.21953
G1 X105.265 Y107.9 E12.22449
G1 X97.426 Y107.9 E12.48522
G1 X97.226 Y107.9 E12.49187
G1 X97.226 Y107.7 E12.49617
G1 X97.227 Y102.1 E12.68243
G1 X105.266 Y102.1 E12.94981
G1 X105.429 Y102.091 E12.95524
G1 X105.608 Y102.06 E12.96128
G1 X105.777 Y102.011 E12.96713
G1 X105.944 Y101.944 E12.97312
G1 X106.104 Y101.855 E12.97921
G1 X106.248 Y101.751 E12.98512
G1 X106.382 Y101.632 E12.99108
G1 X106.501 Y101.498 E12.99704
G1 X106.605 Y101.354 E13.00295
G1 X106.694 Y101.194 E13.00904
G1 X106.761 Y101.027 E13.01502
G1 X106.81 Y100.858 E13.02087
G1 X106.841 Y100.678 E13.02695
G1 X106.851 Y100.5 E13.03288
G1 X106.841 Y100.322 E13.03881
G1 X106.81 Y100.142 E13.04488
G1 X106.761 Y99.973 E13.05073
G1 X106.694 Y99.806 E13.05672
G1 X106.605 Y99.646 E13.06281
G1 X106.501 Y99.502 E13.06872
G1 X106.382 Y99.368 E13.07468
G1 X106.248 Y99.249 E13.08064
G1 X106.104 Y99.145 E13.08655
G1 X105.944 Y99.056 E13.09263
G1 X105.777 Y98.989 E13.09862
G1 X105.608 Y98.94 E13.10447
G1 X105.429 Y98.909 E13.11051
G1 X105.266 Y98.9 E13.11594
G1 X97.226 Y98.9 E13.38336
G1 X97.226 Y98.1 E13.40996
G0 F3600 X96.826 Y97.7
;TYPE:WALL-OUTER
G1 F1200 X119.526 Y97.7 E14.16497
G1 X119.527 Y112.1 E14.64391
G1 X119.527 Y112.3 E14.65057
G1 X119.327 Y112.3 E14.65487
G1 X96.826 Y112.3 E15.40326
G1 X96.826 Y110.7 E15.45648
G1 X105.267 Y110.699 E15.73723
G1 X105.397 Y110.691 E15.74156
G1 X105.531 Y110.667 E15.74608
G1 X105.658 Y110.628 E15.7505
G1 X105.783 Y110.575 E15.75502
G1 X105.9 Y110.508 E15.7595
G1 X106.007 Y110.43 E15.76391
G1 X106.108 Y110.34 E15.76841
G1 X106.197 Y110.237 E15.77293
G1 X106.273 Y110.126 E15.77741
G1 X106.336 Y110.009 E15.78183
G1 X106.387 Y109.883 E15.78635
G1 X106.423 Y109.755 E15.79077
G1 X106.444 Y109.621 E15.79528
G1 X106.449 Y109.486 E15.79978
G1 X106.441 Y109.353 E15.80421
G1 X106.417 Y109.219 E15.80874
G1 X106.378 Y109.092 E15.81315
G1 X106.325 Y108.967 E15.81767
G1 X106.258 Y108.85 E15.82216
G1 X106.18 Y108.743 E15.82656
G1 X106.09 Y108.642 E15.83106
G1 X105.987 Y108.553 E15.83559
G1 X105.876 Y108.477 E15.84006
G1 X105.759 Y108.414 E15.84448
G1 X105.633 Y108.363 E15.849
G1 X105.505 Y108.327 E15.85342
G1 X105.372 Y108.306 E15.8579
G1 X105.255 Y108.3 E15.8618
G1 X97.026 Y108.3 E16.1355
G1 X96.826 Y108.3 E16.14215
G1 X96.826 Y108.1 E16.14646
G1 X96.827 Y101.7 E16.35932
G1 X105.255 Y101.7 E16.63964
G1 X105.384 Y101.693 E16.64393
G1 X105.518 Y101.67 E16.64846
G1 X105.646 Y101.633 E16.65289
G1 X105.771 Y101.582 E16.65738
G1 X105.889 Y101.517 E16.66186
G1 X105.998 Y101.438 E16.66634
G1 X106.099 Y101.349 E16.67081
G1 X106.188 Y101.248 E16.67529
G1 X106.267 Y101.139 E16.67977
G1 X106.332 Y101.021 E16.68425
G1 X106.383 Y100.896 E16.68874
G1 X106.42 Y100.768 E16.69317
G1 X106.443 Y100.634 E16.69769
G1 X106.45 Y100.5 E16.70216
G1 X106.443 Y100.366 E16.70662
G1 X106.42 Y100.232 E16.71114
G1 X106.383 Y100.104 E16.71557
G1 X106.332 Y99.979 E16.72006
G1 X106.267 Y99.861 E16.72454
G1 X106.188 Y99.752 E16.72902
G1 X106.099 Y99.651 E16.7335
G1 X105.998 Y99.562 E16.73798
G1 X105.889 Y99.483 E16.74245
G1 X105.771 Y99.418 E16.74693
G1 X105.646 Y99.367 E16.75142
G1 X105.518 Y99.33 E16.75586
G1 X105.384 Y99.307 E16.76038
G1 X105.255 Y99.3 E16.76467
G1 X96.826 Y99.3 E17.04502
G1 X96.826 Y97.7 E17.09824
G0 F3600 X97.026 Y97.7
G0 X97.296 Y98.17
G0 X119.098 Y98.128
G0 X119.099 Y111.872
G0 X97.577 Y111.719
G0 X97.491 Y111.633
G1 F1200 X97.922 Y111.499 E17.11258
G1 X98.488 Y111.499 E17.13328
G1 X99.054 Y111.499 E17.15399
G1 X99.619 Y111.499 E17.17466
G1 X100.185 Y111.499 E17.19537
G1 X100.751 Y111.499 E17.21608
G1 X101.316 Y111.499 E17.23675
G1 X101.882 Y111.499 E17.25746
G1 X102.448 Y111.499 E17.27817
G1 X103.014 Y111.499 E17.29887
G1 X103.579 Y111.499 E17.31954
G1 X104.145 Y111.499 E17.34025
G1 X104.711 Y111.499 E17.36096
G1 X105.276 Y111.499 E17.38163
G1 X105.825 Y111.481 E17.40314
G0 F3600 X106.628 Y111.719
;TYPE:SKIN
G1 F1200 X106.015 Y111.106 E17.43198
G1 X105.945 Y111.036
G0 F3600 X106.363 Y110.888
G1 F1200 X107.193 Y111.719 E17.47104
G1 X107.263 Y111.789
G0 F3600 X107.759 Y111.719
G1 F1200 X106.645 Y110.604 E17.52346
G1 X106.575 Y110.534
G0 F3600 X106.86 Y110.254
G1 F1200 X108.325 Y111.719 E17.59237
G1 X108.395 Y111.789
G0 F3600 X108.89 Y111.719
G1 F1200 X106.997 Y109.826 E17.68141
G1 X106.927 Y109.756
G0 F3600 X107.017 Y109.279
G1 F1200 X109.456 Y111.719 E17.79616
G1 X109.526 Y111.789
G0 F3600 X110.022 Y111.719
G1 F1200 X100.583 Y102.28 E18.24014
G1 X100.513 Y102.21
G0 F3600 X101.148 Y102.28
G1 F1200 X110.587 Y111.719 E18.68412
G1 X110.657 Y111.789
G0 F3600 X111.153 Y111.719
G1 F1200 X101.714 Y102.28 E19.12811
G1 X101.644 Y102.21
G0 F3600 X102.28 Y102.28
G1 F1200 X111.719 Y111.719 E19.57209
G1 X111.789 Y111.789
G0 F3600 X112.285 Y111.719
G1 F1200 X102.845 Y102.28 E20.01609
G1 X102.775 Y102.21
G0 F3600 X103.411 Y102.28
G1 F1200 X112.85 Y111.719 E20.46007
G1 X112.92 Y111.789
G0 F3600 X113.416 Y111.719
G1 F1200 X103.977 Y102.28 E20.90406
G1 X103.907 Y102.21
G0 F3600 X104.542 Y102.28
G1 F1200 X113.982 Y111.719 E21.34806
G1 X114.052 Y111.789
G0 F3600 X114.547 Y111.719
G1 F1200 X105.108 Y102.28 E21.79204
G1 X105.038 Y102.21
G0 F3600 X105.632 Y102.238
G1 F1200 X115.113 Y111.719 E22.238
G1 X115.183 Y111.789
G0 F3600 X115.679 Y111.719
G1 F1200 X106.05 Y102.09 E22.69092
G1 X105.98 Y102.02
G0 F3600 X106.39 Y101.865
G1 F1200 X116.244 Y111.719 E23.15442
G1 X116.314 Y111.789
G0 F3600 X116.81 Y111.719
G1 F1200 X106.666 Y101.575 E23.63156
G1 X106.596 Y101.505
G0 F3600 X106.876 Y101.219
G1 F1200 X117.376 Y111.719 E24.12545
G1 X117.446 Y111.789
G0 F3600 X117.941 Y111.719
G1 F1200 X107.004 Y100.781 E24.63992
G1 X106.934 Y100.711
G0 F3600 X107.004 Y100.216
G1 F1200 X118.507 Y111.719 E25.18098
G1 X118.577 Y111.789
G0 F3600 X118.946 Y111.592
G1 F1200 X105.633 Y98.279 E25.80719
G1 X105.563 Y98.209
G0 F3600 X105.299 Y98.511
G1 F1200 X104.721 Y98.499 E25.82843
G1 X104.156 Y98.499 E25.8491
G1 X103.59 Y98.499 E25.86981
G1 X103.024 Y98.499 E25.89052
G1 X102.459 Y98.499 E25.91119
G1 X101.893 Y98.499 E25.9319
G1 X101.327 Y98.499 E25.95261
G1 X100.762 Y98.499 E25.97328
G1 X100.196 Y98.499 E25.99399
G1 X99.63 Y98.499 E26.01469
G1 X99.065 Y98.499 E26.03536
G1 X98.499 Y98.499 E26.05607
G1 X97.933 Y98.499 E26.07678
G1 X97.496 Y98.627 E26.0914
G0 F3600 X97.588 Y98.719
G0 X105.616 Y98.902
G0 X106.125 Y99.112
G0 X106.532 Y99.477
G0 X106.798 Y99.96
G0 X106.891 Y100.5
G0 X106.798 Y101.04
G0 X106.532 Y101.523
G0 X106.125 Y101.888
G0 X105.616 Y102.098
G0 X97.754 Y102.28
G1 F1200 X103.193 Y107.719 E26.34723
G1 X103.263 Y107.789
G0 F3600 X102.628 Y107.719
G1 F1200 X97.406 Y102.497 E26.59286
G1 X97.336 Y102.427
G0 F3600 X97.406 Y103.063
G1 F1200 X102.062 Y107.719 E26.81186
G1 X102.132 Y107.789
G0 F3600 X101.496 Y107.719
G1 F1200 X97.406 Y103.629 E27.00424
G1 X97.336 Y103.559
G0 F3600 X97.406 Y104.194
G1 F1200 X100.931 Y107.719 E27.17005
G1 X101.001 Y107.789
G0 F3600 X100.365 Y107.719
G1 F1200 X97.406 Y104.759 E27.30925
G1 X97.336 Y104.689
G0 F3600 X97.406 Y105.325
G1 F1200 X99.799 Y107.719 E27.42183
G1 X99.869 Y107.789
G0 F3600 X99.233 Y107.719
G1 F1200 X97.406 Y105.891 E27.50779
G1 X97.336 Y105.821
G0 F3600 X97.405 Y106.456
G1 F1200 X98.668 Y107.719 E27.5672
G1 X98.738 Y107.789
G0 F3600 X98.102 Y107.719
G1 F1200 X97.405 Y107.022 E27.59999
G1 X97.335 Y106.952
G0 F3600 X97.405 Y107.587
G1 F1200 X97.536 Y107.719 E27.60617
G0 F3600 X98.32 Y102.28
G1 F1200 X103.759 Y107.719 E27.86201
G1 X103.829 Y107.789
G0 F3600 X104.325 Y107.719
G1 F1200 X98.886 Y102.28 E28.11784
G1 X98.816 Y102.21
G0 F3600 X99.451 Y102.28
G1 F1200 X104.89 Y107.719 E28.37367
G1 X104.96 Y107.789
G0 F3600 X105.471 Y107.734
G1 F1200 X100.017 Y102.28 E28.63021
G1 X99.947 Y102.21
G0 F3600 X105.616 Y102.098
G0 X106.125 Y101.888
G0 X106.532 Y101.523
G0 X106.798 Y101.04
G0 X106.891 Y100.5
G0 X106.798 Y99.96
G0 X106.198 Y98.279
G1 F1200 X118.946 Y111.027 E29.22984
G1 X119.016 Y111.097
G0 F3600 X118.946 Y110.461
G1 F1200 X106.764 Y98.279 E29.80284
G1 X106.694 Y98.209
G0 F3600 X107.33 Y98.279
G1 F1200 X118.946 Y109.895 E30.34923
G1 X119.016 Y109.965
G0 F3600 X118.946 Y109.33
G1 F1200 X107.896 Y98.279 E30.86901
G1 X107.826 Y98.209
G0 F3600 X108.461 Y98.279
G1 F1200 X118.946 Y108.764 E31.36219
G1 X119.016 Y108.834
G0 F3600 X118.946 Y108.198
G1 F1200 X109.027 Y98.279 E31.82875
G1 X108.957 Y98.209
G0 F3600 X109.593 Y98.279
G1 F1200 X118.946 Y107.632 E32.26869
G1 X119.016 Y107.702
G0 F3600 X118.946 Y107.067
G1 F1200 X110.158 Y98.279 E32.68205
G1 X110.088 Y98.209
G0 F3600 X110.724 Y98.279
G1 F1200 X118.946 Y106.501 E33.06878
G1 X119.016 Y106.571
G0 F3600 X118.946 Y105.935
G1 F1200 X111.29 Y98.279 E33.4289
G1 X111.22 Y98.209
G0 F3600 X111.855 Y98.279
G1 F1200 X118.946 Y105.37 E33.76244
G1 X119.016 Y105.44
G0 F3600 X118.945 Y104.803
G1 F1200 X112.421 Y98.279 E34.06931
G1 X112.351 Y98.209
G0 F3600 X112.987 Y98.279
G1 F1200 X118.945 Y104.238 E34.34958
G1 X119.015 Y104.308
G0 F3600 X118.945 Y103.672
G1 F1200 X113.552 Y98.279 E34.60325
G1 X113.482 Y98.209
G0 F3600 X114.118 Y98.279
G1 F1200 X118.945 Y103.106 E34.83029
G1 X119.015 Y103.176
G0 F3600 X118.945 Y102.541
G1 F1200 X114.684 Y98.279 E35.03074
G1 X114.614 Y98.209
G0 F3600 X115.249 Y98.279
G1 F1200 X118.945 Y101.975 E35.20459
G1 X119.015 Y102.045
G0 F3600 X118.945 Y101.409
G1 F1200 X115.815 Y98.279 E35.35181
G1 X115.745 Y98.209
G0 F3600 X116.381 Y98.279
G1 F1200 X118.945 Y100.844 E35.47244
G1 X119.015 Y100.914
G0 F3600 X118.945 Y100.278
G1 F1200 X116.946 Y98.279 E35.56647
G1 X116.876 Y98.209
G0 F3600 X117.512 Y98.279
G1 F1200 X118.945 Y99.712 E35.63387
G1 X119.015 Y99.782
G0 F3600 X118.945 Y99.146
G1 F1200 X118.078 Y98.279 E35.67465
G1 X118.008 Y98.209
G0 F3600 X118.644 Y98.279
G1 F1200 X118.945 Y98.581 E35.68883
G0 F3600 X118.726 Y98.58
G0 X97.296 Y98.17
G0 X96.796 Y98.1
;TIME_ELAPSED:59.819990
;LAYER:1
M106 S255
G0 F5400 X96.796 Y98.1 Z0.4
;TYPE:WALL-INNER
G1 F1800 X119.077 Y98.1 E36.4299
G1 X119.077 Y111.9 E36.88889
G1 X96.797 Y111.9 E37.62993
G1 X96.796 Y111.3 E37.64989
G1 X96.796 Y111.1 E37.65654
G1 X96.996 Y111.1 E37.66084
G1 X105.266 Y111.1 E37.93591
