;FLAVOR:Marlin
;TIME:9417
;Filament used: 6.15781m
;Layer height: 0.2
;Generated with Cura_SteamEngine master
M104 S200
M109 S200
; -- START GCODE --
G21                     ;set units to millimetres
G90                     ;set to absolute positioning
M106 S0                 ;set fan speed to zero (turned off)
G28 X0 Y0               ;move to the X/Y origin (Home)
G28 Z0                  ;move to the Z origin (Home)
G1 Z15.0 F1200          ;move Z to position 15.0 mm
G92 E0                  ;zero the extruded length
G1 E20 F200             ;extrude 20mm of feed stock
G92 E0                  ;zero the extruded length again
G1 F7200                ;set feedrate to 120 mm/s
; -- end of START GCODE --
;LAYER_COUNT:20
;LAYER:0
M107
G0 F3600 X49.006 Y58.003 Z0.2
;TYPE:SKIRT
G1 F1200 X53.059 Y54.334 E0.18183
G1 X56.908 Y50.429 E0.3642
G1 X60.553 Y46.289 E0.54766
G1 X62.781 Y43.509 E0.66616
G1 X63.127 Y43.141 E0.68296
G1 X63.527 Y42.832 E0.69977
G1 X63.971 Y42.589 E0.7166
G1 X64.447 Y42.42 E0.7334
G1 X64.944 Y42.327 E0.75022
G1 X65.278 Y42.31 E0.76134
G1 X88.368 Y42.31 E1.52932
G1 X88.886 Y42.352 E1.5466
G1 X96.032 Y43.523 E1.78745
G1 X101.468 Y44.061 E1.96914
G1 X104.191 Y44.214 E2.05985
G1 X108.278 Y44.3 E2.19581
G1 X118.369 Y44.31 E2.53144
G1 X118.883 Y44.352 E2.54859
G1 X126.029 Y45.523 E2.78944
G1 X131.468 Y46.061 E2.97122
G1 X134.191 Y46.214 E3.06193
G1 X138.278 Y46.3 E3.1979
G1 X148.371 Y46.31 E3.53359
G1 X148.875 Y46.35 E3.55041
G1 X149.366 Y46.47 E3.56722
G1 X149.833 Y46.665 E3.58405
G1 X150.263 Y46.931 E3.60087
G1 X150.744 Y47.367 E3.62246
G1 X154.803 Y51.867 E3.82402
G1 X158.692 Y55.697 E4.00557
G1 X162.857 Y59.362 E4.19009
G1 X164.923 Y61.027 E4.27834
G1 X169.337 Y64.289 E4.46089
G1 X173.915 Y67.289 E4.64294
G1 X179.949 Y70.726 E4.87391
G1 X180.367 Y71.011 E4.89073
G1 X180.735 Y71.357 E4.90753
G1 X181.044 Y71.757 E4.92434
G1 X181.286 Y72.201 E4.94116
G1 X181.456 Y72.677 E4.95797
G1 X181.548 Y73.174 E4.97479
G1 X181.565 Y73.507 E4.98588
G1 X181.564 Y88.494 E5.48434
G1 X181.518 Y89.037 E5.50247
G1 X181.016 Y91.95 E5.60078
G1 X180.319 Y97.391 E5.78323
G1 X179.931 Y102.849 E5.96522
G1 X179.852 Y108.336 E6.14774
G1 X180.082 Y113.802 E6.3297
G1 X180.622 Y119.245 E6.51163
G1 X181.524 Y124.998 E6.70531
G1 X181.563 Y125.494 E6.72186
G1 X181.564 Y140.491 E7.22066
G1 X181.524 Y140.995 E7.23747
G1 X181.405 Y141.486 E7.25428
G1 X181.211 Y141.953 E7.2711
G1 X180.945 Y142.383 E7.28791
G1 X180.615 Y142.766 E7.30473
G1 X180.228 Y143.092 E7.32156
G1 X179.888 Y143.305 E7.3349
G1 X177.459 Y144.621 E7.42679
G1 X172.728 Y147.445 E7.61004
G1 X168.209 Y150.502 E7.79151
G1 X163.847 Y153.828 E7.97395
G1 X159.693 Y157.383 E8.1558
G1 X155.743 Y161.17 E8.3378
G1 X150.743 Y166.636 E8.58419
G1 X150.374 Y166.981 E8.60099
G1 X149.954 Y167.263 E8.61782
G1 X149.496 Y167.476 E8.63462
G1 X149.009 Y167.614 E8.65145
G1 X148.383 Y167.676 E8.67238
G1 X95.982 Y167.7 E10.41524
G1 X95.98 Y167.7 E10.41531
G1 X65.279 Y167.69 E11.43643
G1 X64.775 Y167.65 E11.45324
G1 X64.284 Y167.531 E11.47005
G1 X63.817 Y167.336 E11.48688
G1 X63.387 Y167.07 E11.5037
G1 X63.004 Y166.74 E11.52051
G1 X62.771 Y166.476 E11.53222
G1 X61.381 Y164.72 E11.60671
G1 X57.795 Y160.534 E11.79004
G1 X54.005 Y156.583 E11.97214
G1 X52.05 Y154.713 E12.06212
G1 X47.916 Y151.079 E12.24519
G1 X43.607 Y147.704 E12.42723
G1 X39.119 Y144.58 E12.60911
G1 X33.616 Y141.221 E12.82354
G1 X33.206 Y140.925 E12.84036
G1 X32.849 Y140.567 E12.85717
G1 X32.552 Y140.158 E12.87399
G1 X32.323 Y139.707 E12.89081
G1 X32.169 Y139.226 E12.90761
G1 X32.083 Y138.49 E12.93225
G1 X32.084 Y123.493 E13.43106
G1 X32.131 Y122.948 E13.44925
G1 X32.628 Y120.069 E13.54642
G1 X33.328 Y114.613 E13.72938
G1 X33.716 Y109.155 E13.91137
G1 X33.795 Y103.668 E14.09389
G1 X33.565 Y98.201 E14.27588
G1 X33.026 Y92.757 E14.45783
G1 X32.123 Y86.994 E14.65185
G1 X32.084 Y86.499 E14.66837
G1 X32.083 Y71.506 E15.16703
G1 X32.123 Y71.002 E15.18385
G1 X32.242 Y70.511 E15.20065
G1 X32.436 Y70.044 E15.21747
G1 X32.702 Y69.614 E15.23429
G1 X33.032 Y69.231 E15.25111
G1 X33.419 Y68.905 E15.26793
G1 X33.676 Y68.739 E15.27811
G1 X35.658 Y67.588 E15.35434
G1 X40.293 Y64.641 E15.53702
G1 X44.746 Y61.443 E15.71937
G1 X49.006 Y58.003 E15.90149
G1 F1500 E9.40149
G0 F3600 X49.006 Y70.835
G0 X49.006 Y72.12
G0 X49.543 Y72.812
G0 X49.555 Y72.911
;TYPE:WALL-INNER
G1 F1500 E15.90149
G1 F1200 X49.375 Y72.944 E15.90757
G1 X49.205 Y72.996 E15.91348
G1 X49.039 Y73.066 E15.91948
G1 X48.882 Y73.156 E15.9255
G1 X48.742 Y73.258 E15.93126
G1 X48.606 Y73.379 E15.93731
G1 X48.486 Y73.518 E15.94342
G1 X48.385 Y73.666 E15.94938
G1 X48.301 Y73.821 E15.95524
G1 X48.234 Y73.987 E15.9612
G1 X48.186 Y74.16 E15.96717
G1 X48.157 Y74.34 E15.97323
G1 X48.151 Y74.519 E15.97919
G1 X48.161 Y74.694 E15.98502
G1 X48.194 Y74.875 E15.99114
G1 X48.246 Y75.045 E15.99705
G1 X48.316 Y75.211 E16.00304
G1 X48.406 Y75.368 E16.00906
G1 X48.508 Y75.508 E16.01482
G1 X48.629 Y75.644 E16.02088
G1 X48.768 Y75.764 E16.02699
G1 X48.916 Y75.865 E16.03294
G1 X49.071 Y75.949 E16.03881
G1 X49.237 Y76.016 E16.04476
G1 X49.409 Y76.064 E16.0507
G1 X49.586 Y76.092 E16.05666
G1 X49.735 Y76.1 E16.06162
G1 X57.574 Y76.1 E16.32235
G1 X57.774 Y76.1 E16.329
G1 X57.774 Y76.3 E16.33331
G1 X57.773 Y81.9 E16.51957
G1 X49.734 Y81.9 E16.78695
G1 X49.571 Y81.909 E16.79237
G1 X49.392 Y81.94 E16.79842
G1 X49.223 Y81.989 E16.80427
G1 X49.056 Y82.056 E16.81025
G1 X48.896 Y82.145 E16.81634
G1 X48.752 Y82.249 E16.82225
G1 X48.618 Y82.368 E16.82821
G1 X48.499 Y82.502 E16.83417
G1 X48.395 Y82.646 E16.84008
G1 X48.306 Y82.806 E16.84617
G1 X48.239 Y82.973 E16.85216
G1 X48.19 Y83.142 E16.85801
G1 X48.159 Y83.322 E16.86408
G1 X48.149 Y83.5 E16.87001
G1 X48.159 Y83.678 E16.87594
G1 X48.19 Y83.858 E16.88202
G1 X48.239 Y84.027 E16.88787
G1 X48.306 Y84.194 E16.89385
G1 X48.395 Y84.354 E16.89994
G1 X48.499 Y84.498 E16.90585
G1 X48.618 Y84.632 E16.91181
G1 X48.752 Y84.751 E16.91777
G1 X48.896 Y84.855 E16.92368
G1 X49.056 Y84.944 E16.92977
G1 X49.223 Y85.011 E16.93576
G1 X49.392 Y85.06 E16.94161
G1 X49.571 Y85.091 E16.94765
G1 X49.734 Y85.1 E16.95308
G1 X57.774 Y85.1 E17.22049
G1 X57.774 Y85.9 E17.2471
G1 X35.874 Y85.9 E17.9755
G1 X35.873 Y72.3 E18.42783
G1 X35.873 Y72.1 E18.43449
G1 X36.073 Y72.1 E18.43879
G1 X57.774 Y72.1 E19.16057
G1 X57.774 Y72.9 E19.18718
G1 X49.721 Y72.901 E19.45502
G1 X49.555 Y72.911 E19.46055
G0 F3600 X49.469 Y73.333
;TYPE:WALL-OUTER
G1 F1200 X49.342 Y73.372 E19.46497
G1 X49.217 Y73.425 E19.46949
G1 X49.1 Y73.492 E19.47397
G1 X48.993 Y73.57 E19.47838
G1 X48.892 Y73.66 E19.48288
G1 X48.803 Y73.763 E19.4874
G1 X48.727 Y73.874 E19.49188
G1 X48.664 Y73.991 E19.4963
G1 X48.613 Y74.117 E19.50082
G1 X48.577 Y74.245 E19.50524
G1 X48.556 Y74.379 E19.50975
G1 X48.551 Y74.514 E19.51425
G1 X48.559 Y74.647 E19.51868
G1 X48.583 Y74.781 E19.52321
G1 X48.622 Y74.908 E19.52762
G1 X48.675 Y75.033 E19.53214
G1 X48.742 Y75.15 E19.53662
G1 X48.82 Y75.257 E19.54103
G1 X48.91 Y75.358 E19.54553
G1 X49.013 Y75.447 E19.55006
G1 X49.124 Y75.523 E19.55453
G1 X49.241 Y75.586 E19.55895
G1 X49.367 Y75.637 E19.56347
G1 X49.495 Y75.673 E19.56789
G1 X49.628 Y75.694 E19.57237
G1 X49.745 Y75.7 E19.57627
G1 X57.974 Y75.7 E19.84997
G1 X58.174 Y75.7 E19.85662
G1 X58.174 Y75.9 E19.86093
G1 X58.173 Y82.3 E20.07379
G1 X49.745 Y82.3 E20.35411
G1 X49.616 Y82.307 E20.3584
G1 X49.482 Y82.33 E20.36293
G1 X49.354 Y82.367 E20.36736
G1 X49.229 Y82.418 E20.37185
G1 X49.111 Y82.483 E20.37633
G1 X49.002 Y82.562 E20.38081
G1 X48.901 Y82.651 E20.38528
G1 X48.812 Y82.752 E20.38976
G1 X48.733 Y82.861 E20.39424
G1 X48.668 Y82.979 E20.39872
G1 X48.617 Y83.104 E20.40321
G1 X48.58 Y83.232 E20.40764
G1 X48.557 Y83.366 E20.41216
G1 X48.55 Y83.5 E20.41663
G1 X48.557 Y83.634 E20.42109
G1 X48.58 Y83.768 E20.42561
G1 X48.617 Y83.896 E20.43004
G1 X48.668 Y84.021 E20.43453
G1 X48.733 Y84.139 E20.43901
G1 X48.812 Y84.248 E20.44349
G1 X48.901 Y84.349 E20.44797
G1 X49.002 Y84.438 E20.45244
G1 X49.111 Y84.517 E20.45692
G1 X49.229 Y84.582 E20.4614
G1 X49.354 Y84.633 E20.46589
G1 X49.482 Y84.67 E20.47032
G1 X49.616 Y84.693 E20.47485
G1 X49.745 Y84.7 E20.47914
G1 X58.174 Y84.7 E20.75949
G1 X58.174 Y86.3 E20.81271
G1 X35.474 Y86.3 E21.56771
G1 X35.473 Y71.9 E22.04666
G1 X35.473 Y71.7 E22.05331
G1 X35.673 Y71.7 E22.05762
G1 X58.174 Y71.7 E22.80601
G1 X58.174 Y73.3 E22.85922
G1 X49.733 Y73.301 E23.13997
G1 X49.603 Y73.309 E23.1443
G1 X49.469 Y73.333 E23.14883
G0 F3600 X49.342 Y73.372
G0 X49.28 Y73.398
G0 X49.087 Y72.937
G0 X49.72 Y72.862
G0 X57.445 Y72.718
G0 X57.225 Y72.498
G1 F1200 X56.659 Y72.498 E23.16949
G1 X56.093 Y72.498 E23.19015
G1 X55.528 Y72.498 E23.21078
G1 X54.962 Y72.498 E23.23144
G1 X54.396 Y72.498 E23.2521
G1 X53.831 Y72.498 E23.27272
G1 X53.265 Y72.499 E23.29338
G1 X52.7 Y72.499 E23.31405
G1 X52.134 Y72.499 E23.33476
G1 X51.568 Y72.499 E23.35547
G1 X51.002 Y72.499 E23.37618
G1 X50.437 Y72.499 E23.39685
G1 X49.871 Y72.499 E23.41756
G1 X49.311 Y72.504 E23.43842
G1 X48.804 Y72.563 E23.46244
;TYPE:SKIN
G1 X49.159 Y72.918
G0 F3600 X48.723 Y73.047
G1 F1200 X47.954 Y72.279 E23.49859
G1 X47.884 Y72.209
G0 F3600 X47.388 Y72.279
G1 F1200 X48.423 Y73.313 E23.54725
G1 X48.493 Y73.383
G0 F3600 X48.191 Y73.647
G1 F1200 X46.823 Y72.279 E23.61159
G1 X46.753 Y72.209
G0 F3600 X46.257 Y72.279
G1 F1200 X48.028 Y74.05 E23.6949
G1 X48.098 Y74.12
G0 F3600 X47.973 Y74.56
G1 F1200 X45.691 Y72.279 E23.80221
G1 X45.621 Y72.209
G0 F3600 X45.126 Y72.279
G1 F1200 X48.176 Y75.329 E23.94567
G1 X48.246 Y75.399
G0 F3600 X48.914 Y76.067
G1 F1200 X54.566 Y81.719 E24.21153
G1 X54.636 Y81.789
G0 F3600 X54.001 Y81.719
G1 F1200 X44.56 Y72.279 E24.65558
G1 X44.49 Y72.209
G0 F3600 X43.994 Y72.279
G1 F1200 X53.435 Y81.719 E25.09963
G1 X53.505 Y81.789
G0 F3600 X52.869 Y81.719
G1 F1200 X43.429 Y72.279 E25.54366
G1 X43.359 Y72.209
G0 F3600 X42.863 Y72.279
G1 F1200 X52.303 Y81.719 E25.98769
G1 X52.373 Y81.789
G0 F3600 X51.738 Y81.719
G1 F1200 X42.297 Y72.279 E26.43174
G1 X42.227 Y72.209
G0 F3600 X41.732 Y72.279
G1 F1200 X51.172 Y81.719 E26.87577
G1 X51.242 Y81.789
G0 F3600 X50.606 Y81.719
G1 F1200 X41.166 Y72.279 E27.3198
G1 X41.096 Y72.209
G0 F3600 X40.6 Y72.279
G1 F1200 X50.041 Y81.719 E27.76385
G1 X50.111 Y81.789
G0 F3600 X49.494 Y81.738
G1 F1200 X40.034 Y72.279 E28.2088
G1 X39.964 Y72.209
G0 F3600 X39.469 Y72.279
G1 F1200 X49.052 Y81.862 E28.65955
G1 X49.122 Y81.932
G0 F3600 X48.692 Y82.068
G1 F1200 X38.903 Y72.279 E29.12
G1 X38.833 Y72.209
G0 F3600 X38.337 Y72.279
G1 F1200 X48.4 Y82.341 E29.5933
G1 X48.47 Y82.411
G0 F3600 X48.17 Y82.677
G1 F1200 X37.772 Y72.279 E30.08239
G1 X37.702 Y72.209
G0 F3600 X37.206 Y72.279
G1 F1200 X48.017 Y83.089 E30.59089
G1 X48.087 Y83.159
G0 F3600 X47.975 Y83.613
G1 F1200 X36.64 Y72.279 E31.12403
G1 X36.57 Y72.209
G0 F3600 X36.075 Y72.279
G1 F1200 X48.238 Y84.442 E31.69614
G1 X48.308 Y84.512
G0 F3600 X48.808 Y85.011
G1 F1200 X49.515 Y85.719 E31.72942
G1 X49.585 Y85.789
G0 F3600 X49.858 Y85.496
G1 F1200 X50.426 Y85.499 E31.75015
G1 X50.992 Y85.499 E31.77086
G1 X51.558 Y85.499 E31.79157
G1 X52.123 Y85.499 E31.81224
G1 X52.689 Y85.499 E31.83294
G1 X53.255 Y85.499 E31.85365
G1 X53.82 Y85.499 E31.87432
G1 X54.386 Y85.499 E31.89503
G1 X54.952 Y85.499 E31.91574
G1 X55.517 Y85.499 E31.93641
G1 X56.083 Y85.499 E31.95712
G1 X56.649 Y85.499 E31.97783
G1 X57.214 Y85.499 E31.9985
G0 F3600 X57.435 Y85.719
G0 X49.384 Y85.098
G0 X48.875 Y84.888
G0 X48.468 Y84.523
G0 X48.202 Y84.04
G0 X48.109 Y83.5
G0 X48.202 Y82.96
G0 X48.468 Y82.477
G0 X48.875 Y82.112
G0 X49.384 Y81.902
G0 X57.395 Y81.719
G1 F1200 X51.954 Y76.279 E32.2544
G1 X51.884 Y76.209
G0 F3600 X52.52 Y76.279
G1 F1200 X57.593 Y81.352 E32.49302
G1 X57.663 Y81.422
G0 F3600 X57.593 Y80.786
G1 F1200 X53.086 Y76.279 E32.70502
G1 X53.016 Y76.209
G0 F3600 X53.651 Y76.279
G1 F1200 X57.593 Y80.221 E32.89043
G1 X57.663 Y80.291
G0 F3600 X57.593 Y79.655
G1 F1200 X54.217 Y76.279 E33.04923
G1 X54.147 Y76.209
G0 F3600 X54.783 Y76.279
G1 F1200 X57.593 Y79.089 E33.18141
G1 X57.663 Y79.159
G0 F3600 X57.594 Y78.524
G1 F1200 X55.348 Y76.279 E33.28703
G1 X55.278 Y76.209
G0 F3600 X55.914 Y76.279
G1 F1200 X57.594 Y77.959 E33.36605
G1 X57.664 Y78.029
G0 F3600 X57.594 Y77.393
G1 F1200 X56.48 Y76.279 E33.41845
G1 X56.41 Y76.209
G0 F3600 X57.045 Y76.279
G1 F1200 X57.594 Y76.827 E33.44425
G0 F3600 X56.829 Y81.719
G1 F1200 X51.388 Y76.279 E33.70015
G1 X51.318 Y76.209
G0 F3600 X50.823 Y76.279
G1 F1200 X56.263 Y81.719 E33.95603
G1 X56.333 Y81.789
G0 F3600 X55.698 Y81.719
G1 F1200 X50.257 Y76.279 E34.21194
G1 X50.187 Y76.209
G0 F3600 X49.689 Y76.277
G1 F1200 X55.132 Y81.719 E34.46794
G1 X55.202 Y81.789
G0 F3600 X49.384 Y81.902
G0 X48.875 Y82.112
G0 X48.468 Y82.477
G0 X48.202 Y82.96
G0 X48.109 Y83.5
G0 X48.202 Y84.04
G0 X48.95 Y85.719
G1 F1200 X36.052 Y72.822 E35.07459
G1 X35.982 Y72.752
G0 F3600 X36.052 Y73.387
G1 F1200 X48.384 Y85.719 E35.65465
G1 X48.454 Y85.789
G0 F3600 X47.818 Y85.719
G1 F1200 X36.052 Y73.953 E36.20809
G1 X35.982 Y73.883
G0 F3600 X36.052 Y74.519
G1 F1200 X47.253 Y85.719 E36.73493
G1 X47.323 Y85.789
G0 F3600 X46.687 Y85.719
G1 F1200 X36.052 Y75.084 E37.23517
G1 X35.982 Y75.014
G0 F3600 X36.052 Y75.65
G1 F1200 X46.121 Y85.719 E37.70878
G1 X46.191 Y85.789
G0 F3600 X45.556 Y85.719
G1 F1200 X36.052 Y76.216 E38.1558
G1 X35.982 Y76.146
G0 F3600 X36.052 Y76.781
G1 F1200 X44.99 Y85.719 E38.57621
G1 X45.06 Y85.789
G0 F3600 X44.424 Y85.719
G1 F1200 X36.052 Y77.347 E38.97001
G1 X35.982 Y77.277
G0 F3600 X36.052 Y77.913
G1 F1200 X43.859 Y85.719 E39.3372
G1 X43.929 Y85.789
G0 F3600 X43.293 Y85.719
G1 F1200 X36.052 Y78.478 E39.67779
G1 X35.982 Y78.408
G0 F3600 X36.053 Y79.045
G1 F1200 X42.727 Y85.719 E39.99172
G1 X42.797 Y85.789
G0 F3600 X42.161 Y85.719
G1 F1200 X36.053 Y79.611 E40.27902
G1 X35.983 Y79.541
G0 F3600 X36.053 Y80.176
G1 F1200 X41.596 Y85.719 E40.53975
G1 X41.666 Y85.789
G0 F3600 X41.03 Y85.719
G1 F1200 X36.053 Y80.742 E40.77385
G1 X35.983 Y80.672
G0 F3600 X36.053 Y81.308
G1 F1200 X40.464 Y85.719 E40.98133
G1 X40.534 Y85.789
G0 F3600 X39.899 Y85.719
G1 F1200 X36.053 Y81.873 E41.16223
G1 X35.983 Y81.803
G0 F3600 X36.053 Y82.439
G1 F1200 X39.333 Y85.719 E41.31651
G1 X39.403 Y85.789
G0 F3600 X38.767 Y85.719
G1 F1200 X36.053 Y83.005 E41.44417
G1 X35.983 Y82.935
G0 F3600 X36.053 Y83.57
G1 F1200 X38.202 Y85.719 E41.54525
G1 X38.272 Y85.789
G0 F3600 X37.636 Y85.719
G1 F1200 X36.053 Y84.136 E41.61971
G1 X35.983 Y84.066
G0 F3600 X36.053 Y84.702
G1 F1200 X37.07 Y85.719 E41.66755
G1 X37.14 Y85.789
G0 F3600 X36.505 Y85.719
G1 F1200 X36.053 Y85.267 E41.68881
G0 F3600 X36.274 Y85.268
G1 F1500 E35.18881
G0 F3600 X48.861 Y73.123
G0 X49.366 Y72.906
G0 X57.76 Y72.114
G0 X57.76 Y70.835
G0 X65.888 Y61.165
G0 X65.888 Y59.886
G0 X65.944 Y59.83
G0 X65.874 Y59.9
;TYPE:WALL-INNER
G1 F1500 E41.68881
G1 F1200 X65.873 Y46.3 E42.14115
G1 X65.873 Y46.1 E42.1478
G1 X66.073 Y46.1 E42.15211
G1 X87.774 Y46.1 E42.87389
G1 X87.774 Y46.9 E42.90049
G1 X79.721 Y46.901 E43.16834
G1 X79.555 Y46.911 E43.17387
G1 X79.375 Y46.944 E43.17996
G1 X79.205 Y46.996 E43.18587
G1 X79.039 Y47.066 E43.19186
G1 X78.882 Y47.156 E43.19788
G1 X78.742 Y47.258 E43.20364
G1 X78.606 Y47.379 E43.2097
G1 X78.486 Y47.518 E43.2158
G1 X78.385 Y47.666 E43.22176
G1 X78.301 Y47.821 E43.22763
G1 X78.234 Y47.987 E43.23358
G1 X78.186 Y48.16 E43.23955
G1 X78.157 Y48.34 E43.24562
G1 X78.151 Y48.519 E43.25157
G1 X78.161 Y48.694 E43.2574
G1 X78.194 Y48.875 E43.26352
G1 X78.246 Y49.045 E43.26943
G1 X78.316 Y49.211 E43.27543
G1 X78.406 Y49.368 E43.28145
G1 X78.508 Y49.508 E43.28721
G1 X78.629 Y49.644 E43.29326
G1 X78.768 Y49.764 E43.29937
G1 X78.916 Y49.865 E43.30533
G1 X79.071 Y49.949 E43.31119
G1 X79.237 Y50.016 E43.31715
G1 X79.409 Y50.064 E43.32309
G1 X79.586 Y50.092 E43.32905
G1 X79.735 Y50.1 E43.33401
G1 X87.574 Y50.1 E43.59473
G1 X87.774 Y50.1 E43.60139
G1 X87.774 Y50.3 E43.60569
G1 X87.773 Y55.9 E43.79195
G1 X79.734 Y55.9 E44.05933
G1 X79.571 Y55.909 E44.06476
G1 X79.392 Y55.94 E44.0708
G1 X79.223 Y55.989 E44.07665
G1 X79.056 Y56.056 E44.08264
G1 X78.896 Y56.145 E44.08873
G1 X78.752 Y56.249 E44.09464
G1 X78.618 Y56.368 E44.1006
G1 X78.499 Y56.502 E44.10656
G1 X78.395 Y56.646 E44.11246
