; generated by Slic3r 1.2.9 on 2017-09-28 at 12:58:38

; external perimeters extrusion width = 0.40mm
; perimeters extrusion width = 0.68mm
; infill extrusion width = 1.28mm
; solid infill extrusion width = 0.68mm
; top infill extrusion width = 0.68mm

M107
M104 S220 ; set temperature
; -- START GCODE --
	G90                     ;set to absolute positioning
G28                     ;move to Home
G92 E0                  ;zero the extruded length
G1 F7200                ;set feedrate to travel_speed value
; -- end of START GCODE --
M109 S220 ; wait for temperature to be reached
G21 ; set units to millimeters
G90 ; use absolute coordinates
M82 ; use absolute distances for extrusion
G92 E0
G1 Z0.400 F9000.000
G1 E-4.00000 F2400.00000
G92 E0
G1 X68.827 Y58.016 F9000.000
G1 E4.00000 F2400.00000
G1 X70.583 Y56.516 E4.27422 F1800.000
G1 X72.743 Y55.701 E4.54845
G1 X74.000 Y55.582 E4.69842
G1 X141.000 Y55.582 E12.65568
G1 X143.275 Y55.979 E12.92991
G1 X145.280 Y57.123 E13.20413 F1800.000
G1 X146.780 Y58.879 E13.47836
G1 X147.595 Y61.039 E13.75258
G1 X147.714 Y62.296 E13.90255
G1 X147.714 Y116.119 E20.29485
G1 X147.654 Y146.227 E23.87061
G1 X147.253 Y148.500 E24.14483
G1 X146.105 Y150.504 E24.41906
G1 X144.346 Y152.000 E24.69328
G1 X141.045 Y152.927 E25.10046
G1 X115.001 Y153.333 E28.19399
G1 X73.999 Y153.333 E33.06360
G1 X71.725 Y152.936 E33.33782
G1 X69.719 Y151.791 E33.61205
G1 X68.220 Y150.035 E33.88627
G1 X67.404 Y147.875 E34.16050
G1 X67.286 Y146.619 E34.31035
G1 X67.286 Y62.296 E44.32499
G1 X67.683 Y60.021 E44.59921
G1 X68.797 Y58.068 E44.86631
G1 E40.86631 F2400.00000
G92 E0
G1 X109.173 Y114.291 F9000.000
G1 E4.00000 F2400.00000
G1 X105.827 Y114.291 E4.39738 F1800.000
G1 X105.822 Y106.983 E5.26525
G1 X105.752 Y106.569 E5.31512
G1 X105.570 Y106.050 E5.38040
G1 X105.346 Y105.662 E5.43368
G1 X105.004 Y105.238 E5.49835
G1 X104.551 Y104.878 E5.56704
G1 X104.183 Y104.674 E5.61699
G1 X103.632 Y104.481 E5.68637
G1 X103.034 Y104.414 E5.75779
G1 X102.587 Y104.447 E5.81107
G1 X101.828 Y104.626 E5.90362
G1 X101.828 Y94.624 E7.09143
G1 X113.172 Y94.624 E8.43863
G1 X113.172 Y104.652 E9.62958
G1 X112.593 Y104.477 E9.70143
G1 X112.051 Y104.416 E9.76610
G1 X111.632 Y104.439 E9.81605
G1 X111.062 Y104.569 E9.88543
G1 X110.536 Y104.823 E9.95481
G1 X110.193 Y105.066 E10.00476
G1 X109.780 Y105.479 E10.07413
G1 X109.460 Y105.989 E10.14555
G1 X109.296 Y106.406 E10.19884
G1 X109.178 Y106.937 E10.26343
G1 X109.173 Y114.231 E11.12964
G1 X109.887 Y115.005 F9000.000
G1 X105.113 Y115.005 E11.69654 F1800.000
G1 X105.108 Y107.044 E12.64204
G1 X105.058 Y106.748 E12.67764
G1 X104.918 Y106.350 E12.72780
G1 X104.755 Y106.067 E12.76651
G1 X104.497 Y105.748 E12.81527
G1 X104.153 Y105.474 E12.86752
G1 X103.891 Y105.328 E12.90316
G1 X103.472 Y105.182 E12.95582
G1 X103.021 Y105.131 E13.00973
G1 X102.696 Y105.155 E13.04844
G1 X102.327 Y105.242 E13.09346
G1 X102.053 Y105.356 E13.12868
G1 X101.704 Y105.575 E13.17760
G1 X101.114 Y106.102 E13.27158
G1 X101.114 Y93.910 E14.71955
G1 X113.886 Y93.910 E16.23638
G1 X113.886 Y105.774 E17.64537
G1 X113.599 Y105.874 E17.68147
G1 X113.500 Y105.750 E17.70032
G1 X113.130 Y105.455 E17.75647
G1 X112.752 Y105.271 E17.80647
G1 X112.448 Y105.179 E17.84415
G1 X112.031 Y105.132 E17.89395
G1 X111.732 Y105.149 E17.92959
G1 X111.299 Y105.248 E17.98226
G1 X110.900 Y105.440 E18.03492
G1 X110.655 Y105.614 E18.07057
G1 X110.342 Y105.927 E18.12323
G1 X110.100 Y106.312 E18.17714
G1 X109.981 Y106.615 E18.21585
G1 X109.892 Y107.016 E18.26456
G1 X109.887 Y114.945 E19.20627
G1 X110.600 Y115.719 F9000.000
G1 X104.400 Y115.719 E19.94268 F1800.000
G1 X104.394 Y107.104 E20.96582
G1 X104.364 Y106.927 E20.98714
G1 X104.266 Y106.649 E21.02220
G1 X104.165 Y106.473 E21.04633
G1 X103.991 Y106.257 E21.07918
G1 X103.755 Y106.069 E21.11498
G1 X103.598 Y105.983 E21.13631
G1 X103.312 Y105.883 E21.17227
G1 X103.008 Y105.848 E21.20867
G1 X102.805 Y105.863 E21.23280
G1 X102.547 Y105.924 E21.26431
G1 X102.382 Y105.992 E21.28549
G1 X102.135 Y106.147 E21.32010
G1 X102.001 Y106.267 E21.34143
G1 X101.812 Y106.504 E21.37738
G1 X101.676 Y106.787 E21.41469
G1 X101.606 Y107.093 E21.45197
G1 X101.600 Y115.719 E22.47645
G1 X100.400 Y115.719 E22.61900
G1 X100.400 Y93.196 E25.29395
G1 X114.600 Y93.196 E26.98042
G1 X114.600 Y115.719 E29.65537
G1 X113.400 Y115.719 E29.79792
G1 X113.394 Y107.104 E30.82106
G1 X113.364 Y106.927 E30.84238
G1 X113.267 Y106.652 E30.87698
G1 X113.180 Y106.495 E30.89832
G1 X112.992 Y106.258 E30.93427
G1 X112.747 Y106.063 E30.97148
G1 X112.491 Y105.938 E31.00533
G1 X112.303 Y105.882 E31.02854
G1 X112.011 Y105.849 E31.06346
G1 X111.832 Y105.859 E31.08479
G1 X111.537 Y105.926 E31.12075
G1 X111.264 Y106.058 E31.15670
G1 X111.118 Y106.161 E31.17804
G1 X110.903 Y106.376 E31.21399
G1 X110.740 Y106.635 E31.25039
G1 X110.666 Y106.824 E31.27453
G1 X110.606 Y107.094 E31.30736
G1 X110.600 Y115.659 E32.32457
G1 X110.254 Y115.519 F9000.000
G1 E28.32457 F2400.00000
G92 E0
G1 X114.000 Y115.119 F9000.000
G1 X114.000 Y115.119 F9000.000
G1 X114.000 Y115.362 F9000.000
G1 E4.00000 F2400.00000
G1 X113.997 Y107.074 E6.08700 F1800.000
G1 X113.969 Y106.747 E6.16951
G1 X113.869 Y106.158 E6.32002
G1 X106.160 Y106.240 F9000.000
G1 X108.741 Y108.821 E6.75980 F1800.000
G1 X108.741 Y109.845 E6.88309
G1 X106.258 Y107.362 E7.30603
G1 X106.259 Y108.387 E7.42949
G1 X108.740 Y110.868 E7.85218
G1 X108.739 Y111.892 E7.97547
G1 X106.259 Y109.412 E8.39792
G1 X106.260 Y110.437 E8.52139
G1 X108.739 Y112.916 E8.94359
G1 X108.654 Y113.855 E9.05721
G1 X106.261 Y111.462 E9.46485
G1 X106.261 Y112.487 E9.58832
G1 X107.629 Y113.855 E9.82135
G1 X106.605 Y113.855 E9.94473
G1 X106.262 Y113.512 E10.00316
G1 X107.500 Y103.919 F9000.000
G1 X107.500 Y100.714 F9000.000
G1 X104.680 Y101.825 F9000.000
G1 X103.356 Y102.909 F9000.000
G1 X102.894 Y103.358 F9000.000
G1 X102.682 Y103.582 F9000.000
G1 X102.264 Y103.368 F9000.000
G1 X102.894 Y103.999 E10.11058 F1800.000
G1 X104.010 Y104.090 E10.24546
G1 X102.264 Y102.344 E10.54299
G1 X102.264 Y101.319 E10.66636
G1 X108.742 Y107.798 E11.76989
G1 X108.788 Y106.819 E11.88786
G1 X102.264 Y100.295 E12.99921
G1 X102.264 Y99.271 E13.12259
G1 X109.024 Y106.031 E14.27407
G1 X109.396 Y105.379 E14.36449
G1 X102.264 Y98.246 E15.57944
G1 X102.264 Y97.222 E15.70282
G1 X109.887 Y104.845 E17.00134
G1 X110.486 Y104.420 E17.08982
G1 X102.264 Y96.198 E18.49039
G1 X102.264 Y95.174 E18.61376
G1 X111.210 Y104.120 E20.13767
G1 X112.100 Y103.985 E20.24608
G1 X103.174 Y95.060 E21.76646
G1 X104.199 Y95.060 E21.88984
G1 X112.736 Y103.597 E23.34413
G1 X112.736 Y102.573 E23.46751
G1 X105.223 Y95.060 E24.74731
G1 X106.247 Y95.060 E24.87069
G1 X112.736 Y101.549 E25.97602
G1 X112.736 Y100.524 E26.09940
G1 X107.272 Y95.060 E27.03024
G1 X108.296 Y95.060 E27.15362
G1 X112.736 Y99.500 E27.90998
G1 X112.736 Y98.476 E28.03336
G1 X109.320 Y95.060 E28.61523
G1 X110.345 Y95.060 E28.73861
G1 X112.736 Y97.451 E29.14600
G1 X112.736 Y96.427 E29.26938
G1 X111.369 Y95.060 E29.50229
G1 X112.393 Y95.060 E29.62567
G1 X112.736 Y95.403 E29.68410
G1 X101.139 Y106.782 F9000.000
G1 X101.005 Y107.011 E29.75087 F1800.000
G1 X101.003 Y107.052 E29.76129
G1 X101.000 Y115.362 E31.85369
G1 E27.85369 F2400.00000
G92 E0
G1 X118.500 Y115.404 F9000.000
G1 X120.500 Y120.181 F9000.000
G1 X122.996 Y120.156 F9000.000
G1 X125.148 Y120.029 F9000.000
G1 X125.407 Y120.043 F9000.000
G1 X125.872 Y118.248 F9000.000
G1 X135.173 Y114.291 F9000.000
G1 E4.00000 F2400.00000
G1 X131.827 Y114.291 E4.39738 F1800.000
G1 X131.822 Y106.983 E5.26525
G1 X131.752 Y106.569 E5.31512
G1 X131.570 Y106.050 E5.38040
G1 X131.346 Y105.662 E5.43368
G1 X131.004 Y105.238 E5.49835
G1 X130.551 Y104.878 E5.56704
G1 X130.183 Y104.674 E5.61699
G1 X129.632 Y104.481 E5.68637
G1 X129.034 Y104.414 E5.75779
G1 X128.587 Y104.447 E5.81107
G1 X127.828 Y104.626 E5.90362
G1 X127.828 Y94.624 E7.09143
G1 X139.172 Y94.624 E8.43863
G1 X139.172 Y104.652 E9.62958
G1 X138.593 Y104.477 E9.70143
G1 X138.051 Y104.416 E9.76610
G1 X137.632 Y104.439 E9.81605
G1 X137.062 Y104.569 E9.88543
G1 X136.536 Y104.823 E9.95481
G1 X136.193 Y105.066 E10.00476
G1 X135.780 Y105.479 E10.07413
G1 X135.460 Y105.989 E10.14555
G1 X135.296 Y106.406 E10.19884
G1 X135.178 Y106.937 E10.26343
G1 X135.173 Y114.231 E11.12964
G1 X135.887 Y115.005 F9000.000
G1 X131.113 Y115.005 E11.69654 F1800.000
G1 X131.108 Y107.044 E12.64204
G1 X131.058 Y106.748 E12.67764
G1 X130.918 Y106.350 E12.72780
G1 X130.755 Y106.067 E12.76651
G1 X130.497 Y105.748 E12.81527
G1 X130.153 Y105.474 E12.86752
G1 X129.891 Y105.328 E12.90316
G1 X129.472 Y105.182 E12.95582
G1 X129.021 Y105.131 E13.00973
G1 X128.696 Y105.155 E13.04844
G1 X128.327 Y105.242 E13.09346
G1 X128.053 Y105.356 E13.12868
G1 X127.704 Y105.575 E13.17760
G1 X127.114 Y106.102 E13.27158
G1 X127.114 Y93.910 E14.71955
G1 X139.886 Y93.910 E16.23638
G1 X139.886 Y105.774 E17.64537
G1 X139.599 Y105.874 E17.68147
G1 X139.500 Y105.750 E17.70032
G1 X139.130 Y105.455 E17.75647
G1 X138.752 Y105.271 E17.80647
G1 X138.448 Y105.179 E17.84415
G1 X138.031 Y105.132 E17.89395
G1 X137.732 Y105.149 E17.92959
G1 X137.299 Y105.248 E17.98226
G1 X136.900 Y105.440 E18.03492
G1 X136.655 Y105.614 E18.07057
G1 X136.342 Y105.927 E18.12323
G1 X136.100 Y106.312 E18.17714
G1 X135.981 Y106.615 E18.21585
G1 X135.892 Y107.016 E18.26456
G1 X135.887 Y114.945 E19.20627
G1 X136.600 Y115.719 F9000.000
G1 X130.400 Y115.719 E19.94268 F1800.000
G1 X130.394 Y107.104 E20.96582
G1 X130.364 Y106.927 E20.98714
G1 X130.266 Y106.649 E21.02220
G1 X130.165 Y106.473 E21.04633
G1 X129.991 Y106.257 E21.07918
G1 X129.755 Y106.069 E21.11498
G1 X129.598 Y105.983 E21.13631
G1 X129.312 Y105.883 E21.17227
G1 X129.008 Y105.848 E21.20867
G1 X128.805 Y105.863 E21.23280
G1 X128.547 Y105.924 E21.26431
G1 X128.382 Y105.992 E21.28549
G1 X128.135 Y106.147 E21.32010
G1 X128.001 Y106.267 E21.34143
G1 X127.812 Y106.504 E21.37738
G1 X127.676 Y106.787 E21.41469
G1 X127.606 Y107.093 E21.45197
G1 X127.600 Y115.719 E22.47645
G1 X126.400 Y115.719 E22.61900
G1 X126.400 Y93.196 E25.29395
G1 X140.600 Y93.196 E26.98042
G1 X140.600 Y115.719 E29.65537
G1 X139.400 Y115.719 E29.79792
G1 X139.394 Y107.104 E30.82106
G1 X139.364 Y106.927 E30.84238
G1 X139.267 Y106.652 E30.87698
G1 X139.180 Y106.495 E30.89832
G1 X138.992 Y106.258 E30.93427
G1 X138.747 Y106.063 E30.97148
G1 X138.491 Y105.938 E31.00533
G1 X138.303 Y105.882 E31.02854
G1 X138.011 Y105.849 E31.06346
G1 X137.832 Y105.859 E31.08479
G1 X137.537 Y105.926 E31.12075
G1 X137.264 Y106.058 E31.15670
G1 X137.118 Y106.161 E31.17804
G1 X136.903 Y106.376 E31.21399
G1 X136.740 Y106.635 E31.25039
G1 X136.666 Y106.824 E31.27453
G1 X136.606 Y107.094 E31.30736
G1 X136.600 Y115.659 E32.32457
G1 X136.254 Y115.519 F9000.000
G1 E28.32457 F2400.00000
G92 E0
G1 X140.000 Y115.119 F9000.000
G1 X140.000 Y115.119 F9000.000
G1 X140.000 Y115.362 F9000.000
G1 E4.00000 F2400.00000
G1 X139.997 Y107.074 E6.08700 F1800.000
G1 X139.969 Y106.747 E6.16951
G1 X139.869 Y106.158 E6.32002
G1 X132.160 Y106.240 F9000.000
G1 X134.741 Y108.821 E6.75980 F1800.000
G1 X134.741 Y109.845 E6.88309
G1 X132.258 Y107.362 E7.30603
G1 X132.259 Y108.387 E7.42949
G1 X134.740 Y110.868 E7.85218
G1 X134.739 Y111.892 E7.97547
G1 X132.259 Y109.412 E8.39792
G1 X132.260 Y110.437 E8.52139
G1 X134.739 Y112.916 E8.94359
G1 X134.654 Y113.855 E9.05721
G1 X132.261 Y111.462 E9.46485
G1 X132.261 Y112.487 E9.58832
G1 X133.629 Y113.855 E9.82135
G1 X132.605 Y113.855 E9.94473
G1 X132.262 Y113.512 E10.00316
G1 X133.500 Y103.919 F9000.000
G1 X133.500 Y100.714 F9000.000
G1 X130.680 Y101.825 F9000.000
G1 X129.356 Y102.909 F9000.000
G1 X128.894 Y103.358 F9000.000
G1 X128.682 Y103.582 F9000.000
G1 X128.264 Y103.368 F9000.000
G1 X128.894 Y103.999 E10.11058 F1800.000
G1 X130.010 Y104.090 E10.24546
G1 X128.264 Y102.344 E10.54299
G1 X128.264 Y101.319 E10.66636
G1 X134.742 Y107.798 E11.76989
G1 X134.788 Y106.819 E11.88786
G1 X128.264 Y100.295 E12.99921
G1 X128.264 Y99.271 E13.12259
G1 X135.024 Y106.031 E14.27407
G1 X135.396 Y105.379 E14.36449
G1 X128.264 Y98.246 E15.57944
G1 X128.264 Y97.222 E15.70282
G1 X135.887 Y104.845 E17.00134
G1 X136.486 Y104.420 E17.08982
G1 X128.264 Y96.198 E18.49039
G1 X128.264 Y95.174 E18.61376
G1 X137.210 Y104.120 E20.13767
G1 X138.100 Y103.985 E20.24608
G1 X129.174 Y95.060 E21.76646
G1 X130.199 Y95.060 E21.88984
G1 X138.736 Y103.597 E23.34413
G1 X138.736 Y102.573 E23.46751
G1 X131.223 Y95.060 E24.74731
G1 X132.247 Y95.060 E24.87069
G1 X138.736 Y101.549 E25.97602
G1 X138.736 Y100.524 E26.09940
G1 X133.272 Y95.060 E27.03024
G1 X134.296 Y95.060 E27.15362
G1 X138.736 Y99.500 E27.90998
G1 X138.736 Y98.476 E28.03336
G1 X135.320 Y95.060 E28.61523
G1 X136.345 Y95.060 E28.73861
G1 X138.736 Y97.451 E29.14600
G1 X138.736 Y96.427 E29.26938
G1 X137.369 Y95.060 E29.50229
G1 X138.393 Y95.060 E29.62567
G1 X138.736 Y95.403 E29.68410
G1 X127.139 Y106.782 F9000.000
G1 X127.005 Y107.011 E29.75087 F1800.000
G1 X127.003 Y107.052 E29.76129
G1 X127.000 Y115.362 E31.85369
G1 E27.85369 F2400.00000
G92 E0
G1 X132.934 Y118.249 F9000.000
G1 X141.321 Y120.064 F9000.000
G1 X142.928 Y120.085 F9000.000
G1 X143.731 Y120.328 F9000.000
G1 X141.890 Y122.397 F9000.000
G1 X135.113 Y144.385 F9000.000
G1 E4.00000 F2400.00000
G1 X131.767 Y144.385 E4.39738 F1800.000
G1 X131.762 Y137.078 E5.26525
G1 X131.692 Y136.664 E5.31512
G1 X131.510 Y136.145 E5.38040
G1 X131.286 Y135.756 E5.43368
G1 X130.944 Y135.333 E5.49835
G1 X130.492 Y134.972 E5.56704
G1 X130.124 Y134.769 E5.61699
G1 X129.572 Y134.576 E5.68637
G1 X128.975 Y134.508 E5.75779
G1 X128.527 Y134.542 E5.81107
G1 X127.769 Y134.720 E5.90362
G1 X127.769 Y124.719 E7.09143
G1 X139.112 Y124.719 E8.43863
G1 X139.112 Y134.746 E9.62958
G1 X138.533 Y134.571 E9.70143
G1 X137.992 Y134.510 E9.76610
G1 X137.572 Y134.534 E9.81605
G1 X137.002 Y134.664 E9.88543
G1 X136.476 Y134.917 E9.95481
G1 X136.133 Y135.161 E10.00476
G1 X135.720 Y135.574 E10.07413
G1 X135.400 Y136.083 E10.14555
G1 X135.236 Y136.501 E10.19884
G1 X135.118 Y137.032 E10.26343
G1 X135.113 Y144.325 E11.12964
G1 X135.827 Y145.099 F9000.000
G1 X131.054 Y145.099 E11.69654 F1800.000
G1 X131.048 Y137.138 E12.64204
G1 X130.998 Y136.843 E12.67764
G1 X130.858 Y136.444 E12.72780
G1 X130.695 Y136.162 E12.76651
G1 X130.437 Y135.842 E12.81527
G1 X130.094 Y135.568 E12.86752
G1 X129.831 Y135.423 E12.90316
G1 X129.412 Y135.276 E12.95582
G1 X128.961 Y135.226 E13.00973
G1 X128.636 Y135.250 E13.04844
G1 X128.267 Y135.337 E13.09346
G1 X127.993 Y135.450 E13.12868
G1 X127.644 Y135.669 E13.17760
G1 X127.054 Y136.196 E13.27158
G1 X127.054 Y124.005 E14.71955
G1 X139.826 Y124.005 E16.23638
G1 X139.826 Y135.868 E17.64537
G1 X139.539 Y135.969 E17.68147
G1 X139.440 Y135.845 E17.70032
G1 X139.071 Y135.550 E17.75647
G1 X138.692 Y135.366 E17.80647
G1 X138.388 Y135.274 E17.84415
G1 X137.972 Y135.227 E17.89395
G1 X137.672 Y135.244 E17.92959
G1 X137.240 Y135.342 E17.98226
G1 X136.840 Y135.535 E18.03492
G1 X136.595 Y135.708 E18.07057
G1 X136.282 Y136.022 E18.12323
G1 X136.040 Y136.406 E18.17714
G1 X135.921 Y136.710 E18.21585
G1 X135.833 Y137.110 E18.26456
G1 X135.827 Y145.039 E19.20627
G1 X136.541 Y145.813 F9000.000
G1 X130.340 Y145.813 E19.94268 F1800.000
G1 X130.334 Y137.199 E20.96582
G1 X130.304 Y137.022 E20.98714
G1 X130.206 Y136.743 E21.02220
G1 X130.105 Y136.567 E21.04633
G1 X129.931 Y136.352 E21.07918
G1 X129.695 Y136.164 E21.11498
G1 X129.538 Y136.077 E21.13631
G1 X129.252 Y135.977 E21.17227
G1 X128.948 Y135.943 E21.20867
G1 X128.745 Y135.958 E21.23280
G1 X128.487 Y136.019 E21.26431
G1 X128.322 Y136.087 E21.28549
G1 X128.075 Y136.242 E21.32010
G1 X127.942 Y136.362 E21.34143
G1 X127.753 Y136.598 E21.37738
G1 X127.616 Y136.881 E21.41469
G1 X127.547 Y137.187 E21.45197
G1 X127.541 Y145.813 E22.47645
G1 X126.340 Y145.813 E22.61900
G1 X126.340 Y123.290 E25.29395
G1 X140.540 Y123.290 E26.98042
G1 X140.540 Y145.813 E29.65537
G1 X139.340 Y145.813 E29.79792
G1 X139.334 Y137.199 E30.82106
G1 X139.304 Y137.022 E30.84238
G1 X139.208 Y136.747 E30.87698
G1 X139.121 Y136.589 E30.89832
G1 X138.932 Y136.353 E30.93427
G1 X138.687 Y136.157 E30.97148
G1 X138.431 Y136.033 E31.00533
G1 X138.244 Y135.976 E31.02854
