; generated by Slic3r 1.2.9 on 2017-09-28 at 12:53:32

; external perimeters extrusion width = 0.40mm
; perimeters extrusion width = 0.68mm
; infill extrusion width = 1.28mm
; solid infill extrusion width = 0.68mm
; top infill extrusion width = 0.68mm

M107
M104 S220 ; set temperature
; -- START GCODE --
	G90                     ;set to absolute positioning
G28                     ;move to Home
G92 E0                  ;zero the extruded length
G1 F7200                ;set feedrate to travel_speed value
; -- end of START GCODE --
M109 S220 ; wait for temperature to be reached
G21 ; set units to millimeters
G90 ; use absolute coordinates
M82 ; use absolute distances for extrusion
G92 E0
G1 Z0.400 F9000.000
G1 E-4.00000 F2400.00000
G92 E0
G1 X94.827 Y89.601 F9000.000
G1 E4.00000 F2400.00000
G1 X96.583 Y88.101 E4.27422 F1800.000
G1 X98.743 Y87.286 E4.54845
G1 X99.999 Y87.167 E4.69830
G1 X115.001 Y87.167 E6.48001
G1 X117.275 Y87.564 E6.75424 F1800.000
G1 X119.281 Y88.709 E7.02846
G1 X120.780 Y90.465 E7.30269
G1 X121.596 Y92.625 E7.57691
G1 X121.714 Y93.881 E7.72676
G1 X121.714 Y117.204 E10.49672
G1 X121.317 Y119.479 E10.77095
G1 X120.173 Y121.484 E11.04517
G1 X118.417 Y122.984 E11.31940
G1 X116.257 Y123.799 E11.59362
G1 X115.000 Y123.918 E11.74359
G1 X100.000 Y123.918 E13.52507
G1 X97.725 Y123.521 E13.79929
G1 X95.720 Y122.377 E14.07352
G1 X94.220 Y120.621 E14.34774
G1 X93.405 Y118.461 E14.62197
G1 X93.286 Y117.204 E14.77193
G1 X93.286 Y93.881 E17.54189
G1 X93.683 Y91.606 E17.81612
G1 X94.797 Y89.653 E18.08322
G1 E14.08322 F2400.00000
G92 E0
G1 X113.172 Y115.376 F9000.000
G1 E4.00000 F2400.00000
G1 X101.828 Y115.376 E5.34720 F1800.000
G1 X101.828 Y105.354 E6.53741
G1 X102.420 Y105.524 E6.61048
G1 X102.949 Y105.584 E6.67371
G1 X103.368 Y105.561 E6.72366
G1 X103.932 Y105.432 E6.79235
G1 X104.424 Y105.199 E6.85702
G1 X104.752 Y104.975 E6.90417
G1 X105.040 Y104.718 E6.95004
G1 X105.405 Y104.261 E7.01941
G1 X105.681 Y103.688 E7.09494
G1 X105.822 Y103.069 E7.17039
G1 X105.827 Y95.709 E8.04441
G1 X109.173 Y95.709 E8.44179
G1 X109.178 Y103.017 E9.30966
G1 X109.248 Y103.431 E9.35954
G1 X109.424 Y103.933 E9.42276
G1 X109.628 Y104.301 E9.47271
G1 X109.988 Y104.754 E9.54140
G1 X110.412 Y105.096 E9.60608
G1 X110.800 Y105.320 E9.65936
G1 X111.368 Y105.519 E9.73078
G1 X112.000 Y105.590 E9.80631
G1 X112.580 Y105.524 E9.87568
G1 X113.172 Y105.354 E9.94875
G1 X113.172 Y115.316 E11.13184
G1 X113.886 Y116.090 F9000.000
G1 X101.114 Y116.090 E12.64867 F1800.000
G1 X101.114 Y103.841 E14.10339
G1 X101.628 Y104.362 E14.19027
G1 X101.890 Y104.555 E14.22898
G1 X102.271 Y104.738 E14.27914
G1 X102.559 Y104.822 E14.31479
G1 X102.969 Y104.868 E14.36370
G1 X103.268 Y104.851 E14.39934
G1 X103.697 Y104.753 E14.45159
G1 X104.068 Y104.577 E14.50035
G1 X104.311 Y104.411 E14.53533
G1 X104.520 Y104.225 E14.56848
G1 X104.796 Y103.879 E14.62114
G1 X105.002 Y103.451 E14.67755
G1 X105.108 Y102.988 E14.73392
G1 X105.113 Y94.995 E15.68318
G1 X109.887 Y94.995 E16.25007
G1 X109.892 Y102.956 E17.19558
G1 X109.942 Y103.252 E17.23117
G1 X110.078 Y103.641 E17.28009
G1 X110.224 Y103.903 E17.31573
G1 X110.498 Y104.247 E17.36798
G1 X110.817 Y104.505 E17.41674
G1 X111.100 Y104.668 E17.45544
G1 X111.528 Y104.818 E17.50936
G1 X112.000 Y104.871 E17.56577
G1 X112.441 Y104.822 E17.61844
G1 X112.699 Y104.747 E17.65035
G1 X112.947 Y104.644 E17.68226
G1 X113.296 Y104.425 E17.73117
G1 X113.886 Y103.898 E17.82515
G1 X113.886 Y116.030 E19.26600
G1 X114.600 Y116.804 F9000.000
G1 X100.400 Y116.804 E20.95247 F1800.000
G1 X100.400 Y94.281 E23.62742
G1 X101.600 Y94.281 E23.76997
G1 X101.606 Y102.896 E24.79311
G1 X101.636 Y103.073 E24.81443
G1 X101.736 Y103.359 E24.85038
G1 X101.903 Y103.623 E24.88753
G1 X102.097 Y103.820 E24.92038
G1 X102.261 Y103.941 E24.94451
G1 X102.527 Y104.069 E24.97957
G1 X102.699 Y104.119 E25.00090
G1 X102.989 Y104.151 E25.03551
G1 X103.168 Y104.141 E25.05684
G1 X103.462 Y104.074 E25.09265
G1 X103.712 Y103.956 E25.12549
G1 X103.870 Y103.848 E25.14829
G1 X103.999 Y103.733 E25.16872
G1 X104.188 Y103.496 E25.20468
G1 X104.324 Y103.213 E25.24198
G1 X104.394 Y102.907 E25.27926
G1 X104.400 Y94.281 E26.30375
G1 X110.600 Y94.281 E27.04016
G1 X110.606 Y102.896 E28.06330
G1 X110.636 Y103.073 E28.08461
G1 X110.733 Y103.348 E28.11922
G1 X110.820 Y103.505 E28.14055
G1 X111.007 Y103.741 E28.17636
G1 X111.223 Y103.915 E28.20921
G1 X111.399 Y104.016 E28.23334
G1 X111.688 Y104.117 E28.26974
G1 X112.000 Y104.153 E28.30704
G1 X112.301 Y104.119 E28.34300
G1 X112.463 Y104.072 E28.36299
G1 X112.618 Y104.008 E28.38298
G1 X112.865 Y103.853 E28.41759
G1 X112.999 Y103.733 E28.43893
G1 X113.188 Y103.496 E28.47488
G1 X113.324 Y103.213 E28.51218
G1 X113.394 Y102.907 E28.54946
G1 X113.400 Y94.281 E29.57395
G1 X114.600 Y94.281 E29.71650
G1 X114.600 Y116.744 E32.38432
G1 X114.254 Y116.604 F9000.000
G1 X112.736 Y108.681 F9000.000
G1 X106.258 Y102.202 E33.48785 F1800.000
G1 X106.212 Y103.181 F9000.000
G1 X112.736 Y109.705 E34.59915 F1800.000
G1 X112.736 Y110.729 E34.72253
G1 X105.973 Y103.967 E35.87451
G1 X105.599 Y104.617 E35.96487
G1 X112.736 Y111.754 E37.18058
G1 X112.736 Y112.778 E37.30396
G1 X105.112 Y105.154 E38.60265
G1 X104.516 Y105.582 E38.69107
G1 X112.736 Y113.802 E40.09138
G1 X112.736 Y114.826 E40.21476
G1 X103.790 Y105.880 E41.73867
G1 X102.900 Y106.015 E41.84708
G1 X111.826 Y114.940 E43.36747
G1 X110.801 Y114.940 E43.49085
G1 X102.264 Y106.403 E44.94515
G1 X102.264 Y107.427 E45.06852
G1 X109.777 Y114.940 E46.34834
G1 X108.753 Y114.940 E46.47172
G1 X102.264 Y108.451 E47.57704
G1 X102.264 Y109.476 E47.70042
G1 X107.728 Y114.940 E48.63127
G1 X106.704 Y114.940 E48.75465
G1 X102.264 Y110.500 E49.51101
G1 X102.264 Y111.524 E49.63438
G1 X105.680 Y114.940 E50.21626
G1 X104.655 Y114.940 E50.33964
G1 X102.264 Y112.549 E50.74703
G1 X102.264 Y113.573 E50.87041
G1 X103.631 Y114.940 E51.10332
G1 X102.607 Y114.940 E51.22670
G1 X102.264 Y114.597 E51.28512
G1 X110.989 Y105.910 F9000.000
G1 X112.736 Y107.656 E51.58266 F1800.000
G1 X112.736 Y106.632 E51.70604
G1 X112.104 Y106.000 E51.81365
G1 X108.840 Y103.761 F9000.000
G1 X106.259 Y101.179 E52.25343 F1800.000
G1 X106.259 Y100.155 E52.37672
G1 X108.742 Y102.638 E52.79966
G1 X108.741 Y101.613 E52.92312
G1 X106.260 Y99.132 E53.34581
G1 X106.261 Y98.108 E53.46911
G1 X108.741 Y100.588 E53.89155
G1 X108.740 Y99.563 E54.01502
G1 X106.261 Y97.084 E54.43722
G1 X106.346 Y96.145 E54.55085
G1 X108.739 Y98.538 E54.95849
G1 X108.739 Y97.513 E55.08196
G1 X107.371 Y96.145 E55.31499
G1 X108.395 Y96.145 E55.43837
G1 X108.738 Y96.488 E55.49680
G1 E51.49680 F2400.00000
G92 E0
G1 X107.502 Y97.380 F9000.000
G1 X109.837 Y95.043 F9000.000
G1 X110.000 Y94.880 F9000.000
G1 X114.000 Y94.638 F9000.000
G1 E4.00000 F2400.00000
G1 X113.997 Y102.948 E6.09240 F1800.000
G1 X113.995 Y102.989 E6.10282
G1 X113.861 Y103.218 E6.16960
G1 E2.16960 F2400.00000
G92 E0
G1 X110.011 Y102.974 F9000.000
G1 X107.500 Y109.823 F9000.000
G1 X102.049 Y105.647 F9000.000
G1 X101.335 Y104.388 F9000.000
G1 X101.105 Y103.669 F9000.000
G1 X101.058 Y103.433 F9000.000
G1 X101.056 Y103.427 F9000.000
G1 X101.025 Y103.202 F9000.000
G1 X101.003 Y103.221 F9000.000
G1 E4.00000 F2400.00000
G1 X101.000 Y94.638 E6.16115 F1800.000
G1 Z0.500 F9000.000
G1 E2.16115 F2400.00000
G92 E0
G1 X113.623 Y115.759 F9000.000
G1 E4.00000 F2400.00000
G1 X101.377 Y115.759 E4.33528 F2100.000
G1 X101.377 Y104.496 E4.64362
G1 X101.744 Y104.777 E4.65626
G1 X102.177 Y104.985 E4.66941
G1 X102.508 Y105.080 E4.67884
G1 X103.000 Y105.136 E4.69240
G1 X103.531 Y105.076 E4.70703
G1 X103.998 Y104.912 E4.72059
G1 X104.300 Y104.746 E4.73002
G1 X104.657 Y104.461 E4.74251
G1 X104.886 Y104.204 E4.75194
G1 X105.129 Y103.818 E4.76443
G1 X105.261 Y103.500 E4.77386
G1 X105.371 Y103.018 E4.78741
G1 X105.376 Y94.865 E5.01061
G1 X109.624 Y94.865 E5.12691
G1 X109.629 Y103.006 E5.34980
G1 X109.716 Y103.417 E5.36131
G1 X109.845 Y103.761 E5.37136
G1 X110.004 Y104.050 E5.38039
G1 X110.300 Y104.421 E5.39339
G1 X110.596 Y104.672 E5.40401
G1 X110.972 Y104.902 E5.41607
G1 X111.469 Y105.076 E5.43049
G1 X111.961 Y105.131 E5.44405
G1 X112.305 Y105.112 E5.45348
G1 X112.788 Y105.002 E5.46704
G1 X113.259 Y104.775 E5.48136
G1 X113.623 Y104.494 E5.49394
G1 X113.623 Y115.699 E5.80069
G1 X114.281 Y116.417 F9000.000
G1 X100.719 Y116.417 E6.17203 F2100.000
G1 X100.719 Y94.207 E6.78012
G1 X101.282 Y94.207 E6.79555
G1 X101.288 Y102.937 E7.03458
G1 X101.350 Y103.233 E7.04286
G1 X101.452 Y103.504 E7.05079
G1 X101.650 Y103.819 E7.06098
G1 X101.860 Y104.037 E7.06926
G1 X102.090 Y104.212 E7.07718
G1 X102.413 Y104.368 E7.08698
G1 X102.637 Y104.432 E7.09337
G1 X103.000 Y104.473 E7.10338
G1 X103.383 Y104.430 E7.11394
G1 X103.728 Y104.309 E7.12395
G1 X103.933 Y104.196 E7.13034
G1 X104.202 Y103.981 E7.13979
G1 X104.358 Y103.807 E7.14617
G1 X104.542 Y103.515 E7.15562
G1 X104.631 Y103.299 E7.16201
G1 X104.712 Y102.943 E7.17201
G1 X104.718 Y94.207 E7.41121
G1 X110.282 Y94.207 E7.56354
G1 X110.288 Y102.937 E7.80258
G1 X110.350 Y103.233 E7.81085
G1 X110.445 Y103.485 E7.81822
G1 X110.554 Y103.683 E7.82440
G1 X110.775 Y103.960 E7.83412
G1 X110.983 Y104.136 E7.84159
G1 X111.256 Y104.304 E7.85035
G1 X111.617 Y104.430 E7.86081
G1 X111.980 Y104.471 E7.87081
G1 X112.213 Y104.458 E7.87720
G1 X112.569 Y104.376 E7.88721
G1 X112.911 Y104.212 E7.89761
G1 X113.151 Y104.027 E7.90590
G1 X113.351 Y103.818 E7.91382
G1 X113.542 Y103.515 E7.92362
G1 X113.643 Y103.270 E7.93087
G1 X113.712 Y102.936 E7.94022
G1 X113.718 Y94.207 E8.17921
G1 X114.281 Y94.207 E8.19464
G1 X114.281 Y116.357 E8.80109
G1 X114.800 Y116.936 F9000.000
G1 X100.200 Y116.936 E9.03086 F1050.000
G1 X100.200 Y93.688 E9.39673
G1 X101.800 Y93.688 E9.42191
G1 X101.806 Y102.883 E9.56662
G1 X101.850 Y103.088 E9.56991
G1 X101.919 Y103.273 E9.57302
G1 X102.060 Y103.498 E9.57720
G1 X102.206 Y103.648 E9.58049
G1 X102.363 Y103.768 E9.58361
G1 X102.598 Y103.881 E9.58772
G1 X102.738 Y103.922 E9.59001
G1 X103.000 Y103.951 E9.59416
G1 X103.267 Y103.921 E9.59839
G1 X103.516 Y103.834 E9.60254
G1 X103.644 Y103.764 E9.60483
G1 X103.845 Y103.603 E9.60889
G1 X103.942 Y103.494 E9.61118
G1 X104.079 Y103.276 E9.61524
G1 X104.135 Y103.141 E9.61753
G1 X104.194 Y102.885 E9.62168
G1 X104.200 Y93.688 E9.76641
G1 X110.800 Y93.688 E9.87028
G1 X110.806 Y102.883 E10.01499
G1 X110.850 Y103.088 E10.01828
G1 X110.917 Y103.268 E10.02131
G1 X110.986 Y103.394 E10.02357
G1 X111.149 Y103.597 E10.02767
G1 X111.288 Y103.715 E10.03054
G1 X111.480 Y103.833 E10.03408
G1 X111.733 Y103.921 E10.03830
G1 X111.994 Y103.951 E10.04244
G1 X112.140 Y103.942 E10.04474
G1 X112.397 Y103.884 E10.04888
G1 X112.638 Y103.768 E10.05309
G1 X112.803 Y103.640 E10.05639
G1 X112.940 Y103.497 E10.05950
G1 X113.079 Y103.276 E10.06361
G1 X113.145 Y103.117 E10.06632
G1 X113.194 Y102.883 E10.07009
G1 X113.200 Y93.688 E10.21479
G1 X114.800 Y93.688 E10.23997
G1 X114.800 Y116.876 E10.60489
G1 X114.454 Y116.736 F9000.000
G1 X112.903 Y115.358 F9000.000
G1 X113.223 Y115.039 E10.61765 F1200.000
G1 X113.223 Y114.078 E10.64478
G1 X111.943 Y115.358 E10.69592
G1 X110.982 Y115.358 E10.72306
G1 X113.223 Y113.118 E10.81257
G1 X113.223 Y112.157 E10.83970
G1 X110.021 Y115.358 E10.96759
G1 X109.060 Y115.358 E10.99473
G1 X113.223 Y111.196 E11.16100
G1 X113.223 Y110.235 E11.18813
G1 X108.100 Y115.358 E11.39278
G1 X107.139 Y115.358 E11.41991
G1 X113.223 Y109.274 E11.66293
G1 X113.223 Y108.314 E11.69007
G1 X106.178 Y115.358 E11.97147
G1 X105.217 Y115.358 E11.99860
G1 X113.223 Y107.353 E12.31838
G1 X113.223 Y106.392 E12.34551
G1 X104.257 Y115.358 E12.70367
G1 X103.296 Y115.358 E12.73080
G1 X113.223 Y105.431 E13.12733
G1 X112.165 Y105.529 E13.15734
G1 X102.335 Y115.358 E13.54998
G1 X101.777 Y114.956 E13.56942
G1 X111.324 Y105.409 E13.95077
G1 X110.656 Y105.116 E13.97137
G1 X101.777 Y113.995 E14.32603
G1 X101.777 Y113.034 E14.35317
G1 X110.106 Y104.706 E14.68584
G1 X109.674 Y104.176 E14.70513
G1 X101.777 Y112.073 E15.02058
G1 X101.777 Y111.113 E15.04771
G1 X109.370 Y103.520 E15.35101
G1 X109.229 Y102.700 E15.37450
G1 X101.777 Y110.152 E15.67217
G1 X101.777 Y109.191 E15.69930
G1 X109.229 Y101.740 E15.99694
G1 X109.228 Y100.779 E16.02406
G1 X101.777 Y108.230 E16.32167
G1 X101.777 Y107.269 E16.34881
G1 X103.554 Y105.493 E16.41979
G1 X102.607 Y105.479 E16.44655
G1 X101.777 Y106.309 E16.47968
G1 X105.754 Y103.293 F9000.000
G1 X109.227 Y99.819 E16.61843 F1200.000
G1 X109.227 Y98.859 E16.64555
G1 X105.771 Y102.315 E16.78357
G1 X105.772 Y101.353 E16.81072
G1 X109.226 Y97.899 E16.94869
G1 X109.225 Y96.939 E16.97581
G1 X105.773 Y100.392 E17.11372
G1 X105.773 Y99.430 E17.14088
G1 X109.225 Y95.979 E17.27874
G1 X108.977 Y95.265 E17.30007
G1 X105.774 Y98.469 E17.42804
G1 X105.775 Y97.507 E17.45519
G1 X108.017 Y95.265 E17.54476
G1 X107.056 Y95.265 E17.57189
G1 X105.775 Y96.546 E17.62305
G1 X105.776 Y95.585 E17.65021
G1 X106.095 Y95.265 E17.66296
G1 Z0.600 F9000.000
G1 X113.623 Y115.726 F9000.000
G1 X101.377 Y115.726 E17.99824 F2100.000
G1 X101.377 Y104.530 E18.30478
G1 X101.965 Y104.900 E18.32378
G1 X102.469 Y105.076 E18.33841
G1 X103.000 Y105.136 E18.35304
G1 X103.492 Y105.080 E18.36660
G1 X103.823 Y104.985 E18.37603
G1 X104.234 Y104.787 E18.38852
G1 X104.483 Y104.610 E18.39689
G1 X104.711 Y104.407 E18.40525
G1 X105.020 Y104.019 E18.41881
G1 X105.252 Y103.538 E18.43344
G1 X105.371 Y103.018 E18.44805
G1 X105.376 Y94.752 E18.67437
G1 X109.624 Y94.752 E18.79067
G1 X109.629 Y102.979 E19.01591
G1 X109.687 Y103.318 E19.02533
G1 X109.838 Y103.748 E19.03782
G1 X110.004 Y104.050 E19.04725
G1 X110.289 Y104.407 E19.05974
G1 X110.546 Y104.636 E19.06917
G1 X110.965 Y104.900 E19.08273
G1 X111.469 Y105.076 E19.09736
G1 X112.027 Y105.139 E19.11273
G1 X112.680 Y105.039 E19.13083
G1 X113.068 Y104.879 E19.14232
G1 X113.623 Y104.530 E19.16026
G1 X113.623 Y115.666 E19.46515
G1 X114.281 Y116.385 F9000.000
G1 X100.719 Y116.385 E19.83649 F2100.000
G1 X100.719 Y94.093 E20.44681
G1 X101.282 Y94.093 E20.46223
G1 X101.288 Y102.936 E20.70434
G1 X101.357 Y103.270 E20.71369
G1 X101.457 Y103.511 E20.72083
G1 X101.614 Y103.767 E20.72903
G1 X101.777 Y103.959 E20.73595
G1 X101.943 Y104.108 E20.74205
G1 X102.252 Y104.302 E20.75206
G1 X102.617 Y104.430 E20.76262
G1 X103.000 Y104.473 E20.77319
G1 X103.363 Y104.432 E20.78320
G1 X103.587 Y104.368 E20.78958
G1 X103.898 Y104.218 E20.79903
G1 X104.072 Y104.094 E20.80487
G1 X104.231 Y103.952 E20.81070
G1 X104.459 Y103.667 E20.82071
G1 X104.626 Y103.319 E20.83127
G1 X104.712 Y102.943 E20.84183
G1 X104.718 Y94.093 E21.08414
G1 X110.282 Y94.093 E21.23647
G1 X110.288 Y102.923 E21.47822
G1 X110.327 Y103.153 E21.48460
G1 X110.441 Y103.478 E21.49405
G1 X110.554 Y103.683 E21.50044
G1 X110.769 Y103.952 E21.50989
G1 X110.943 Y104.108 E21.51628
G1 X111.252 Y104.302 E21.52629
G1 X111.617 Y104.430 E21.53685
G1 X112.014 Y104.475 E21.54780
G1 X112.502 Y104.400 E21.56132
G1 X112.765 Y104.292 E21.56911
G1 X113.057 Y104.108 E21.57856
G1 X113.231 Y103.952 E21.58494
G1 X113.459 Y103.667 E21.59495
G1 X113.626 Y103.319 E21.60552
G1 X113.712 Y102.943 E21.61607
G1 X113.718 Y94.093 E21.85838
G1 X114.281 Y94.093 E21.87380
G1 X114.281 Y116.325 E22.48249
G1 X114.800 Y116.903 F9000.000
G1 X100.200 Y116.903 E22.71226 F1050.000
G1 X100.200 Y93.575 E23.07940
G1 X101.800 Y93.575 E23.10459
G1 X101.806 Y102.883 E23.25107
G1 X101.855 Y103.117 E23.25484
G1 X101.920 Y103.275 E23.25753
G1 X102.035 Y103.462 E23.26098
G1 X102.149 Y103.597 E23.26377
G1 X102.256 Y103.692 E23.26602
G1 X102.479 Y103.832 E23.27016
G1 X102.733 Y103.921 E23.27440
G1 X103.000 Y103.951 E23.27863
G1 X103.262 Y103.922 E23.28277
G1 X103.402 Y103.881 E23.28507
G1 X103.634 Y103.770 E23.28913
G1 X103.748 Y103.688 E23.29133
G1 X103.853 Y103.595 E23.29354
G1 X104.017 Y103.389 E23.29768
G1 X104.134 Y103.147 E23.30192
G1 X104.194 Y102.885 E23.30615
G1 X104.200 Y93.575 E23.45267
G1 X110.800 Y93.575 E23.55654
G1 X110.806 Y102.879 E23.70298
G1 X110.831 Y103.023 E23.70527
G1 X110.916 Y103.266 E23.70933
G1 X110.986 Y103.394 E23.71162
G1 X111.147 Y103.595 E23.71568
G1 X111.256 Y103.692 E23.71797
G1 X111.479 Y103.832 E23.72212
G1 X111.733 Y103.921 E23.72635
G1 X112.004 Y103.952 E23.73065
