;FLAVOR:Marlin
;TIME:942
;Filament used: 0.658428m
;Layer height: 0.2
;Generated with Cura_SteamEngine master
M104 S200
M109 S200
; -- START GCODE --
G21                     ;set units to millimetres
G90                     ;set to absolute positioning
M106 S0                 ;set fan speed to zero (turned off)
G28 X0 Y0               ;move to the X/Y origin (Home)
G28 Z0                  ;move to the Z origin (Home)
G1 Z15.0 F1200          ;move Z to position 15.0 mm
G92 E0                  ;zero the extruded length
G1 E20 F200             ;extrude 20mm of feed stock
G92 E0                  ;zero the extruded length again
G1 F7200                ;set feedrate to 120 mm/s
; -- end of START GCODE --
;LAYER_COUNT:38
;LAYER:0
M107
G0 F3600 X95.975 Y83.284 Z0.2
;TYPE:SKIRT
G1 F1200 X96.367 Y82.918 E0.01784
G1 X96.809 Y82.615 E0.03566
G1 X97.291 Y82.38 E0.0535
G1 X97.803 Y82.22 E0.07134
G1 X98.333 Y82.137 E0.08918
G1 X98.62 Y82.126 E0.09873
G1 X116.381 Y82.127 E0.68947
G1 X116.916 Y82.167 E0.70731
G1 X117.439 Y82.286 E0.72515
G1 X117.938 Y82.481 E0.74297
G1 X118.403 Y82.749 E0.76082
G1 X118.823 Y83.082 E0.77865
G1 X119.189 Y83.474 E0.79648
G1 X119.493 Y83.916 E0.81433
G1 X119.727 Y84.399 E0.83218
G1 X119.887 Y84.911 E0.85002
G1 X119.97 Y85.44 E0.86783
G1 X119.981 Y85.726 E0.87735
G1 X119.99 Y126.462 E2.23223
G1 X119.981 Y126.72 E2.24082
G1 X119.929 Y127.447 E2.26506
G1 X119.851 Y127.977 E2.28288
G1 X119.695 Y128.491 E2.30074
G1 X119.464 Y128.975 E2.31858
G1 X119.165 Y129.419 E2.33639
G1 X118.802 Y129.815 E2.35425
G1 X118.385 Y130.152 E2.37209
G1 X117.922 Y130.423 E2.38993
G1 X117.424 Y130.622 E2.40777
G1 X116.902 Y130.745 E2.4256
G1 X116.368 Y130.79 E2.44343
G1 X115.586 Y130.711 E2.46957
G1 X97.869 Y126.929 E3.07212
G1 X97.355 Y126.778 E3.08993
G1 X96.868 Y126.552 E3.10779
G1 X96.421 Y126.257 E3.1256
G1 X96.022 Y125.899 E3.14343
G1 X95.681 Y125.485 E3.16127
G1 X95.405 Y125.025 E3.17911
G1 X95.2 Y124.529 E3.19697
G1 X95.071 Y124.009 E3.21478
G1 X95.021 Y123.408 E3.23484
G1 X95.02 Y85.726 E4.48815
G1 X95.06 Y85.191 E4.506
G1 X95.179 Y84.668 E4.52383
G1 X95.374 Y84.169 E4.54165
G1 X95.641 Y83.704 E4.55949
G1 X95.975 Y83.284 E4.57734
G0 F3600 X96.369 Y83.451
G1 F1200 X96.756 Y83.125 E4.59417
G1 X97.189 Y82.864 E4.61098
G1 X97.657 Y82.674 E4.62778
G1 X98.15 Y82.561 E4.6446
G1 X98.62 Y82.526 E4.66028
G1 X116.381 Y82.527 E5.25101
G1 X116.885 Y82.567 E5.26783
G1 X117.377 Y82.686 E5.28466
G1 X117.843 Y82.881 E5.30147
G1 X118.273 Y83.146 E5.31827
G1 X118.656 Y83.477 E5.3351
G1 X118.982 Y83.863 E5.35191
G1 X119.243 Y84.296 E5.36872
G1 X119.433 Y84.765 E5.38555
G1 X119.546 Y85.257 E5.40234
G1 X119.581 Y85.726 E5.41799
G1 X119.59 Y126.462 E6.77287
G1 X119.582 Y126.691 E6.78049
G1 X119.53 Y127.418 E6.80473
G1 X119.454 Y127.918 E6.82155
G1 X119.3 Y128.4 E6.83838
G1 X119.073 Y128.851 E6.85518
G1 X118.777 Y129.261 E6.872
G1 X118.421 Y129.62 E6.88881
G1 X118.012 Y129.917 E6.90562
G1 X117.561 Y130.147 E6.92246
G1 X117.08 Y130.303 E6.93928
G1 X116.581 Y130.381 E6.95608
G1 X116.075 Y130.379 E6.97291
G1 X115.67 Y130.319 E6.98653
G1 X97.953 Y126.537 E7.58907
G1 X97.468 Y126.393 E7.6059
G1 X97.013 Y126.174 E7.62269
G1 X96.597 Y125.887 E7.6395
G1 X96.232 Y125.537 E7.65632
G1 X95.926 Y125.134 E7.67315
G1 X95.688 Y124.688 E7.68997
G1 X95.523 Y124.21 E7.70679
G1 X95.436 Y123.712 E7.7236
G1 X95.421 Y123.408 E7.73372
G1 X95.42 Y85.726 E8.98703
G1 X95.46 Y85.222 E9.00385
G1 X95.579 Y84.731 E9.02065
G1 X95.773 Y84.264 E9.03747
G1 X96.039 Y83.834 E9.05429
G1 X96.369 Y83.451 E9.0711
G1 F1500 E2.5711
G0 F3600 X99.224 Y85.052
G0 X99.224 Y86.331
G0 X99.28 Y86.387
G0 X99.21 Y86.317
;TYPE:WALL-INNER
G1 F1500 E9.0711
G1 F1200 X100.042 Y86.317 E9.09878
G1 X100.042 Y102.471 E9.63606
G1 X114.958 Y102.471 E10.13217
G1 X114.958 Y86.317 E10.66945
G1 X115.79 Y86.317 E10.69712
G1 X115.79 Y126.235 E12.0248
G1 X115.79 Y126.236 E12.02484
G1 X115.79 Y126.482 E12.03302
G1 X115.549 Y126.431 E12.03803
G1 X99.21 Y122.93 E12.5938
G1 X99.21 Y86.317 E13.81156
G0 F3600 X99.28 Y86.387
G0 X99.972 Y104.33
G0 X100.042 Y104.4
G1 F1200 X100.042 Y104.6 E13.81821
G1 X100.045 Y115.239 E14.17206
G1 X100.209 Y115.962 E14.19672
G1 X100.429 Y116.631 E14.22014
G1 X100.71 Y117.274 E14.24348
G1 X101.048 Y117.89 E14.26685
G1 X101.444 Y118.471 E14.29024
G1 X101.888 Y119.013 E14.31354
G1 X102.383 Y119.51 E14.33687
G1 X102.921 Y119.961 E14.36022
G1 X103.499 Y120.36 E14.38358
G1 X104.113 Y120.703 E14.40698
G1 X104.754 Y120.988 E14.43031
G1 X105.42 Y121.213 E14.45369
G1 X106.103 Y121.374 E14.47703
G1 X106.798 Y121.471 E14.50037
G1 X107.5 Y121.503 E14.52374
G1 X108.2 Y121.472 E14.54705
G1 X108.896 Y121.375 E14.57042
G1 X109.579 Y121.214 E14.59376
G1 X110.245 Y120.989 E14.61714
G1 X110.886 Y120.704 E14.64047
G1 X111.5 Y120.361 E14.66386
G1 X112.078 Y119.962 E14.68722
G1 X112.616 Y119.511 E14.71057
G1 X113.111 Y119.014 E14.7339
G1 X113.555 Y118.472 E14.75721
G1 X113.951 Y117.891 E14.78059
G1 X114.289 Y117.275 E14.80396
G1 X114.57 Y116.632 E14.8273
G1 X114.79 Y115.963 E14.85072
G1 X114.954 Y115.24 E14.87538
G1 X114.958 Y104.6 E15.22927
G1 X114.958 Y104.4 E15.23592
G1 X114.758 Y104.4 E15.24023
G1 X100.242 Y104.4 E15.72303
G1 X100.042 Y104.4 E15.72734
G0 F3600 X100.442 Y104.8
;TYPE:WALL-OUTER
G1 F1200 X100.442 Y105 E15.73399
G1 X100.445 Y115.194 E16.07305
G1 X100.595 Y115.855 E16.09559
G1 X100.803 Y116.488 E16.11775
G1 X101.069 Y117.097 E16.13986
G1 X101.389 Y117.681 E16.162
G1 X101.764 Y118.231 E16.18414
G1 X102.185 Y118.744 E16.20622
G1 X102.654 Y119.215 E16.22832
G1 X103.164 Y119.642 E16.25045
G1 X103.711 Y120.02 E16.27256
G1 X104.292 Y120.345 E16.2947
G1 X104.9 Y120.615 E16.31683
G1 X105.53 Y120.828 E16.33895
G1 X106.177 Y120.98 E16.36105
G1 X106.835 Y121.072 E16.38315
G1 X107.5 Y121.103 E16.40529
G1 X108.163 Y121.073 E16.42737
G1 X108.822 Y120.981 E16.4495
G1 X109.469 Y120.829 E16.47161
G1 X110.099 Y120.616 E16.49372
G1 X110.707 Y120.346 E16.51585
G1 X111.288 Y120.021 E16.53799
G1 X111.835 Y119.643 E16.56011
G1 X112.345 Y119.216 E16.58223
G1 X112.814 Y118.745 E16.60434
G1 X113.235 Y118.232 E16.62641
G1 X113.61 Y117.682 E16.64855
G1 X113.93 Y117.098 E16.6707
G1 X114.196 Y116.489 E16.6928
G1 X114.404 Y115.856 E16.71496
G1 X114.554 Y115.195 E16.73751
G1 X114.558 Y105 E17.0766
G1 X114.558 Y104.8 E17.08325
G1 X114.358 Y104.8 E17.08755
G1 X100.642 Y104.8 E17.54375
G1 X100.442 Y104.8 E17.54806
G0 F3600 X100.442 Y105
G0 X99.942 Y105
G0 X99.942 Y102.071
G0 X100.442 Y102.071
G1 F1200 X114.558 Y102.071 E18.01756
G1 X114.558 Y86.385 E18.53928
G1 X108.843 Y86.385 E18.72936
G1 X108.843 Y85.917 E18.74492
G1 X116.19 Y85.917 E18.98929
G1 X116.19 Y126.73 E20.34673
G1 X116.19 Y126.731 E20.34676
G1 X116.19 Y126.977 E20.35495
G1 X115.949 Y126.926 E20.35996
G1 X98.81 Y123.253 E20.94295
G1 X98.81 Y85.917 E22.18475
G1 X106.157 Y85.917 E22.42911
G1 X106.157 Y86.385 E22.44468
G1 X100.442 Y86.385 E22.63476
G1 X100.442 Y102.071 E23.15648
G0 F3600 X100.642 Y102.071
G0 X100.642 Y102.571
G0 X100.014 Y104.372
G0 X99.388 Y122.581
;TYPE:SKIN
G1 F1200 X99.644 Y122.837 E23.16852
G0 F3600 X100.364 Y122.992
G1 F1200 X99.388 Y122.016 E23.21443
G1 X99.318 Y121.946
G0 F3600 X99.388 Y121.45
G1 F1200 X101.084 Y123.146 E23.2942
G1 X101.154 Y123.216
G0 F3600 X101.804 Y123.3
G1 F1200 X99.388 Y120.884 E23.40784
G1 X99.318 Y120.814
G0 F3600 X99.388 Y120.319
G1 F1200 X102.524 Y123.454 E23.55533
G1 X102.594 Y123.524
G0 F3600 X103.243 Y123.608
G1 F1200 X99.388 Y119.753 E23.73665
G1 X99.318 Y119.683
G0 F3600 X99.388 Y119.187
G1 F1200 X103.963 Y123.762 E23.95185
G1 X104.033 Y123.832
G0 F3600 X104.684 Y123.917
G1 F1200 X99.388 Y118.622 E24.20093
G1 X99.318 Y118.552
G0 F3600 X99.388 Y118.056
G1 F1200 X105.404 Y124.071 E24.48388
G1 X105.474 Y124.141
G0 F3600 X106.123 Y124.225
G1 F1200 X99.388 Y117.49 E24.80068
G1 X99.318 Y117.42
G0 F3600 X99.388 Y116.925
G1 F1200 X106.843 Y124.38 E25.15134
G1 X106.913 Y124.45
G0 F3600 X107.563 Y124.534
G1 F1200 X103.717 Y120.687 E25.33226
G1 X103.647 Y120.617
G0 F3600 X104.783 Y121.188
G1 F1200 X108.283 Y124.688 E25.49689
G1 X108.353 Y124.758
G0 F3600 X109.003 Y124.842
G1 F1200 X105.601 Y121.44 E25.65691
G1 X105.531 Y121.37
G0 F3600 X106.31 Y121.584
G1 F1200 X109.723 Y124.996 E25.81743
G1 X109.793 Y125.066
G0 F3600 X110.443 Y125.15
G1 F1200 X106.949 Y121.657 E25.98175
G1 X106.879 Y121.587
G0 F3600 X107.538 Y121.68
G1 F1200 X111.162 Y125.304 E26.15221
G1 X111.232 Y125.374
G0 F3600 X111.882 Y125.459
G1 F1200 X108.079 Y121.656 E26.33109
G1 X108.009 Y121.586
G0 F3600 X108.588 Y121.599
G1 F1200 X112.602 Y125.613 E26.5199
G1 X112.672 Y125.683
G0 F3600 X113.323 Y125.768
G1 F1200 X109.073 Y121.518 E26.71981
G1 X109.003 Y121.448
G0 F3600 X109.53 Y121.41
G1 F1200 X114.042 Y125.922 E26.93204
G1 X114.112 Y125.992
G0 F3600 X114.762 Y126.076
G1 F1200 X109.961 Y121.275 E27.15786
G1 X109.891 Y121.205
G0 F3600 X110.379 Y121.127
G1 F1200 X115.482 Y126.23 E27.39789
G1 X115.552 Y126.3
G0 F3600 X115.61 Y125.792
G1 F1200 X110.77 Y120.952 E27.62555
G1 X110.7 Y120.882
G0 F3600 X111.147 Y120.763
G1 F1200 X115.61 Y125.227 E27.8355
G1 X115.68 Y125.297
G0 F3600 X115.61 Y124.661
G1 F1200 X111.51 Y120.561 E28.02835
G1 X111.44 Y120.491
G0 F3600 X111.851 Y120.336
G1 F1200 X115.61 Y124.095 E28.20516
G1 X115.68 Y124.165
G0 F3600 X115.61 Y123.53
G1 F1200 X112.186 Y120.105 E28.36624
G1 X112.116 Y120.035
G0 F3600 X112.494 Y119.848
G1 F1200 X115.61 Y122.964 E28.51281
G1 X115.68 Y123.034
G0 F3600 X115.61 Y122.398
G1 F1200 X112.795 Y119.583 E28.64522
G1 X112.725 Y119.513
G0 F3600 X113.078 Y119.3
G1 F1200 X115.61 Y121.833 E28.76434
G1 X115.68 Y121.903
G0 F3600 X115.61 Y121.267
G1 F1200 X113.349 Y119.006 E28.87069
G1 X113.279 Y118.936
G0 F3600 X113.603 Y118.694
G1 F1200 X115.61 Y120.701 E28.96509
G1 X115.68 Y120.771
G0 F3600 X115.61 Y120.136
G1 F1200 X113.842 Y118.368 E29.04825
G1 X113.772 Y118.298
G0 F3600 X114.071 Y118.031
G1 F1200 X115.61 Y119.57 E29.12064
G1 X115.68 Y119.64
G0 F3600 X115.61 Y119.004
G1 F1200 X114.276 Y117.67 E29.18339
G1 X114.206 Y117.6
G0 F3600 X114.473 Y117.301
G1 F1200 X115.61 Y118.438 E29.23687
G1 X115.68 Y118.508
G0 F3600 X115.61 Y117.873
G1 F1200 X114.645 Y116.908 E29.28226
G1 X114.575 Y116.838
G0 F3600 X114.802 Y116.499
G1 F1200 X115.61 Y117.307 E29.32027
G1 X115.68 Y117.377
G0 F3600 X115.61 Y116.741
G1 F1200 X114.941 Y116.072 E29.35173
G1 X114.871 Y116.002
G0 F3600 X115.33 Y115.896
G1 F1200 X115.371 Y115.371 E29.37612
G1 X115.371 Y114.806 E29.39853
G1 X115.371 Y114.24 E29.42098
G1 X115.371 Y113.674 E29.44343
G1 X115.372 Y113.109 E29.46579
G1 X115.372 Y112.544 E29.48816
G1 X115.372 Y111.978 E29.51056
G1 X115.372 Y111.412 E29.53296
G1 X115.372 Y110.847 E29.55528
G1 X115.372 Y110.281 E29.57763
G1 X115.372 Y109.715 E29.59999
G1 X115.372 Y109.15 E29.6223
G1 X115.373 Y108.584 E29.64461
G1 X115.373 Y108.019 E29.66688
G1 X115.373 Y107.453 E29.68919
G1 X115.373 Y106.887 E29.71149
G1 X115.373 Y106.322 E29.73376
G1 X115.372 Y105.756 E29.75598
G1 X115.372 Y105.19 E29.77824
G1 X115.372 Y104.624 E29.8005
G0 F3600 X114.967 Y104.219
G1 F1200 X113.399 Y102.651 E29.87425
G1 X113.329 Y102.581
G0 F3600 X113.965 Y102.651
G1 F1200 X115.609 Y104.296 E29.9516
G1 X115.679 Y104.366
G0 F3600 X115.609 Y103.73
G1 F1200 X114.53 Y102.651 E30.00236
G1 X114.46 Y102.581
G0 F3600 X115.352 Y102.907
G1 F1200 X115.373 Y102.362 E30.02549
G1 X115.373 Y101.797 E30.04766
G1 X115.373 Y101.231 E30.06987
G1 X115.373 Y100.665 E30.09209
G1 X115.373 Y100.099 E30.1143
G1 X115.373 Y99.534 E30.13648
G1 X115.373 Y98.968 E30.15869
G1 X115.373 Y98.402 E30.1809
G1 X115.373 Y97.837 E30.20308
G1 X115.373 Y97.271 E30.22529
G1 X115.373 Y96.705 E30.24751
G1 X115.373 Y96.14 E30.26968
G1 X115.373 Y95.574 E30.29189
G1 X115.373 Y95.008 E30.31411
G1 X115.373 Y94.443 E30.33628
G1 X115.373 Y93.877 E30.3585
G1 X115.373 Y93.311 E30.38071
G1 X115.373 Y92.746 E30.40288
G1 X115.373 Y92.18 E30.4251
G1 X115.373 Y91.614 E30.44731
G1 X115.373 Y91.049 E30.46949
G1 X115.373 Y90.483 E30.4917
G1 X115.373 Y89.917 E30.51391
G1 X115.373 Y89.351 E30.53613
G1 X115.373 Y88.786 E30.5583
G1 X115.373 Y88.22 E30.58052
G1 X115.373 Y87.654 E30.60273
G1 X115.373 Y87.089 E30.6249
G1 X115.478 Y86.628 E30.6422
G0 F3600 X115.609 Y86.759
G0 X114.986 Y102.499
G0 X100.014 Y102.499
G0 X99.861 Y86.851
G0 X99.684 Y86.673
G1 F1200 X99.624 Y87.179 E30.66165
G1 X99.624 Y87.745 E30.68391
G1 X99.624 Y88.311 E30.70617
G1 X99.624 Y88.876 E30.72839
G1 X99.624 Y89.442 E30.75065
G1 X99.624 Y90.008 E30.77291
G1 X99.624 Y90.573 E30.79514
G1 X99.624 Y91.139 E30.8174
G1 X99.624 Y91.705 E30.83966
G1 X99.624 Y92.27 E30.86188
G1 X99.624 Y92.836 E30.88414
G1 X99.624 Y93.402 E30.9064
G1 X99.624 Y93.968 E30.92866
G1 X99.624 Y94.533 E30.95088
G1 X99.624 Y95.099 E30.97314
G1 X99.624 Y95.665 E30.99541
G1 X99.624 Y96.23 E31.01763
G1 X99.624 Y96.796 E31.03989
G1 X99.624 Y97.362 E31.06215
G1 X99.624 Y97.927 E31.08437
G1 X99.624 Y98.493 E31.10663
G1 X99.624 Y99.059 E31.12889
G1 X99.624 Y99.624 E31.15111
G1 X99.624 Y100.19 E31.17337
G1 X99.624 Y100.756 E31.19563
G1 X99.624 Y101.321 E31.21786
G1 X99.624 Y101.887 E31.24012
G0 F3600 X99.388 Y102.217
G1 F1200 X101.39 Y104.219 E31.33428
G1 X101.46 Y104.289
G0 F3600 X100.824 Y104.219
G1 F1200 X99.388 Y102.782 E31.40185
G1 X99.318 Y102.712
G0 F3600 X99.388 Y103.348
G1 F1200 X100.259 Y104.219 E31.44282
G1 X100.329 Y104.289
G0 F3600 X99.625 Y104.151
G1 F1200 X99.625 Y104.716 E31.46509
G1 X99.625 Y105.282 E31.4874
G1 X99.625 Y105.848 E31.50971
G1 X99.625 Y106.414 E31.53201
G1 X99.625 Y106.979 E31.55433
G1 X99.625 Y107.545 E31.57669
G1 X99.625 Y108.111 E31.59904
G1 X99.625 Y108.676 E31.62136
G1 X99.625 Y109.242 E31.64371
G1 X99.625 Y109.808 E31.66607
G1 X99.625 Y110.374 E31.68842
G1 X99.626 Y110.94 E31.71073
G1 X99.626 Y111.506 E31.73313
G1 X99.626 Y112.071 E31.75549
G1 X99.626 Y112.637 E31.7779
G1 X99.626 Y113.203 E31.8003
G1 X99.626 Y113.768 E31.82271
G1 X99.626 Y114.334 E31.84516
G1 X99.626 Y114.9 E31.8676
G1 X99.692 Y115.531 E31.89309
G1 X100.066 Y115.905
G0 F3600 X99.388 Y115.793
G1 F1200 X100.246 Y116.651 E31.93344
G1 X100.316 Y116.721
G0 F3600 X99.388 Y116.359
G1 F1200 X100.75 Y117.721 E31.99751
G1 X100.82 Y117.791
G0 F3600 X100.171 Y115.972
G0 X100.006 Y115.243
G0 X100.014 Y104.372
G0 X101.956 Y104.219
G1 F1200 X100.388 Y102.651 E32.07126
G1 X100.318 Y102.581
G0 F3600 X100.954 Y102.651
G1 F1200 X102.521 Y104.219 E32.14499
G1 X102.591 Y104.289
G0 F3600 X103.087 Y104.219
G1 F1200 X101.52 Y102.651 E32.21872
G1 X101.45 Y102.581
G0 F3600 X102.085 Y102.651
G1 F1200 X103.653 Y104.219 E32.29248
G1 X103.723 Y104.289
G0 F3600 X104.219 Y104.219
G1 F1200 X102.651 Y102.651 E32.36623
G1 X102.581 Y102.581
G0 F3600 X103.217 Y102.651
G1 F1200 X104.784 Y104.219 E32.43996
G1 X104.854 Y104.289
G0 F3600 X105.35 Y104.219
G1 F1200 X103.782 Y102.651 E32.51371
G1 X103.712 Y102.581
G0 F3600 X104.348 Y102.651
G1 F1200 X105.916 Y104.219 E32.58747
G1 X105.986 Y104.289
G0 F3600 X106.481 Y104.219
G1 F1200 X104.914 Y102.651 E32.6612
G1 X104.844 Y102.581
G0 F3600 X105.479 Y102.651
G1 F1200 X107.047 Y104.219 E32.73495
G1 X107.117 Y104.289
G0 F3600 X107.613 Y104.219
G1 F1200 X106.045 Y102.651 E32.80871
G1 X105.975 Y102.581
G0 F3600 X106.611 Y102.651
G1 F1200 X108.178 Y104.219 E32.88244
G1 X108.248 Y104.289
G0 F3600 X108.744 Y104.219
G1 F1200 X107.176 Y102.651 E32.95619
G1 X107.106 Y102.581
G0 F3600 X107.742 Y102.651
G1 F1200 X109.31 Y104.219 E33.02994
G1 X109.38 Y104.289
G0 F3600 X109.875 Y104.219
G1 F1200 X108.308 Y102.651 E33.10367
G1 X108.238 Y102.581
G0 F3600 X108.873 Y102.651
G1 F1200 X110.441 Y104.219 E33.17743
G1 X110.511 Y104.289
G0 F3600 X111.007 Y104.219
G1 F1200 X109.439 Y102.651 E33.25118
G1 X109.369 Y102.581
G0 F3600 X110.005 Y102.651
G1 F1200 X111.572 Y104.219 E33.32491
G1 X111.642 Y104.289
G0 F3600 X112.138 Y104.219
G1 F1200 X110.57 Y102.651 E33.39867
G1 X110.5 Y102.581
G0 F3600 X111.136 Y102.651
G1 F1200 X112.704 Y104.219 E33.47242
G1 X112.774 Y104.289
G0 F3600 X113.27 Y104.219
G1 F1200 X111.702 Y102.651 E33.54617
G1 X111.632 Y102.581
G0 F3600 X112.268 Y102.651
G1 F1200 X113.835 Y104.219 E33.61991
G1 X113.905 Y104.289
G0 F3600 X114.401 Y104.219
G1 F1200 X112.833 Y102.651 E33.69366
G1 X112.763 Y102.581
