;FLAVOR:Marlin
;TIME:9584
;Filament used: 6.51005m
;Layer height: 0.2
;Generated with Cura_SteamEngine master
M104 S200
M109 S200
; -- START GCODE --
G21                     ;set units to millimetres
G90                     ;set to absolute positioning
M106 S0                 ;set fan speed to zero (turned off)
G28 X0 Y0               ;move to the X/Y origin (Home)
G28 Z0                  ;move to the Z origin (Home)
G1 Z15.0 F1200          ;move Z to position 15.0 mm
G92 E0                  ;zero the extruded length
G1 E20 F200             ;extrude 20mm of feed stock
G92 E0                  ;zero the extruded length again
G1 F7200                ;set feedrate to 120 mm/s
; -- end of START GCODE --
;LAYER_COUNT:38
;LAYER:0
M107
G0 F3600 X71.683 Y34.452 Z0.2
G0 X71.519 Y34.931
;TYPE:SKIRT
G1 F1200 X71.683 Y34.452 E0.01684
G1 X71.92 Y34.006 E0.03364
G1 X72.225 Y33.603 E0.05045
G1 X72.589 Y33.252 E0.06727
G1 X73.005 Y32.964 E0.08409
G1 X73.46 Y32.744 E0.1009
G1 X73.944 Y32.599 E0.11771
G1 X74.616 Y32.527 E0.14019
G1 X91.681 Y32.517 E0.70777
G1 X91.76 Y32.518 E0.7104
G1 X95.026 Y32.597 E0.81906
G1 X117.672 Y32.517 E1.57227
G1 X117.76 Y32.518 E1.5752
G1 X121.027 Y32.597 E1.68389
G1 X144.372 Y32.527 E2.46035
G1 X144.877 Y32.565 E2.4772
G1 X145.368 Y32.683 E2.49399
G1 X145.835 Y32.876 E2.5108
G1 X146.266 Y33.141 E2.52763
G1 X146.65 Y33.47 E2.54445
G1 X146.977 Y33.855 E2.56125
G1 X147.24 Y34.287 E2.57807
G1 X147.431 Y34.755 E2.59488
G1 X147.529 Y35.145 E2.60826
G1 X148.105 Y38.26 E2.71362
G1 X149.344 Y43.617 E2.8965
G1 X150.876 Y48.87 E3.07849
G1 X152.704 Y54.029 E3.26053
G1 X154.817 Y59.067 E3.44224
G1 X157.219 Y63.997 E3.62464
G1 X159.897 Y68.783 E3.80705
G1 X162.836 Y73.402 E3.98914
G1 X166.021 Y77.832 E4.17061
G1 X169.497 Y82.132 E4.35451
G1 X170.789 Y83.615 E4.41993
G1 X171.09 Y84.022 E4.43677
G1 X171.323 Y84.47 E4.45356
G1 X171.483 Y84.95 E4.47039
G1 X171.565 Y85.449 E4.48721
G1 X171.576 Y85.717 E4.49613
G1 X171.58 Y127.19 E5.87553
G1 X171.54 Y127.694 E5.89234
G1 X171.421 Y128.185 E5.90915
G1 X171.227 Y128.652 E5.92597
G1 X170.961 Y129.082 E5.94278
G1 X170.631 Y129.465 E5.9596
G1 X170.244 Y129.791 E5.97643
G1 X169.725 Y130.094 E5.99642
G1 X165.648 Y131.982 E6.14585
G1 X163.193 Y133.223 E6.23735
G1 X160.833 Y134.504 E6.32666
G1 X156.089 Y137.342 E6.51052
G1 X153.856 Y138.808 E6.59937
G1 X149.381 Y142.031 E6.78279
G1 X145.129 Y145.473 E6.96474
G1 X141.069 Y149.158 E7.14711
G1 X137.226 Y153.066 E7.3294
G1 X133.594 Y157.202 E7.51248
G1 X131.92 Y159.282 E7.60128
G1 X128.653 Y163.711 E7.78433
G1 X125.653 Y168.297 E7.9666
G1 X122.925 Y173.034 E8.14841
G1 X120.444 Y177.968 E8.3321
G1 X119.294 Y180.509 E8.42486
G1 X119.05 Y180.952 E8.44169
G1 X118.74 Y181.351 E8.45849
G1 X118.37 Y181.695 E8.47529
G1 X117.95 Y181.978 E8.49214
G1 X117.492 Y182.19 E8.50892
G1 X117.005 Y182.328 E8.52576
G1 X116.503 Y182.388 E8.54258
G1 X116.064 Y182.374 E8.55718
G1 X110.218 Y181.796 E8.75257
G1 X104.749 Y181.563 E8.93464
G1 X99.262 Y181.64 E9.11715
G1 X93.784 Y182.027 E9.29981
G1 X90.737 Y182.37 E9.40179
G1 X90.231 Y182.387 E9.41863
G1 X89.712 Y182.32 E9.43603
G1 X71.952 Y178.536 E10.03999
G1 X71.468 Y178.392 E10.05679
G1 X71.012 Y178.173 E10.07361
G1 X70.596 Y177.885 E10.09044
G1 X70.231 Y177.536 E10.10724
G1 X69.925 Y177.133 E10.12407
G1 X69.687 Y176.687 E10.14088
G1 X69.491 Y176.081 E10.16206
G1 X68.22 Y170.188 E10.36257
G1 X67.536 Y167.584 E10.45212
G1 X65.908 Y162.309 E10.63573
G1 X64.005 Y157.194 E10.81725
G1 X61.803 Y152.16 E11
G1 X59.335 Y147.29 E11.18159
G1 X56.587 Y142.553 E11.36374
G1 X53.57 Y137.971 E11.5462
G1 X50.308 Y133.579 E11.72816
G1 X46.796 Y129.369 E11.91051
G1 X43.279 Y125.591 E12.08219
G1 X42.965 Y125.195 E12.099
G1 X42.717 Y124.755 E12.1158
G1 X42.541 Y124.28 E12.13265
G1 X42.443 Y123.784 E12.14946
G1 X42.421 Y123.411 E12.16189
G1 X42.42 Y85.721 E13.41547
G1 X42.46 Y85.217 E13.43228
G1 X42.579 Y84.726 E13.44909
G1 X42.773 Y84.259 E13.4659
G1 X43.039 Y83.829 E13.48272
G1 X43.352 Y83.464 E13.49871
G1 X48.164 Y78.629 E13.7256
G1 X51.771 Y74.527 E13.90727
G1 X55.161 Y70.201 E14.09007
G1 X58.282 Y65.719 E14.27173
G1 X61.148 Y61.061 E14.45363
G1 X63.757 Y56.229 E14.63627
G1 X66.078 Y51.277 E14.81817
G1 X67.115 Y48.8 E14.90748
G1 X69.029 Y43.618 E15.09122
G1 X70.638 Y38.359 E15.27414
G1 X71.519 Y34.931 E15.39186
G1 F1500 E8.89186
G0 F3600 X73.945 Y36.331
G0 X75.224 Y36.331
G0 X75.28 Y36.387
G0 X75.21 Y36.317
;TYPE:WALL-INNER
G1 F1500 E15.39186
G1 F1200 X76.042 Y36.317 E15.41953
G1 X76.042 Y52.471 E15.95682
G1 X90.958 Y52.471 E16.45292
G1 X90.958 Y36.317 E16.99021
G1 X91.79 Y36.317 E17.01788
G1 X91.79 Y76.235 E18.34556
G1 X91.79 Y76.236 E18.34559
G1 X91.79 Y76.482 E18.35377
G1 X91.549 Y76.431 E18.35879
G1 X75.21 Y72.93 E18.91456
G1 X75.21 Y36.317 E20.13231
G0 F3600 X75.28 Y36.387
G0 X75.972 Y54.33
G0 X76.042 Y54.4
G1 F1200 X76.042 Y54.6 E20.13896
G1 X76.045 Y65.239 E20.49282
G1 X76.209 Y65.962 E20.51748
G1 X76.429 Y66.631 E20.5409
G1 X76.71 Y67.274 E20.56424
G1 X77.048 Y67.89 E20.58761
G1 X77.444 Y68.471 E20.611
G1 X77.888 Y69.013 E20.6343
G1 X78.383 Y69.51 E20.65763
G1 X78.921 Y69.961 E20.68098
G1 X79.499 Y70.36 E20.70434
G1 X80.113 Y70.703 E20.72773
G1 X80.754 Y70.988 E20.75106
G1 X81.42 Y71.213 E20.77444
G1 X82.103 Y71.374 E20.79778
G1 X82.798 Y71.471 E20.82112
G1 X83.5 Y71.503 E20.8445
G1 X84.2 Y71.472 E20.8678
G1 X84.896 Y71.375 E20.89117
G1 X85.579 Y71.214 E20.91451
G1 X86.245 Y70.989 E20.93789
G1 X86.886 Y70.704 E20.96123
G1 X87.5 Y70.361 E20.98462
G1 X88.078 Y69.962 E21.00798
G1 X88.616 Y69.511 E21.03133
G1 X89.111 Y69.014 E21.05466
G1 X89.555 Y68.472 E21.07796
G1 X89.951 Y67.891 E21.10135
G1 X90.289 Y67.275 E21.12472
G1 X90.57 Y66.632 E21.14806
G1 X90.79 Y65.963 E21.17148
G1 X90.954 Y65.24 E21.19614
G1 X90.958 Y54.6 E21.55003
G1 X90.958 Y54.4 E21.55668
G1 X90.758 Y54.4 E21.56099
G1 X76.242 Y54.4 E22.04379
G1 X76.042 Y54.4 E22.0481
G0 F3600 X76.442 Y54.8
;TYPE:WALL-OUTER
G1 F1200 X76.442 Y55 E22.05475
G1 X76.445 Y65.194 E22.3938
G1 X76.595 Y65.855 E22.41635
G1 X76.803 Y66.488 E22.43851
G1 X77.069 Y67.097 E22.46061
G1 X77.389 Y67.681 E22.48276
G1 X77.764 Y68.231 E22.5049
G1 X78.185 Y68.744 E22.52697
G1 X78.654 Y69.215 E22.54908
G1 X79.164 Y69.642 E22.5712
G1 X79.711 Y70.02 E22.59332
G1 X80.292 Y70.345 E22.61546
G1 X80.9 Y70.615 E22.63759
G1 X81.53 Y70.828 E22.65971
G1 X82.177 Y70.98 E22.68181
G1 X82.835 Y71.072 E22.70391
G1 X83.5 Y71.103 E22.72605
G1 X84.163 Y71.073 E22.74812
G1 X84.822 Y70.981 E22.77026
G1 X85.469 Y70.829 E22.79236
G1 X86.099 Y70.616 E22.81448
G1 X86.707 Y70.346 E22.83661
G1 X87.288 Y70.021 E22.85875
G1 X87.835 Y69.643 E22.88086
G1 X88.345 Y69.216 E22.90299
G1 X88.814 Y68.745 E22.92509
G1 X89.235 Y68.232 E22.94717
G1 X89.61 Y67.682 E22.96931
G1 X89.93 Y67.098 E22.99146
G1 X90.196 Y66.489 E23.01356
G1 X90.404 Y65.856 E23.03572
G1 X90.554 Y65.195 E23.05826
G1 X90.558 Y55 E23.39735
G1 X90.558 Y54.8 E23.404
G1 X90.358 Y54.8 E23.40831
G1 X76.642 Y54.8 E23.86451
G1 X76.442 Y54.8 E23.86881
G0 F3600 X76.442 Y55
G0 X75.942 Y55
G0 X75.942 Y52.071
G0 X76.442 Y52.071
G1 F1200 X90.558 Y52.071 E24.33831
G1 X90.558 Y36.385 E24.86003
G1 X84.843 Y36.385 E25.05011
G1 X84.843 Y35.917 E25.06568
G1 X92.19 Y35.917 E25.31004
G1 X92.19 Y76.73 E26.66749
G1 X92.19 Y76.731 E26.66752
G1 X92.19 Y76.977 E26.6757
G1 X91.949 Y76.926 E26.68071
G1 X74.81 Y73.253 E27.2637
G1 X74.81 Y35.917 E28.5055
G1 X82.157 Y35.917 E28.74987
G1 X82.157 Y36.385 E28.76543
G1 X76.442 Y36.385 E28.95551
G1 X76.442 Y52.071 E29.47723
G0 F3600 X76.642 Y52.071
G0 X76.642 Y52.571
G0 X76.014 Y54.372
G0 X75.388 Y72.56
;TYPE:SKIN
G1 F1200 X75.673 Y72.844 E29.49061
G0 F3600 X76.392 Y72.998
G1 F1200 X75.388 Y71.994 E29.53784
G1 X75.318 Y71.924
G0 F3600 X75.388 Y71.429
G1 F1200 X77.112 Y73.153 E29.61893
G1 X77.182 Y73.223
G0 F3600 X77.832 Y73.307
G1 F1200 X75.388 Y70.863 E29.73389
G1 X75.318 Y70.793
G0 F3600 X75.388 Y70.297
G1 F1200 X78.552 Y73.461 E29.88271
G1 X78.622 Y73.531
G0 F3600 X79.272 Y73.615
G1 F1200 X75.388 Y69.732 E30.06538
G1 X75.318 Y69.662
G0 F3600 X75.388 Y69.166
G1 F1200 X79.992 Y73.77 E30.28194
G1 X80.062 Y73.84
G0 F3600 X80.712 Y73.924
G1 F1200 X75.388 Y68.6 E30.53236
G1 X75.318 Y68.53
G0 F3600 X75.388 Y68.034
G1 F1200 X81.432 Y74.078 E30.81666
G1 X81.502 Y74.148
G0 F3600 X82.152 Y74.232
G1 F1200 X75.388 Y67.469 E31.13479
G1 X75.318 Y67.399
G0 F3600 X75.388 Y66.903
G1 F1200 X82.872 Y74.386 E31.48679
G1 X82.942 Y74.456
G0 F3600 X83.592 Y74.541
G1 F1200 X79.768 Y70.717 E31.66666
G1 X79.698 Y70.647
G0 F3600 X80.816 Y71.199
G1 F1200 X84.312 Y74.695 E31.8311
G1 X84.382 Y74.765
G0 F3600 X85.032 Y74.85
G1 F1200 X81.63 Y71.448 E31.99112
G1 X81.56 Y71.378
G0 F3600 X82.336 Y71.588
G1 F1200 X85.752 Y75.004 E32.1518
G1 X85.822 Y75.074
G0 F3600 X86.472 Y75.158
G1 F1200 X82.972 Y71.658 E32.31643
G1 X82.902 Y71.588
G0 F3600 X83.56 Y71.68
G1 F1200 X87.191 Y75.312 E32.48724
G1 X87.261 Y75.382
G0 F3600 X87.911 Y75.466
G1 F1200 X84.101 Y71.656 E32.66645
G1 X84.031 Y71.586
G0 F3600 X84.607 Y71.596
G1 F1200 X88.631 Y75.62 E32.85573
G1 X88.701 Y75.69
G0 F3600 X89.352 Y75.775
G1 F1200 X85.091 Y71.515 E33.05613
G1 X85.021 Y71.445
G0 F3600 X85.548 Y71.406
G1 F1200 X90.071 Y75.929 E33.26888
G1 X90.141 Y75.999
G0 F3600 X90.791 Y76.083
G1 F1200 X85.977 Y71.269 E33.49532
G1 X85.907 Y71.199
G0 F3600 X86.394 Y71.12
G1 F1200 X91.511 Y76.238 E33.73603
G1 X91.581 Y76.308
G0 F3600 X91.609 Y75.77
G1 F1200 X86.785 Y70.946 E33.96293
G1 X86.715 Y70.876
G0 F3600 X87.161 Y70.756
G1 F1200 X91.609 Y75.204 E34.17215
G1 X91.679 Y75.274
G0 F3600 X91.609 Y74.638
G1 F1200 X87.524 Y70.553 E34.3643
G1 X87.454 Y70.483
G0 F3600 X87.864 Y70.328
G1 F1200 X91.609 Y74.072 E34.54043
G1 X91.679 Y74.142
G0 F3600 X91.609 Y73.507
G1 F1200 X88.198 Y70.096 E34.70087
G1 X88.128 Y70.026
G0 F3600 X88.505 Y69.838
G1 F1200 X91.609 Y72.941 E34.84685
G1 X91.679 Y73.011
G0 F3600 X91.609 Y72.375
G1 F1200 X88.806 Y69.572 E34.9787
G1 X88.736 Y69.502
G0 F3600 X89.089 Y69.29
G1 F1200 X91.609 Y71.81 E35.09723
G1 X91.679 Y71.88
G0 F3600 X91.609 Y71.244
G1 F1200 X89.359 Y68.994 E35.20306
G1 X89.289 Y68.924
G0 F3600 X89.613 Y68.683
G1 F1200 X91.609 Y70.678 E35.29692
G1 X91.679 Y70.748
G0 F3600 X91.609 Y70.113
G1 F1200 X89.851 Y68.355 E35.37961
G1 X89.781 Y68.285
G0 F3600 X90.08 Y68.018
G1 F1200 X91.609 Y69.547 E35.45153
G1 X91.679 Y69.617
G0 F3600 X91.609 Y68.981
G1 F1200 X90.284 Y67.656 E35.51386
G1 X90.214 Y67.586
G0 F3600 X90.479 Y67.286
G1 F1200 X91.609 Y68.416 E35.56701
G1 X91.679 Y68.486
G0 F3600 X91.609 Y67.85
G1 F1200 X90.651 Y66.892 E35.61207
G1 X90.581 Y66.822
G0 F3600 X90.807 Y66.482
G1 F1200 X91.609 Y67.284 E35.6498
G1 X91.679 Y67.354
G0 F3600 X91.609 Y66.719
G1 F1200 X90.947 Y66.057 E35.68093
G1 X90.877 Y65.987
G0 F3600 X91.332 Y65.876
G1 F1200 X91.371 Y65.349 E35.70519
G1 X91.371 Y64.784 E35.72755
G1 X91.371 Y64.218 E35.74995
G1 X91.371 Y63.652 E35.77235
G1 X91.371 Y63.086 E35.79471
G1 X91.371 Y62.521 E35.81703
G1 X91.371 Y61.955 E35.83938
G1 X91.371 Y61.389 E35.86174
G1 X91.371 Y60.824 E35.88405
G1 X91.371 Y60.259 E35.90637
G1 X91.371 Y59.693 E35.92872
G1 X91.371 Y59.127 E35.95108
G1 X91.372 Y58.562 E35.97334
G1 X91.372 Y57.996 E35.99565
G1 X91.372 Y57.431 E36.01792
G1 X91.372 Y56.865 E36.04023
G1 X91.372 Y56.299 E36.06249
G1 X91.372 Y55.734 E36.08471
G1 X91.372 Y55.168 E36.10697
G1 X91.372 Y54.602 E36.12923
G0 F3600 X90.989 Y54.219
G1 F1200 X89.42 Y52.651 E36.20301
G1 X89.35 Y52.581
G0 F3600 X88.855 Y52.651
G1 F1200 X90.423 Y54.219 E36.27676
G1 X90.493 Y54.289
G0 F3600 X89.857 Y54.219
G1 F1200 X88.289 Y52.651 E36.35052
G1 X88.219 Y52.581
G0 F3600 X87.723 Y52.651
G1 F1200 X89.292 Y54.219 E36.4243
G1 X89.362 Y54.289
G0 F3600 X88.726 Y54.219
G1 F1200 X87.157 Y52.651 E36.49807
G1 X87.087 Y52.581
G0 F3600 X86.592 Y52.651
G1 F1200 X88.16 Y54.219 E36.57183
G1 X88.23 Y54.289
G0 F3600 X87.594 Y54.219
G1 F1200 X86.026 Y52.651 E36.64558
G1 X85.956 Y52.581
G0 F3600 X85.46 Y52.651
G1 F1200 X87.029 Y54.219 E36.71936
G1 X87.099 Y54.289
G0 F3600 X86.463 Y54.219
G1 F1200 X84.895 Y52.651 E36.79311
G1 X84.825 Y52.581
G0 F3600 X84.329 Y52.651
G1 F1200 X85.897 Y54.219 E36.86687
G1 X85.967 Y54.289
G0 F3600 X85.332 Y54.219
G1 F1200 X83.763 Y52.651 E36.94064
G1 X83.693 Y52.581
G0 F3600 X83.198 Y52.651
G1 F1200 X84.766 Y54.219 E37.0144
G1 X84.836 Y54.289
G0 F3600 X84.2 Y54.219
G1 F1200 X82.632 Y52.651 E37.08815
G1 X82.562 Y52.581
G0 F3600 X82.066 Y52.651
G1 F1200 X83.635 Y54.219 E37.16193
G1 X83.705 Y54.289
G0 F3600 X83.069 Y54.219
G1 F1200 X81.501 Y52.651 E37.23568
G1 X81.431 Y52.581
G0 F3600 X80.935 Y52.651
G1 F1200 X82.503 Y54.219 E37.30944
G1 X82.573 Y54.289
G0 F3600 X81.938 Y54.219
G1 F1200 X80.369 Y52.651 E37.38321
G1 X80.299 Y52.581
G0 F3600 X79.804 Y52.651
G1 F1200 X81.372 Y54.219 E37.45697
G1 X81.442 Y54.289
G0 F3600 X80.806 Y54.219
G1 F1200 X79.238 Y52.651 E37.53072
G1 X79.168 Y52.581
G0 F3600 X78.672 Y52.651
G1 F1200 X80.241 Y54.219 E37.6045
G1 X80.311 Y54.289
G0 F3600 X79.675 Y54.219
G1 F1200 X78.107 Y52.651 E37.67825
G1 X78.037 Y52.581
G0 F3600 X77.541 Y52.651
G1 F1200 X79.109 Y54.219 E37.75201
G1 X79.179 Y54.289
G0 F3600 X78.544 Y54.219
G1 F1200 X76.975 Y52.651 E37.82578
G1 X76.905 Y52.581
G0 F3600 X76.409 Y52.651
G1 F1200 X77.978 Y54.219 E37.89956
G1 X78.048 Y54.289
G0 F3600 X77.412 Y54.219
G1 F1200 X75.388 Y52.195 E37.99476
G1 X75.318 Y52.125
G0 F3600 X75.624 Y51.866
G1 F1200 X75.624 Y51.3 E38.01703
G1 X75.624 Y50.734 E38.03929
G1 X75.624 Y50.169 E38.06151
G1 X75.624 Y49.603 E38.08377
G1 X75.624 Y49.037 E38.10603
G1 X75.624 Y48.471 E38.12829
G1 X75.624 Y47.906 E38.15051
G1 X75.624 Y47.34 E38.17277
G1 X75.624 Y46.774 E38.19503
G1 X75.624 Y46.209 E38.21726
G1 X75.624 Y45.643 E38.23952
G1 X75.624 Y45.077 E38.26178
G1 X75.624 Y44.512 E38.284
G1 X75.624 Y43.946 E38.30626
G1 X75.624 Y43.38 E38.32852
G1 X75.624 Y42.815 E38.35074
G1 X75.624 Y42.249 E38.373
G1 X75.624 Y41.683 E38.39526
G1 X75.624 Y41.118 E38.41748
G1 X75.624 Y40.552 E38.43975
G1 X75.624 Y39.986 E38.46201
G1 X75.624 Y39.421 E38.48423
G1 X75.624 Y38.855 E38.50649
G1 X75.624 Y38.289 E38.52875
G1 X75.624 Y37.723 E38.55101
G1 X75.624 Y37.158 E38.57323
G1 X75.695 Y36.662 E38.59215
G0 F3600 X75.861 Y36.828
G0 X76.014 Y52.499
G0 X90.986 Y52.499
G0 X91.137 Y36.831
G0 X91.373 Y37.067
G1 F1200 X91.373 Y37.633 E38.61436
G1 X91.373 Y38.198 E38.63654
G1 X91.373 Y38.764 E38.65875
G1 X91.373 Y39.33 E38.68096
G1 X91.373 Y39.895 E38.70314
G1 X91.373 Y40.461 E38.72535
G1 X91.373 Y41.027 E38.74757
G1 X91.373 Y41.592 E38.76974
G1 X91.373 Y42.158 E38.79195
G1 X91.373 Y42.724 E38.81417
G1 X91.373 Y43.289 E38.83634
G1 X91.373 Y43.855 E38.85856
G1 X91.373 Y44.421 E38.88077
G1 X91.373 Y44.987 E38.90298
G1 X91.373 Y45.552 E38.92516
G1 X91.373 Y46.118 E38.94737
G1 X91.373 Y46.684 E38.96959
G1 X91.373 Y47.249 E38.99176
G1 X91.373 Y47.815 E39.01397
G1 X91.373 Y48.381 E39.03619
G1 X91.373 Y48.946 E39.05836
G1 X91.373 Y49.512 E39.08058
G1 X91.373 Y50.078 E39.10279
G1 X91.373 Y50.643 E39.12496
G1 X91.373 Y51.209 E39.14718
G1 X91.373 Y51.775 E39.16939
G1 X91.373 Y52.34 E39.19157
G1 X91.363 Y52.896 E39.21422
G0 F3600 X91.609 Y53.708
G1 F1200 X90.552 Y52.651 E39.26394
G1 X90.482 Y52.581
G0 F3600 X89.986 Y52.651
G1 F1200 X91.609 Y54.273 E39.34026
G1 X91.679 Y54.343
G0 F3600 X76.846 Y54.219
G1 F1200 X75.388 Y52.761 E39.40884
G1 X75.318 Y52.691
G0 F3600 X75.388 Y53.327
G1 F1200 X76.281 Y54.219 E39.45082
G1 X76.351 Y54.289
G0 F3600 X75.624 Y54.128
G1 F1200 X75.624 Y54.694 E39.47308
G1 X75.624 Y55.26 E39.49534
G1 X75.624 Y55.825 E39.51756
G1 X75.624 Y56.391 E39.53982
G1 X75.625 Y56.958 E39.56208
G1 X75.625 Y57.523 E39.58434
G1 X75.625 Y58.089 E39.60665
G1 X75.625 Y58.655 E39.62896
G1 X75.625 Y59.22 E39.65123
G1 X75.625 Y59.786 E39.67354
G1 X75.625 Y60.352 E39.69589
G1 X75.625 Y60.918 E39.71825
G1 X75.625 Y61.483 E39.74056
G1 X75.625 Y62.049 E39.76292
G1 X75.626 Y62.615 E39.78522
G1 X75.626 Y63.18 E39.80759
G1 X75.626 Y63.746 E39.82999
G1 X75.626 Y64.312 E39.85239
G1 X75.626 Y64.878 E39.87479
G1 X75.688 Y65.506 E39.90009
G1 X76.059 Y65.876
G0 F3600 X75.388 Y65.772
G1 F1200 X76.234 Y66.617 E39.93985
G1 X76.304 Y66.687
G0 F3600 X75.388 Y66.337
G1 F1200 X76.722 Y67.671 E40.0026
