; generated by Slic3r 1.2.9 on 2017-09-28 at 12:52:06

; external perimeters extrusion width = 0.40mm
; perimeters extrusion width = 0.68mm
; infill extrusion width = 1.28mm
; solid infill extrusion width = 0.68mm
; top infill extrusion width = 0.68mm

M107
M104 S220 ; set temperature
; -- START GCODE --
	G90                     ;set to absolute positioning
G28                     ;move to Home
G92 E0                  ;zero the extruded length
G1 F7200                ;set feedrate to travel_speed value
; -- end of START GCODE --
M109 S220 ; wait for temperature to be reached
G21 ; set units to millimeters
G90 ; use absolute coordinates
M82 ; use absolute distances for extrusion
G92 E0
G1 Z0.400 F9000.000
G1 E-4.00000 F2400.00000
G92 E0
G1 X93.437 Y81.099 F9000.000
G1 E4.00000 F2400.00000
G1 X95.193 Y79.600 E4.27422 F1800.000
G1 X97.353 Y78.784 E4.54845
G1 X98.610 Y78.665 E4.69842
G1 X116.390 Y78.665 E6.81006
G1 X118.665 Y79.062 E7.08429
G1 X120.670 Y80.206 E7.35851 F1800.000
G1 X122.170 Y81.962 E7.63274
G1 X122.985 Y84.122 E7.90696
G1 X123.104 Y85.379 E8.05693
G1 X123.104 Y123.415 E12.57424
G1 X122.707 Y125.690 E12.84847
G1 X121.563 Y127.695 E13.12269
G1 X119.807 Y129.195 E13.39692
G1 X117.797 Y129.980 E13.65326
G1 X100.262 Y133.738 E15.78311
G1 X98.855 Y133.887 E15.95113
G1 X98.610 Y133.887 E15.98019
G1 X96.335 Y133.490 E16.25442
G1 X94.330 Y132.346 E16.52864
G1 X92.830 Y130.590 E16.80287
G1 X92.015 Y128.430 E17.07709
G1 X91.896 Y127.173 E17.22706
G1 X91.896 Y85.379 E22.19064
G1 X92.293 Y83.105 E22.46487
G1 X93.407 Y81.151 E22.73197
G1 E18.73197 F2400.00000
G92 E0
G1 X114.758 Y104.600 F9000.000
G1 E4.00000 F2400.00000
G1 X114.758 Y115.205 E5.25948 F1800.000
G1 X114.601 Y115.896 E5.34369
G1 X114.389 Y116.546 E5.42480
G1 X114.118 Y117.172 E5.50592
G1 X113.790 Y117.771 E5.58702
G1 X113.408 Y118.337 E5.66810
G1 X112.976 Y118.865 E5.74912
G1 X112.496 Y119.350 E5.83011
G1 X111.953 Y119.805 E5.91433
G1 X111.390 Y120.193 E5.99549
G1 X110.794 Y120.526 E6.07662
G1 X110.169 Y120.803 E6.15776
G1 X109.522 Y121.021 E6.23887
G1 X108.886 Y121.171 E6.31643
G1 X108.182 Y121.272 E6.40095
G1 X107.500 Y121.304 E6.48200
G1 X106.819 Y121.272 E6.56297
G1 X106.143 Y121.177 E6.64402
G1 X105.478 Y121.021 E6.72512
G1 X104.831 Y120.803 E6.80625
G1 X104.206 Y120.526 E6.88739
G1 X103.610 Y120.193 E6.96852
G1 X103.047 Y119.805 E7.04968
G1 X102.504 Y119.350 E7.13390
G1 X102.024 Y118.865 E7.21489
G1 X101.592 Y118.337 E7.29591
G1 X101.210 Y117.771 E7.37699
G1 X100.882 Y117.172 E7.45808
G1 X100.621 Y116.569 E7.53617
G1 X100.399 Y115.897 E7.62024
G1 X100.242 Y115.205 E7.70453
G1 X100.242 Y104.600 E8.96400
G1 X114.698 Y104.600 E10.68087
G1 X115.158 Y104.600 F9000.000
G1 X115.276 Y103.886 F9000.000
G1 X99.724 Y103.886 E12.52787 F1800.000
G1 X99.724 Y102.985 E12.63486
G1 X115.276 Y102.985 E14.48186
G1 X115.276 Y103.826 E14.58172
G1 X114.562 Y119.183 F9000.000
G1 X114.562 Y121.937 E14.90883 F1800.000
G1 X100.438 Y124.963 E16.62427
G1 X100.438 Y119.183 E17.31082
G1 X100.962 Y119.821 E17.40889
G1 X101.535 Y120.401 E17.50574
G1 X102.182 Y120.944 E17.60600
G1 X102.855 Y121.407 E17.70305
G1 X103.567 Y121.805 E17.79994
G1 X104.313 Y122.136 E17.89683
G1 X105.086 Y122.396 E17.99371
G1 X105.880 Y122.583 E18.09055
G1 X106.687 Y122.696 E18.18733
G1 X107.500 Y122.733 E18.28402
G1 X108.316 Y122.696 E18.38108
G1 X109.152 Y122.576 E18.48139
G1 X109.915 Y122.395 E18.57440
G1 X110.687 Y122.136 E18.67120
G1 X111.433 Y121.805 E18.76809
G1 X112.145 Y121.407 E18.86498
G1 X112.818 Y120.944 E18.96203
G1 X113.465 Y120.401 E19.06229
G1 X114.038 Y119.821 E19.15914
G1 X114.524 Y119.229 E19.25008
G1 X114.934 Y117.084 F9000.000
G1 X115.276 Y117.155 E19.29151 F1800.000
G1 X115.276 Y122.514 E19.92799
G1 X99.724 Y125.847 E21.81691
G1 X99.724 Y117.156 E22.84914
G1 X100.066 Y117.085 E22.89056
G1 X100.240 Y117.487 E22.94258
G1 X100.600 Y118.143 E23.03152
G1 X101.019 Y118.764 E23.12047
G1 X101.493 Y119.343 E23.20936
G1 X102.019 Y119.876 E23.29828
G1 X102.615 Y120.374 E23.39052
G1 X103.233 Y120.800 E23.47962
G1 X103.887 Y121.166 E23.56863
G1 X104.572 Y121.469 E23.65765
G1 X105.282 Y121.708 E23.74665
G1 X106.011 Y121.880 E23.83562
G1 X106.753 Y121.984 E23.92453
G1 X107.500 Y122.018 E24.01337
G1 X108.249 Y121.984 E24.10242
G1 X109.019 Y121.873 E24.19483
G1 X109.718 Y121.708 E24.28012
G1 X110.428 Y121.469 E24.36908
G1 X111.113 Y121.166 E24.45809
G1 X111.767 Y120.800 E24.54710
G1 X112.385 Y120.374 E24.63621
G1 X112.981 Y119.876 E24.72845
G1 X113.507 Y119.343 E24.81737
G1 X113.981 Y118.764 E24.90626
G1 X114.400 Y118.143 E24.99520
G1 X114.760 Y117.486 E25.08417
G1 X114.910 Y117.140 E25.12906
G1 X114.758 Y102.271 F9000.000
G1 X114.758 Y85.779 E27.08768 F1800.000
G1 X115.990 Y85.779 E27.23400
G1 X115.990 Y123.092 E31.66541
G1 X99.010 Y126.730 E33.72782
G1 X99.010 Y85.779 E38.59136
G1 X100.242 Y85.779 E38.73768
G1 X100.242 Y102.271 E40.69630
G1 X114.698 Y102.271 E42.41317
G1 X115.158 Y102.271 F9000.000
G1 E38.41317 F2400.00000
G92 E0
G1 X115.358 Y86.379 F9000.000
G1 X115.358 Y86.379 F9000.000
G1 X100.642 Y85.982 F9000.000
G1 E4.00000 F2400.00000
G1 X106.357 Y85.982 E4.67874 F1800.000
G1 E0.67874 F2400.00000
G92 E0
G1 X115.358 Y86.379 F9000.000
G1 X115.358 Y86.379 F9000.000
G1 X108.643 Y85.982 F9000.000
G1 E4.00000 F2400.00000
G1 X114.358 Y85.982 E4.67874 F1800.000
G1 X115.374 Y86.136 F9000.000
G1 X115.374 Y102.628 E8.83140 F1800.000
G1 X114.919 Y103.435 F9000.000
G1 X100.081 Y103.435 E10.59358 F1800.000
G1 X99.626 Y104.243 F9000.000
G1 X99.626 Y115.245 E13.36390 F1800.000
G1 X99.715 Y116.069 E13.57276
G1 X99.827 Y116.770 E13.75130
G1 X101.214 Y124.381 F9000.000
G1 X100.874 Y124.041 E13.81862 F1800.000
G1 X100.874 Y122.850 E13.98551
G1 X102.195 Y124.171 E14.24720
G1 X103.176 Y123.960 E14.38775
G1 X100.874 Y121.658 E14.84380
G1 X101.625 Y121.218 E14.96575
G1 X104.157 Y123.750 E15.46741
G1 X104.222 Y122.624 E15.62547
G1 X104.576 Y122.978 E15.69572
G1 X105.008 Y123.183 F9000.000
G1 X105.778 Y123.190 E15.78716 F1800.000
G1 X106.639 Y123.159 E15.88943
G1 X107.315 Y123.103 E15.97005
G1 X111.429 Y122.221 F9000.000
G1 X112.533 Y121.814 E16.10987 F1800.000
G1 X112.531 Y121.809 F9000.000
G1 X113.258 Y121.495 E16.30928 F1800.000
G1 X114.205 Y121.033 E16.57452
G1 X115.174 Y116.769 F9000.000
G1 X115.285 Y116.068 E16.75329 F1800.000
G1 X115.374 Y115.245 E16.96187
G1 X115.374 Y104.243 E19.73218
G1 X99.626 Y102.628 F9000.000
G1 X99.626 Y86.136 E23.88484 F1800.000
G1 Z0.500 F9000.000
G1 E19.88484 F2400.00000
G92 E0
G1 X115.077 Y104.281 F9000.000
G1 E4.00000 F2400.00000
G1 X115.077 Y115.240 E4.30004 F2100.000
G1 X114.909 Y115.979 E4.32078
G1 X114.689 Y116.655 E4.34023
G1 X114.407 Y117.307 E4.35969
G1 X114.066 Y117.930 E4.37914
G1 X113.670 Y118.519 E4.39857
G1 X113.222 Y119.068 E4.41798
G1 X112.724 Y119.573 E4.43738
G1 X112.134 Y120.068 E4.45848
G1 X111.546 Y120.471 E4.47797
G1 X110.925 Y120.817 E4.49744
G1 X110.275 Y121.104 E4.51691
G1 X109.601 Y121.329 E4.53635
G1 X108.977 Y121.477 E4.55393
G1 X108.210 Y121.590 E4.57516
G1 X107.500 Y121.622 E4.59461
G1 X106.793 Y121.590 E4.61398
G1 X106.091 Y121.492 E4.63340
G1 X105.399 Y121.330 E4.65285
G1 X104.725 Y121.104 E4.67231
G1 X104.075 Y120.817 E4.69178
G1 X103.454 Y120.471 E4.71124
G1 X102.866 Y120.068 E4.73074
G1 X102.276 Y119.573 E4.75184
G1 X101.778 Y119.068 E4.77124
G1 X101.330 Y118.519 E4.79065
G1 X100.934 Y117.930 E4.81008
G1 X100.593 Y117.307 E4.82952
G1 X100.334 Y116.709 E4.84737
G1 X100.091 Y115.981 E4.86837
G1 X99.923 Y115.240 E4.88917
G1 X99.923 Y104.281 E5.18921
G1 X115.017 Y104.281 E5.60244
G1 X114.558 Y104.800 F9000.000
G1 X114.558 Y115.182 E5.76584 F1050.000
G1 X114.409 Y115.841 E5.77647
G1 X114.203 Y116.471 E5.78690
G1 X113.941 Y117.079 E5.79733
G1 X113.623 Y117.661 E5.80775
G1 X113.253 Y118.209 E5.81816
G1 X112.835 Y118.721 E5.82857
G1 X112.372 Y119.191 E5.83895
G1 X111.820 Y119.654 E5.85029
G1 X111.273 Y120.029 E5.86073
G1 X110.694 Y120.352 E5.87116
G1 X110.087 Y120.620 E5.88159
G1 X109.459 Y120.830 E5.89202
G1 X108.879 Y120.967 E5.90140
G1 X108.160 Y121.073 E5.91284
G1 X107.500 Y121.103 E5.92324
G1 X106.841 Y121.073 E5.93362
G1 X106.186 Y120.982 E5.94403
G1 X105.541 Y120.830 E5.95445
G1 X104.913 Y120.620 E5.96489
G1 X104.306 Y120.352 E5.97532
G1 X103.727 Y120.029 E5.98575
G1 X103.180 Y119.654 E5.99619
G1 X102.628 Y119.191 E6.00753
G1 X102.165 Y118.721 E6.01791
G1 X101.747 Y118.209 E6.02832
G1 X101.377 Y117.661 E6.03873
G1 X101.059 Y117.079 E6.04915
G1 X100.819 Y116.523 E6.05869
G1 X100.591 Y115.842 E6.07000
G1 X100.442 Y115.182 E6.08064
G1 X100.442 Y104.800 E6.24403
G1 X114.498 Y104.800 E6.46524
G1 X114.958 Y104.800 F9000.000
G1 X114.716 Y118.116 F9000.000
G1 X115.013 Y118.192 E6.47365 F2100.000
G1 X115.013 Y122.302 E6.58618
G1 X99.987 Y125.522 E7.00691
G1 X99.987 Y118.192 E7.20759
G1 X100.284 Y118.116 E7.21600
G1 X100.370 Y118.273 E7.22090
G1 X100.801 Y118.912 E7.24200
G1 X101.288 Y119.508 E7.26307
G1 X101.828 Y120.057 E7.28417
G1 X102.468 Y120.593 E7.30701
G1 X103.106 Y121.031 E7.32821
G1 X103.781 Y121.407 E7.34935
G1 X104.487 Y121.719 E7.37048
G1 X105.219 Y121.964 E7.39162
G1 X105.970 Y122.140 E7.41273
G1 X106.732 Y122.246 E7.43381
G1 X107.500 Y122.282 E7.45485
G1 X108.273 Y122.246 E7.47603
G1 X109.100 Y122.125 E7.49894
G1 X109.782 Y121.963 E7.51812
G1 X110.513 Y121.719 E7.53922
G1 X111.219 Y121.407 E7.56036
G1 X111.894 Y121.031 E7.58149
G1 X112.532 Y120.593 E7.60269
G1 X113.172 Y120.057 E7.62553
G1 X113.712 Y119.508 E7.64663
G1 X114.199 Y118.912 E7.66770
G1 X114.687 Y118.168 E7.69205
G1 X115.077 Y102.589 F9000.000
G1 X115.077 Y85.517 E8.15947 F2100.000
G1 X115.671 Y85.517 E8.17576
G1 X115.671 Y122.834 E9.19745
G1 X99.329 Y126.336 E9.65506
G1 X99.329 Y85.517 E10.77263
G1 X99.923 Y85.517 E10.78892
G1 X99.923 Y102.589 E11.25634
G1 X115.017 Y102.589 E11.66957
G1 X114.558 Y102.071 F9000.000
G1 X114.558 Y86.385 E11.91643 F1050.000
G1 X108.843 Y86.385 E12.00637
G1 X108.843 Y85.179 E12.02535
G1 X108.843 Y84.999 E12.03478 F3600.000
G1 X116.190 Y84.999 E12.41862
G1 X116.190 Y85.179 E12.42805
G1 X116.190 Y123.253 E13.02726 F1050.000
G1 X99.139 Y126.907 E13.30169
G1 X98.810 Y126.907 E13.30687
G1 X98.810 Y85.179 E13.96358
G1 X98.810 Y84.999 E13.97301 F3600.000
G1 X106.157 Y84.999 E14.35685
G1 X106.157 Y85.179 E14.36628
G1 X106.157 Y86.385 E14.38526 F1050.000
G1 X100.442 Y86.385 E14.47520
G1 X100.442 Y102.071 E14.72206
G1 X114.498 Y102.071 E14.94327
G1 X114.958 Y102.071 F9000.000
G1 X115.342 Y103.435 F9000.000
G1 X99.658 Y103.435 E15.81611 F1200.000
G1 X99.676 Y115.720 F9000.000
G1 X99.847 Y116.886 E15.84838 F1200.000
G1 X100.044 Y117.837 E15.87497
G1 X100.387 Y119.646 F9000.000
G1 X100.701 Y119.332 E15.88741 F1200.000
G1 X101.141 Y119.847 E15.90642
G1 X100.387 Y120.600 E15.93633
G1 X100.387 Y121.555 E15.96313
G1 X101.616 Y120.326 E16.01189
G1 X102.135 Y120.762 E16.03091
G1 X100.387 Y122.510 E16.10028
G1 X100.387 Y123.464 E16.12708
G1 X102.688 Y121.163 E16.21841
G1 X103.279 Y121.527 E16.23788
G1 X100.387 Y124.419 E16.35266
G1 X100.871 Y124.890 E16.37161
G1 X103.909 Y121.852 E16.49219
G1 X104.582 Y122.133 E16.51267
G1 X102.086 Y124.630 E16.61176
G1 X103.301 Y124.369 E16.64664
G1 X105.304 Y122.366 E16.72616
G1 X106.083 Y122.542 E16.74857
G1 X104.516 Y124.109 E16.81077
G1 X105.731 Y123.848 E16.84565
G1 X106.930 Y122.650 E16.89324
G1 X107.269 Y123.265 E16.91296
G1 X106.946 Y123.588 E16.92579
G1 X107.631 Y123.071 F9000.000
G1 X108.363 Y122.975 E16.96688 F1200.000
G1 X109.249 Y122.815 E17.01699
G1 X109.995 Y122.646 E17.05956
G1 X111.155 Y122.328 E17.12648
G1 X111.444 Y121.991 F9000.000
G1 X111.792 Y121.644 E17.14029 F1200.000
G1 X114.287 Y122.015 F9000.000
G1 X114.613 Y121.690 E17.15322 F1200.000
G1 X114.613 Y120.734 E17.18006
G1 X113.071 Y122.276 E17.24132
G1 X111.855 Y122.536 E17.27626
G1 X114.613 Y119.778 E17.38584
G1 X114.957 Y117.837 F9000.000
G1 X115.165 Y116.826 E17.41412 F1200.000
G1 X115.324 Y115.720 E17.44470
G1 X114.817 Y85.692 F9000.000
G1 X109.102 Y85.692 E17.76274 F1200.000
G1 E13.76274 F2400.00000
G92 E0
G1 X99.642 Y85.799 F9000.000
G1 X99.642 Y85.799 F9000.000
G1 X105.898 Y85.692 F9000.000
G1 E4.00000 F2400.00000
G1 X100.183 Y85.692 E4.31804 F1200.000
G1 Z0.600 F9000.000
G1 E0.31804 F2400.00000
G92 E0
G1 X115.077 Y104.281 F9000.000
G1 E4.00000 F2400.00000
G1 X115.077 Y115.240 E4.30004 F2100.000
G1 X114.909 Y115.978 E4.32076
G1 X114.689 Y116.653 E4.34019
G1 X114.408 Y117.305 E4.35962
G1 X114.068 Y117.927 E4.37905
G1 X113.672 Y118.516 E4.39845
G1 X113.225 Y119.064 E4.41783
G1 X112.729 Y119.568 E4.43720
G1 X112.129 Y120.072 E4.45864
G1 X111.542 Y120.473 E4.47812
G1 X110.921 Y120.819 E4.49757
G1 X110.271 Y121.105 E4.51702
G1 X109.598 Y121.330 E4.53644
G1 X108.989 Y121.474 E4.55358
G1 X108.209 Y121.590 E4.57518
G1 X107.500 Y121.622 E4.59460
G1 X106.794 Y121.590 E4.61394
G1 X106.093 Y121.492 E4.63333
G1 X105.402 Y121.330 E4.65275
G1 X104.729 Y121.105 E4.67220
G1 X104.079 Y120.819 E4.69165
G1 X103.458 Y120.473 E4.71109
G1 X102.871 Y120.072 E4.73057
G1 X102.271 Y119.568 E4.75202
G1 X101.775 Y119.064 E4.77139
G1 X101.328 Y118.516 E4.79076
G1 X100.932 Y117.927 E4.81016
G1 X100.592 Y117.305 E4.82958
G1 X100.338 Y116.719 E4.84706
G1 X100.091 Y115.981 E4.86838
G1 X99.923 Y115.240 E4.88917
G1 X99.923 Y104.281 E5.18921
G1 X115.017 Y104.281 E5.60244
G1 X114.558 Y104.800 F9000.000
G1 X114.558 Y115.182 E5.76584 F1050.000
G1 X114.409 Y115.840 E5.77645
G1 X114.204 Y116.470 E5.78687
G1 X113.942 Y117.077 E5.79729
G1 X113.625 Y117.658 E5.80770
G1 X113.256 Y118.206 E5.81810
G1 X112.838 Y118.717 E5.82848
G1 X112.377 Y119.187 E5.83884
G1 X111.815 Y119.658 E5.85038
G1 X111.269 Y120.032 E5.86080
G1 X110.690 Y120.354 E5.87122
G1 X110.084 Y120.621 E5.88165
G1 X109.456 Y120.831 E5.89207
G1 X108.891 Y120.965 E5.90120
G1 X108.159 Y121.073 E5.91285
G1 X107.500 Y121.103 E5.92323
G1 X106.842 Y121.073 E5.93360
G1 X106.188 Y120.982 E5.94399
G1 X105.544 Y120.831 E5.95440
G1 X104.916 Y120.621 E5.96482
G1 X104.310 Y120.354 E5.97525
G1 X103.731 Y120.032 E5.98567
G1 X103.185 Y119.658 E5.99609
G1 X102.623 Y119.187 E6.00762
G1 X102.162 Y118.717 E6.01799
G1 X101.744 Y118.206 E6.02837
G1 X101.375 Y117.658 E6.03877
G1 X101.058 Y117.077 E6.04918
G1 X100.823 Y116.534 E6.05851
G1 X100.591 Y115.841 E6.07000
G1 X100.442 Y115.182 E6.08063
G1 X100.442 Y104.800 E6.24403
G1 X114.498 Y104.800 E6.46524
G1 X114.958 Y104.800 F9000.000
G1 X114.716 Y118.116 F9000.000
G1 X115.013 Y118.192 E6.47364 F2100.000
G1 X115.013 Y122.302 E6.58616
G1 X99.987 Y125.522 E7.00690
G1 X99.987 Y118.192 E7.20757
G1 X100.284 Y118.116 E7.21598
G1 X100.369 Y118.270 E7.22078
G1 X100.798 Y118.908 E7.24185
G1 X101.284 Y119.504 E7.26289
G1 X101.823 Y120.053 E7.28396
G1 X102.473 Y120.597 E7.30715
G1 X103.111 Y121.034 E7.32835
G1 X103.785 Y121.409 E7.34946
G1 X104.491 Y121.720 E7.37058
G1 X105.222 Y121.965 E7.39169
G1 X105.972 Y122.141 E7.41278
G1 X106.734 Y122.246 E7.43383
G1 X107.500 Y122.282 E7.45483
G1 X108.272 Y122.246 E7.47599
G1 X109.113 Y122.122 E7.49927
G1 X109.779 Y121.964 E7.51800
G1 X110.509 Y121.720 E7.53907
G1 X111.215 Y121.409 E7.56019
G1 X111.889 Y121.034 E7.58130
G1 X112.527 Y120.597 E7.60250
G1 X113.177 Y120.053 E7.62569
G1 X113.716 Y119.504 E7.64677
G1 X114.202 Y118.908 E7.66780
G1 X114.687 Y118.169 E7.69202
G1 X115.077 Y102.589 F9000.000
G1 X115.077 Y85.866 E8.14987 F2100.000
G1 X109.362 Y85.866 E8.30634
G1 X109.362 Y85.342 E8.32071
G1 X115.671 Y85.342 E8.49347
G1 X115.671 Y122.834 E9.51998
G1 X99.329 Y126.336 E9.97759
G1 X99.329 Y85.342 E11.09997
G1 X105.638 Y85.342 E11.27273
G1 X105.638 Y85.866 E11.28710
G1 X99.923 Y85.866 E11.44357
G1 X99.923 Y102.589 E11.90143
G1 X115.017 Y102.589 E12.31466
G1 X114.558 Y102.071 F9000.000
G1 X114.558 Y86.385 E12.56152 F1050.000
G1 X108.843 Y86.385 E12.65146
G1 X108.843 Y84.823 E12.67604
G1 X116.190 Y84.823 E12.79167
G1 X116.190 Y123.253 E13.39648
G1 X99.262 Y126.881 E13.66894
G1 X98.810 Y126.881 E13.67605
G1 X98.810 Y84.823 E14.33795
G1 X106.157 Y84.823 E14.45357
G1 X106.157 Y86.385 E14.47816
G1 X100.442 Y86.385 E14.56810
G1 X100.442 Y102.071 E14.81496
G1 X114.498 Y102.071 E15.03617
G1 X114.958 Y102.071 F9000.000
G1 X115.342 Y103.435 F9000.000
