; generated by Slic3r 1.2.9 on 2017-10-05 at 17:33:46

; external perimeters extrusion width = 0.40mm
; perimeters extrusion width = 0.68mm
; infill extrusion width = 1.28mm
; solid infill extrusion width = 0.68mm
; top infill extrusion width = 0.68mm

M107
M104 S220 ; set temperature
; -- START GCODE --
	G90                     ;set to absolute positioning
G28                     ;move to Home
G92 E0                  ;zero the extruded length
G1 F7200                ;set feedrate to travel_speed value
; -- end of START GCODE --
M109 S220 ; wait for temperature to be reached
G21 ; set units to millimeters
G90 ; use absolute coordinates
M82 ; use absolute distances for extrusion
G92 E0
G1 Z0.400 F9000.000
G1 E-4.00000 F2400.00000
G92 E0
G1 X41.333 Y77.220 F9000.000
G1 E4.00000 F2400.00000
G1 X43.493 Y76.405 E4.27422 F1800.000
G1 X44.750 Y76.286 E4.42419
G1 X155.250 Y76.286 E17.54774
G1 X157.525 Y76.683 E17.82197
G1 X159.530 Y77.827 E18.09619 F1800.000
G1 X161.030 Y79.583 E18.37042
G1 X161.845 Y81.743 E18.64464
G1 X161.964 Y83.000 E18.79461
G1 X161.964 Y117.000 E22.83263
G1 X161.567 Y119.275 E23.10685
G1 X160.423 Y121.280 E23.38107
G1 X158.667 Y122.780 E23.65530
G1 X156.507 Y123.595 E23.92952
G1 X155.250 Y123.714 E24.07949
G1 X44.750 Y123.714 E37.20304
G1 X42.475 Y123.317 E37.47727
G1 X40.470 Y122.173 E37.75149
G1 X38.970 Y120.417 E38.02572
G1 X38.155 Y118.257 E38.29994
G1 X38.036 Y117.000 E38.44991
G1 X38.036 Y83.000 E42.48792
G1 X38.433 Y80.725 E42.76215
G1 X39.577 Y78.720 E43.03637
G1 X41.287 Y77.259 E43.30347
G1 E39.30347 F2400.00000
G92 E0
G1 X146.350 Y115.700 F9000.000
G1 E4.00000 F2400.00000
G1 X146.350 Y109.976 E4.67976 F1800.000
G1 X147.073 Y109.976 E4.76557
G1 X147.073 Y107.800 E5.02410
G1 X146.350 Y107.800 E5.10991
G1 X146.350 Y104.936 E5.45002
G1 X147.082 Y104.828 E5.53784
G1 X147.071 Y103.804 E5.65947
G1 X146.350 Y103.804 E5.74513
G1 X146.350 Y96.111 E6.65878
G1 X146.948 Y95.951 E6.73225
G1 X146.948 Y95.274 E6.81267
G1 X146.350 Y95.115 E6.88609
G1 X146.350 Y88.237 E7.70302
G1 X146.935 Y88.037 E7.77649
G1 X146.894 Y87.793 E7.80583
G1 X146.895 Y87.480 E7.84300
G1 X146.930 Y87.296 E7.86525
G1 X146.350 Y87.096 E7.93808
G1 X146.350 Y84.300 E8.27017
G1 X153.950 Y84.300 E9.17279
G1 X153.950 Y87.175 E9.51418
G1 X153.285 Y87.339 E9.59551
G1 X153.312 Y87.666 E9.63448
G1 X153.282 Y87.921 E9.66492
G1 X153.950 Y88.095 E9.74694
G1 X153.950 Y95.208 E10.59172
G1 X153.294 Y95.392 E10.67261
G1 X153.311 Y95.611 E10.69871
G1 X153.296 Y95.820 E10.72353
G1 X153.950 Y95.998 E10.80407
G1 X153.950 Y103.804 E11.73109
G1 X153.220 Y103.804 E11.81777
G1 X153.209 Y104.854 E11.94247
G1 X153.950 Y104.991 E12.03197
G1 X153.950 Y107.800 E12.36557
G1 X153.219 Y107.800 E12.45240
G1 X153.219 Y110.081 E12.72334
G1 X153.950 Y110.081 E12.81017
G1 X153.950 Y115.700 E13.47753
G1 X146.410 Y115.700 E14.37302
G1 X145.950 Y115.700 F9000.000
G1 X145.750 Y109.376 F9000.000
G1 X144.742 Y102.863 F9000.000
G1 X143.604 Y95.249 F9000.000
G1 X140.575 Y94.857 F9000.000
G1 X138.571 Y95.642 F9000.000
G1 X138.477 Y95.713 F9000.000
G1 X137.940 Y95.443 F9000.000
G1 X137.615 Y94.755 F9000.000
G1 X136.625 Y94.552 E14.49307 F1800.000
G1 X134.571 Y95.064 E14.74447
G1 X133.357 Y94.860 E14.89066
G1 X134.023 Y94.083 E15.01221
G1 X131.462 Y92.832 E15.35059
G1 X130.929 Y92.112 E15.45709
G1 X131.399 Y90.746 E15.62870
G1 X132.491 Y91.029 E15.76269
G1 X134.942 Y90.035 E16.07680
G1 X134.346 Y89.283 E16.19073
G1 X134.746 Y88.683 E16.27635
G1 X135.149 Y88.504 E16.32874
G1 X135.687 Y88.525 E16.39263
G1 X136.239 Y88.798 E16.46579
G1 X136.794 Y89.786 E16.60034
G1 X136.438 Y89.913 E16.64530
G1 X137.673 Y90.364 E16.80149
G1 X137.865 Y90.312 E16.82506
G1 X138.292 Y89.638 E16.91989
G1 X138.475 Y89.263 E16.96948
G1 X139.138 Y89.436 E17.05079
G1 X139.550 Y91.604 E17.31286
G1 X139.501 Y92.066 E17.36804
G1 X138.834 Y92.950 E17.49960
G1 X138.095 Y92.612 E17.59606
G1 X137.643 Y93.380 E17.70192
G1 X137.437 Y93.645 E17.74181
G1 X137.564 Y93.818 E17.76732
G1 X137.927 Y94.135 E17.82455
G1 X137.642 Y94.701 E17.89981
G1 X137.501 Y95.138 F9000.000
G1 X138.215 Y93.590 F9000.000
G1 X138.814 Y93.825 F9000.000
G1 X138.312 Y95.818 F9000.000
G1 X131.535 Y95.613 F9000.000
G1 X129.101 Y94.804 F9000.000
G1 X130.750 Y90.183 F9000.000
G1 X130.974 Y90.012 F9000.000
G1 X132.479 Y90.038 F9000.000
G1 X133.224 Y89.582 F9000.000
G1 X133.255 Y89.590 F9000.000
G1 X133.975 Y89.780 F9000.000
G1 X133.791 Y89.732 F9000.000
G1 X132.019 Y90.450 E18.12690 F1800.000
G1 X132.627 Y89.329 E18.27840
G1 X133.328 Y89.147 E18.36436
G1 X133.753 Y89.685 E18.44581
G1 X133.224 Y89.582 F9000.000
G1 X132.212 Y90.107 F9000.000
G1 X130.974 Y90.012 F9000.000
G1 X129.537 Y91.602 F9000.000
G1 X132.379 Y95.751 F9000.000
G1 X137.902 Y95.932 F9000.000
G1 X142.145 Y93.854 F9000.000
G1 X142.676 Y88.377 F9000.000
G1 X139.490 Y88.834 F9000.000
G1 X139.421 Y88.870 F9000.000
G1 X139.289 Y88.855 F9000.000
G1 X138.658 Y88.273 F9000.000
G1 X137.758 Y88.300 E18.55271 F1800.000
G1 X137.581 Y88.062 E18.58788
G1 X136.546 Y87.411 E18.73312
G1 X134.852 Y87.651 E18.93628
G1 X134.001 Y87.634 E19.03746
G1 X133.442 Y88.041 E19.11955
G1 X132.909 Y88.470 E19.20083
G1 X132.918 Y88.515 E19.20633
G1 X132.147 Y88.716 E19.30095
G1 X131.825 Y89.309 E19.38111
G1 X130.709 Y89.388 E19.51408
G1 X129.803 Y89.426 E19.62172
G1 X129.205 Y89.967 E19.71760
G1 X127.891 Y90.998 E19.91589
G1 X127.589 Y90.155 E20.02225
G1 X127.866 Y89.286 E20.13049
G1 X128.163 Y88.730 E20.20544
G1 X128.971 Y87.356 E20.39467
G1 X129.811 Y86.517 E20.53574
G1 X130.728 Y85.678 E20.68334
G1 X132.344 Y85.031 E20.89010
G1 X132.650 Y84.992 E20.92676
G1 X133.829 Y85.016 E21.06682
G1 X136.224 Y85.355 E21.35401
G1 X137.284 Y86.013 E21.50214
G1 X137.430 Y86.132 E21.52456
G1 X138.384 Y87.176 E21.69250
G1 X138.643 Y88.215 E21.81970
G1 X138.698 Y88.671 F9000.000
G1 E17.81970 F2400.00000
G92 E0
G1 X128.492 Y86.986 F9000.000
G1 X123.617 Y87.877 F9000.000
G1 X122.087 Y91.908 F9000.000
G1 X122.142 Y92.200 F9000.000
G1 X116.925 Y92.200 F9000.000
G1 X117.039 Y92.086 F9000.000
G1 E4.00000 F2400.00000
G1 X117.039 Y100.302 E4.97575 F1800.000
G1 X116.999 Y101.280 E5.09206
G1 X116.944 Y101.760 E5.14945
G1 X116.866 Y102.205 E5.20305
G1 X116.758 Y102.632 E5.25537
G1 X116.616 Y103.040 E5.30671
G1 X116.435 Y103.426 E5.35734
G1 X116.213 Y103.784 E5.40740
G1 X115.949 Y104.109 E5.45711
G1 X115.643 Y104.395 E5.50687
G1 X115.300 Y104.636 E5.55661
G1 X114.931 Y104.826 E5.60593
G1 X114.543 Y104.967 E5.65500
G1 X114.140 Y105.063 E5.70422
G1 X113.724 Y105.118 E5.75397
G1 X113.278 Y105.136 E5.80696
G1 X112.643 Y105.090 E5.88259
G1 X112.272 Y105.017 E5.92758
G1 X111.643 Y104.798 E6.00659
G1 X111.638 Y104.949 E6.02459
G1 X108.135 Y104.949 E6.44062
G1 X108.169 Y103.276 E6.63941
G1 X107.860 Y103.181 E6.67783
G1 X107.698 Y103.431 E6.71321
G1 X107.341 Y103.856 E6.77908
G1 X106.933 Y104.229 E6.84480
G1 X106.471 Y104.552 E6.91168
G1 X105.949 Y104.814 E6.98111
G1 X105.378 Y104.998 E7.05237
G1 X104.777 Y105.103 E7.12477
G1 X104.152 Y105.136 E7.19909
G1 X103.662 Y105.112 E7.25738
G1 X103.184 Y105.042 E7.31479
G1 X102.717 Y104.923 E7.37202
G1 X102.255 Y104.754 E7.43038
G1 X101.802 Y104.523 E7.49078
G1 X101.376 Y104.229 E7.55229
G1 X100.988 Y103.881 E7.61420
G1 X100.637 Y103.482 E7.67732
G1 X100.341 Y103.053 E7.73915
G1 X100.040 Y103.147 E7.77657
G1 X100.040 Y108.834 E8.45189
G1 X96.445 Y108.834 E8.87894
G1 X96.456 Y104.875 E9.34905
G1 X96.158 Y104.986 E9.38676
G1 X95.587 Y105.100 E9.45589
G1 X94.884 Y105.143 E9.53959
G1 X92.937 Y104.634 E9.77864
G1 X93.007 Y104.949 E9.81703
G1 X89.368 Y104.949 E10.24926
G1 X88.657 Y101.433 E10.67535
G1 X88.306 Y101.434 E10.71712
G1 X87.619 Y104.949 E11.14255
G1 X84.323 Y104.949 E11.53389
G1 X83.607 Y101.454 E11.95764
G1 X83.255 Y101.456 E11.99941
G1 X82.582 Y104.949 E12.42192
G1 X78.927 Y104.949 E12.85604
G1 X79.073 Y104.276 E12.93789
G1 X78.374 Y104.679 E13.03364
G1 X77.873 Y104.884 E13.09795
G1 X77.344 Y105.027 E13.16309
G1 X76.792 Y105.109 E13.22935
G1 X76.127 Y105.140 E13.30834
G1 X74.076 Y104.706 E13.55734
G1 X72.502 Y103.307 E13.80750
G1 X72.061 Y102.219 E13.94697
G1 X71.775 Y103.040 E14.05029
G1 X71.594 Y103.426 E14.10091
G1 X71.371 Y103.784 E14.15094
G1 X71.107 Y104.109 E14.20068
G1 X70.801 Y104.395 E14.25044
G1 X70.459 Y104.636 E14.30020
G1 X70.089 Y104.826 E14.34954
G1 X69.701 Y104.967 E14.39858
G1 X69.298 Y105.063 E14.44778
G1 X68.883 Y105.118 E14.49753
G1 X68.436 Y105.136 E14.55067
G1 X67.739 Y105.084 E14.63363
G1 X67.164 Y104.937 E14.70408
G1 X66.802 Y104.792 E14.75045
G1 X66.797 Y104.949 E14.76918
G1 X63.643 Y104.949 E15.14375
G1 X63.578 Y105.182 E15.17242
G1 X63.263 Y105.944 E15.27038
G1 X63.043 Y106.337 E15.32383
G1 X62.792 Y106.694 E15.37573
G1 X62.504 Y107.022 E15.42756
G1 X62.180 Y107.318 E15.47959
G1 X61.821 Y107.579 E15.53233
G1 X61.431 Y107.802 E15.58570
G1 X61.016 Y107.984 E15.63961
G1 X60.577 Y108.129 E15.69450
G1 X60.113 Y108.239 E15.75112
G1 X59.622 Y108.314 E15.81007
G1 X59.106 Y108.357 E15.87159
G1 X58.559 Y108.372 E15.93652
G1 X58.039 Y108.356 E15.99833
G1 X57.577 Y108.311 E16.05351
G1 X57.105 Y108.234 E16.11028
G1 X56.639 Y108.124 E16.16713
G1 X56.180 Y107.974 E16.22452
G1 X55.736 Y107.779 E16.28206
G1 X55.319 Y107.539 E16.33921
G1 X54.929 Y107.253 E16.39662
G1 X54.571 Y106.921 E16.45463
G1 X54.255 Y106.545 E16.51295
G1 X53.984 Y106.133 E16.57150
G1 X53.757 Y105.683 E16.63133
G1 X53.577 Y105.193 E16.69341
G1 X53.451 Y104.669 E16.75734
G1 X53.379 Y104.123 E16.82278
G1 X53.354 Y103.517 E16.89483
G1 X53.400 Y102.782 E16.98224
G1 X53.467 Y102.371 E17.03169
G1 X53.658 Y101.702 E17.11440
G1 X53.929 Y101.103 E17.19249
G1 X54.125 Y100.781 E17.23727
G1 X54.499 Y100.306 E17.30901
G1 X54.741 Y100.064 E17.34966
G1 X54.990 Y99.853 E17.38849
G1 X55.454 Y99.526 E17.45580
G1 X55.953 Y99.242 E17.52399
G1 X56.697 Y98.914 E17.62056
G1 X57.438 Y98.667 E17.71338
G1 X59.203 Y98.136 E17.93225
G1 X59.660 Y97.965 E17.99025
G1 X60.096 Y97.717 E18.04978
G1 X60.241 Y97.568 E18.07458
G1 X60.326 Y97.415 E18.09528
G1 X60.383 Y97.145 E18.12803
G1 X60.384 Y96.725 E18.17795
G1 X60.323 Y96.410 E18.21609
G1 X60.278 Y96.293 E18.23096
G1 X60.160 Y96.102 E18.25761
G1 X60.012 Y95.957 E18.28223
G1 X59.912 Y95.890 E18.29655
G1 X59.668 Y95.775 E18.32860
G1 X59.278 Y95.671 E18.37646
G1 X58.832 Y95.618 E18.42980
G1 X58.263 Y95.620 E18.49744
G1 X57.782 Y95.683 E18.55509
G1 X57.587 Y95.734 E18.57901
G1 X57.267 Y95.866 E18.62008
G1 X57.144 Y95.939 E18.63706
G1 X56.949 Y96.101 E18.66722
G1 X56.723 Y96.429 E18.71453
G1 X56.597 Y96.733 E18.75358
G1 X56.200 Y98.236 E18.93823
G1 X52.615 Y97.331 E19.37740
G1 X53.113 Y95.360 E19.61880
G1 X53.495 Y94.481 E19.73268
G1 X54.021 Y93.702 E19.84432
G1 X54.691 Y93.042 E19.95606
G1 X55.498 Y92.524 E20.06991
G1 X56.417 Y92.167 E20.18694
G1 X57.423 Y91.964 E20.30883
G1 X58.439 Y91.903 E20.42968
G1 X59.140 Y91.921 E20.51299
G1 X59.747 Y91.987 E20.58550
G1 X60.321 Y92.101 E20.65506
G1 X60.863 Y92.263 E20.72221
G1 X61.365 Y92.470 E20.78669
G1 X61.830 Y92.719 E20.84930
G1 X62.260 Y93.012 E20.91113
G1 X62.649 Y93.349 E20.97224
G1 X63.362 Y94.129 E21.09779
G1 X63.362 Y92.086 E21.34045
G1 X66.955 Y92.086 E21.76712
G1 X66.955 Y99.313 E22.62541
G1 X66.988 Y99.964 E22.70288
G1 X67.082 Y100.495 E22.76692
G1 X67.132 Y100.668 E22.78826
G1 X67.293 Y101.049 E22.83746
G1 X67.355 Y101.152 E22.85162
G1 X67.503 Y101.328 E22.87897
G1 X67.649 Y101.435 E22.90046
G1 X67.800 Y101.494 E22.91979
G1 X68.012 Y101.518 E22.94506
G1 X68.396 Y101.469 E22.99111
G1 X68.529 Y101.035 E23.04494
G1 X68.584 Y100.549 E23.10306
G1 X68.604 Y99.902 E23.17998
G1 X68.604 Y92.086 E24.10826
G1 X72.197 Y92.086 E24.53495
G1 X72.197 Y93.727 E24.72991
G1 X72.487 Y93.826 E24.76629
G1 X72.886 Y93.312 E24.84361
G1 X73.260 Y92.934 E24.90671
G1 X73.678 Y92.611 E24.96950
G1 X74.133 Y92.348 E25.03194
G1 X74.673 Y92.124 E25.10140
G1 X75.132 Y92.005 E25.15772
G1 X75.676 Y91.924 E25.22302
G1 X76.200 Y91.898 E25.28531
G1 X77.267 Y92.004 E25.41266
G1 X78.274 Y92.348 E25.53902
G1 X79.153 Y92.933 E25.66446
G1 X79.867 Y93.732 E25.79172
G1 X80.398 Y94.712 E25.92402
G1 X80.646 Y95.499 E26.02202
G1 X80.975 Y95.483 E26.06118
G1 X81.710 Y92.086 E26.47403
G1 X85.107 Y92.086 E26.87741
G1 X85.760 Y95.370 E27.27514
G1 X86.113 Y95.369 E27.31707
G1 X86.740 Y92.086 E27.71404
G1 X90.145 Y92.086 E28.11843
G1 X90.853 Y95.268 E28.50563
G1 X91.193 Y95.272 E28.54601
G1 X91.313 Y94.781 E28.60606
G1 X91.716 Y93.823 E28.72951
G1 X92.296 Y93.006 E28.84842
G1 X93.067 Y92.383 E28.96619
G1 X93.986 Y92.010 E29.08399
G1 X94.912 Y91.903 E29.19475
G1 X95.579 Y91.934 E29.27396
G1 X96.158 Y92.053 E29.34424
G1 X96.620 Y92.226 E29.40277
G1 X96.629 Y92.086 E29.41951
G1 X100.131 Y92.086 E29.83538
G1 X100.062 Y93.834 E30.04318
G1 X100.391 Y93.924 E30.08365
G1 X100.470 Y93.777 E30.10347
G1 X101.188 Y92.960 E30.23257
G1 X102.077 Y92.360 E30.35993
G1 X103.097 Y92.007 E30.48815
G1 X104.112 Y91.905 E30.60933
G1 X104.685 Y91.917 E30.67736
G1 X105.159 Y91.972 E30.73414
G1 X105.608 Y92.068 E30.78858
G1 X106.025 Y92.204 E30.84069
G1 X106.399 Y92.367 E30.88923
G1 X106.743 Y92.553 E30.93566
G1 X107.066 Y92.768 E30.98165
G1 X107.358 Y93.008 E31.02657
G1 X107.633 Y93.280 E31.07248
G1 X107.915 Y93.642 E31.12702
G1 X108.204 Y93.543 E31.16335
G1 X108.204 Y92.086 E31.33641
G1 X111.797 Y92.086 E31.76311
G1 X111.797 Y99.313 E32.62140
G1 X111.830 Y99.964 E32.69889
G1 X111.923 Y100.495 E32.76288
G1 X111.973 Y100.668 E32.78424
G1 X112.135 Y101.049 E32.83343
G1 X112.196 Y101.151 E32.84758
G1 X112.345 Y101.328 E32.87498
G1 X112.490 Y101.435 E32.89642
G1 X112.642 Y101.494 E32.91577
G1 X112.853 Y101.518 E32.94104
G1 X113.214 Y101.473 E32.98418
G1 X113.280 Y101.368 E32.99889
G1 X113.373 Y101.014 E33.04239
G1 X113.426 Y100.549 E33.09793
G1 X113.446 Y99.902 E33.17485
G1 X113.446 Y92.086 E34.10313
G1 X116.979 Y92.086 E34.52269
G1 X99.388 Y92.800 F9000.000
G1 X99.341 Y94.012 E34.66674 F1800.000
G1 X99.326 Y95.384 E34.82971
G1 X99.326 Y108.119 E36.34222
G1 X97.161 Y108.119 E36.59939
G1 X97.174 Y103.582 E37.13829
G1 X96.787 Y103.909 E37.19847
G1 X96.395 Y104.136 E37.25227
G1 X95.963 Y104.296 E37.30701
G1 X95.495 Y104.390 E37.36367
G1 X94.954 Y104.423 E37.42800
G1 X93.451 Y104.030 E37.61254
G1 X92.366 Y102.838 E37.80398
G1 X91.922 Y101.483 E37.97341
G1 X91.528 Y101.591 E38.02187
G1 X92.116 Y104.235 E38.34363
G1 X89.952 Y104.235 E38.60069
G1 X88.646 Y97.768 E39.38424
G1 X88.294 Y97.769 E39.42602
G1 X87.030 Y104.235 E40.20846
G1 X84.906 Y104.235 E40.46076
G1 X83.586 Y97.792 E41.24190
G1 X83.234 Y97.794 E41.28367
G1 X81.993 Y104.235 E42.06273
G1 X79.812 Y104.235 E42.32170
G1 X80.449 Y101.290 E42.67960
G1 X80.038 Y101.195 E42.72977
G1 X79.954 Y101.536 E42.77153
G1 X79.792 Y102.020 E42.83213
G1 X79.595 Y102.464 E42.88976
G1 X79.364 Y102.867 E42.94499
G1 X79.095 Y103.229 E42.99854
G1 X78.787 Y103.546 E43.05112
G1 X78.440 Y103.816 E43.10325
G1 X78.059 Y104.036 E43.15555
G1 X77.644 Y104.206 E43.20880
G1 X77.198 Y104.326 E43.26368
G1 X76.722 Y104.397 E43.32075
G1 X76.186 Y104.422 E43.38457
G1 X74.409 Y104.046 E43.60024
G1 X73.101 Y102.884 E43.80810
G1 X72.348 Y101.027 E44.04607
G1 X72.109 Y98.542 E44.34251
G1 X72.125 Y97.830 E44.42715
G1 X72.173 Y97.176 E44.50504
G1 X72.254 Y96.565 E44.57826
G1 X72.368 Y95.997 E44.64706
G1 X72.514 Y95.472 E44.71181
G1 X72.692 Y94.987 E44.77307
G1 X72.902 Y94.544 E44.83133
G1 X73.146 Y94.142 E44.88716
G1 X73.424 Y93.784 E44.94102
G1 X73.734 Y93.471 E44.99337
G1 X74.077 Y93.205 E45.04489
G1 X74.450 Y92.989 E45.09605
G1 X74.900 Y92.802 E45.15398
G1 X75.274 Y92.706 E45.19987
G1 X75.747 Y92.636 E45.25655
G1 X76.182 Y92.614 E45.30836
G1 X77.114 Y92.707 E45.41960
G1 X77.955 Y92.994 E45.52516
G1 X78.681 Y93.477 E45.62872
G1 X79.279 Y94.146 E45.73524
G1 X79.737 Y94.992 E45.84951
G1 X80.057 Y96.005 E45.97570
G1 X80.244 Y97.183 E46.11733
G1 X80.305 Y98.523 E46.27661
G1 X80.291 Y99.210 E46.35822
G1 X80.250 Y99.851 E46.43451
G1 X80.181 Y100.452 E46.50636
G1 X80.095 Y100.943 E46.56560
G1 X80.507 Y101.024 E46.61547
G1 X82.286 Y92.800 E47.61474
G1 X84.521 Y92.800 E47.88009
G1 X85.775 Y99.103 E48.64334
G1 X86.128 Y99.102 E48.68527
G1 X87.331 Y92.800 E49.44720
G1 X89.572 Y92.800 E49.71341
