;FLAVOR:Marlin
;TIME:1545
;Filament used: 1.04688m
;Layer height: 0.2
;Generated with Cura_SteamEngine master
M104 S200
M109 S200
; -- START GCODE --
G21                     ;set units to millimetres
G90                     ;set to absolute positioning
M106 S0                 ;set fan speed to zero (turned off)
G28 X0 Y0               ;move to the X/Y origin (Home)
G28 Z0                  ;move to the Z origin (Home)
G1 Z15.0 F1200          ;move Z to position 15.0 mm
G92 E0                  ;zero the extruded length
G1 E20 F200             ;extrude 20mm of feed stock
G92 E0                  ;zero the extruded length again
G1 F7200                ;set feedrate to 120 mm/s
; -- end of START GCODE --
;LAYER_COUNT:23
;LAYER:0
M107
G0 F3600 X75.892 Y95.437 Z0.2
G0 X76.509 Y95.02
;TYPE:SKIRT
G1 F1200 X76.711 Y94.912 E0.00762
G1 X77.201 Y94.695 E0.02544
G1 X77.718 Y94.554 E0.04327
G1 X78.392 Y94.487 E0.06579
G1 X92.455 Y94.425 E0.53354
G1 X97.899 Y94.117 E0.71489
G1 X103.324 Y93.501 E0.89649
G1 X108.719 Y92.576 E1.07855
G1 X111.309 Y92.018 E1.16667
G1 X113.997 Y91.36 E1.25871
G1 X119.267 Y89.828 E1.44125
G1 X121.199 Y89.191 E1.50891
G1 X121.719 Y89.062 E1.52673
G1 X122.318 Y89.01 E1.54672
G1 X136.507 Y88.976 E2.01865
G1 X137.042 Y89.015 E2.0365
G1 X137.774 Y89.203 E2.06163
G1 X138.026 Y89.297 E2.07058
G1 X138.513 Y89.521 E2.08841
G1 X138.962 Y89.816 E2.10628
G1 X139.361 Y90.173 E2.12408
G1 X139.704 Y90.586 E2.14194
G1 X139.891 Y90.879 E2.1535
G1 X140.043 Y91.144 E2.16366
G1 X140.274 Y91.628 E2.1815
G1 X140.431 Y92.14 E2.19931
G1 X140.52 Y92.936 E2.22595
G1 X140.51 Y117.1 E3.02965
G1 X140.47 Y117.635 E3.04749
G1 X140.351 Y118.158 E3.06533
G1 X140.155 Y118.658 E3.08319
G1 X139.946 Y119.033 E3.09747
G1 X139.795 Y119.27 E3.10682
G1 X139.474 Y119.7 E3.12467
G1 X139.093 Y120.077 E3.14249
G1 X138.66 Y120.393 E3.16032
G1 X138.163 Y120.651 E3.17895
G1 X137.96 Y120.737 E3.18628
G1 X137.452 Y120.909 E3.20412
G1 X136.924 Y121.003 E3.22196
G1 X136.55 Y121.022 E3.23441
G1 X122.337 Y120.998 E3.70714
G1 X121.802 Y120.957 E3.72498
G1 X121.242 Y120.825 E3.74412
G1 X117.518 Y119.629 E3.87421
G1 X112.21 Y118.194 E4.0571
G1 X109.574 Y117.598 E4.14698
G1 X106.918 Y117.081 E4.23698
G1 X101.508 Y116.257 E4.41899
G1 X96.052 Y115.741 E4.60127
G1 X93.359 Y115.601 E4.69096
G1 X89.708 Y115.532 E4.81241
G1 X78.467 Y115.522 E5.18629
G1 X77.932 Y115.482 E5.20413
G1 X77.409 Y115.362 E5.22198
G1 X77.064 Y115.236 E5.2342
G1 X76.807 Y115.127 E5.24348
G1 X76.331 Y114.882 E5.26129
G1 X75.896 Y114.568 E5.27913
G1 X75.512 Y114.193 E5.29698
G1 X75.275 Y113.893 E5.3097
G1 X75.178 Y113.756 E5.31528
G1 X74.901 Y113.297 E5.33311
G1 X74.696 Y112.801 E5.35096
G1 X74.567 Y112.281 E5.36878
G1 X74.516 Y111.687 E5.38861
G1 X74.476 Y98.493 E5.82745
G1 X74.514 Y97.958 E5.84529
G1 X74.632 Y97.435 E5.86312
G1 X74.797 Y96.997 E5.87869
G1 X74.927 Y96.71 E5.88917
G1 X75.184 Y96.239 E5.90701
G1 X75.508 Y95.812 E5.92484
G1 X75.892 Y95.437 E5.94269
G1 X76.509 Y95.02 E5.96746
G0 F3600 X76.899 Y95.265
G1 F1200 X77.363 Y95.063 E5.98429
G1 X77.852 Y94.936 E6.0011
G1 X78.394 Y94.887 E6.0192
G1 X92.461 Y94.825 E6.48707
G1 X97.93 Y94.515 E6.66926
G1 X103.382 Y93.897 E6.85176
G1 X108.806 Y92.966 E7.0348
G1 X111.409 Y92.406 E7.12336
G1 X114.085 Y91.75 E7.215
G1 X119.394 Y90.208 E7.39887
G1 X121.324 Y89.571 E7.46647
G1 X121.815 Y89.451 E7.48328
G1 X122.319 Y89.41 E7.5001
G1 X136.508 Y89.376 E7.97203
G1 X137.012 Y89.415 E7.98884
G1 X137.634 Y89.578 E8.01023
G1 X137.886 Y89.672 E8.01918
G1 X138.345 Y89.885 E8.03601
G1 X138.764 Y90.168 E8.05282
G1 X139.133 Y90.514 E8.06965
G1 X139.544 Y91.078 E8.09286
G1 X139.696 Y91.343 E8.10302
G1 X139.912 Y91.8 E8.11983
G1 X140.053 Y92.285 E8.13663
G1 X140.12 Y92.936 E8.1584
G1 X140.11 Y117.1 E8.96209
G1 X140.07 Y117.604 E8.97891
G1 X139.951 Y118.096 E8.99575
G1 X139.756 Y118.562 E9.01255
G1 X139.609 Y118.818 E9.02237
G1 X139.458 Y119.055 E9.03171
G1 X139.153 Y119.459 E9.04855
G1 X138.789 Y119.81 E9.06537
G1 X138.374 Y120.099 E9.08219
G1 X138.007 Y120.282 E9.09583
G1 X137.804 Y120.368 E9.10316
G1 X137.325 Y120.528 E9.11996
G1 X136.826 Y120.611 E9.13678
G1 X136.551 Y120.622 E9.14594
G1 X122.338 Y120.598 E9.61866
G1 X121.834 Y120.557 E9.63548
G1 X121.364 Y120.445 E9.65155
G1 X117.617 Y119.241 E9.78245
G1 X112.3 Y117.804 E9.96564
G1 X109.648 Y117.205 E10.05607
G1 X107.001 Y116.689 E10.14577
G1 X101.556 Y115.86 E10.32895
G1 X96.085 Y115.342 E10.51173
G1 X93.357 Y115.201 E10.60259
G1 X89.717 Y115.132 E10.72368
G1 X78.467 Y115.122 E11.09785
G1 X77.963 Y115.082 E11.11467
G1 X77.472 Y114.962 E11.13148
G1 X77.221 Y114.868 E11.1404
G1 X76.964 Y114.759 E11.14968
G1 X76.515 Y114.525 E11.16652
G1 X76.109 Y114.224 E11.18333
G1 X75.756 Y113.863 E11.20012
G1 X75.601 Y113.662 E11.20857
G1 X75.504 Y113.525 E11.21415
G1 X75.246 Y113.091 E11.23094
G1 X75.059 Y112.621 E11.24777
G1 X74.948 Y112.128 E11.26457
G1 X74.916 Y111.686 E11.27931
G1 X74.876 Y98.492 E11.71815
G1 X74.914 Y97.988 E11.73496
G1 X75.032 Y97.496 E11.75179
G1 X75.161 Y97.162 E11.7637
G1 X75.291 Y96.875 E11.77418
G1 X75.535 Y96.432 E11.791
G1 X75.846 Y96.033 E11.80782
G1 X76.216 Y95.689 E11.82463
G1 X76.697 Y95.373 E11.84377
G1 X76.899 Y95.265 E11.85139
G1 F1500 E5.35139
G0 F3600 X78.454 Y97.401
G0 X78.68 Y98.679
G0 X78.736 Y98.735
G0 X78.666 Y98.665
;TYPE:WALL-INNER
G1 F1500 E11.85139
G1 F1200 X121.132 Y98.666 E13.26381
G1 X121.332 Y98.666 E13.27046
G1 X121.332 Y98.866 E13.27477
G1 X121.329 Y111.333 E13.68943
G1 X78.865 Y111.331 E15.10178
G1 X78.665 Y111.331 E15.10844
G1 X78.665 Y111.131 E15.11274
G1 X78.666 Y98.665 E15.52736
G0 F3600 X78.514 Y98.265
;TYPE:WALL-OUTER
G1 F1200 X121.458 Y98.266 E16.95569
G1 X121.511 Y98.266 E16.95745
G1 X121.584 Y98.283 E16.95994
G1 X121.656 Y98.324 E16.9627
G1 X121.702 Y98.383 E16.96519
G1 X121.732 Y98.461 E16.96797
G1 X121.732 Y98.514 E16.96973
G1 X121.729 Y111.556 E17.40351
G1 X121.694 Y111.634 E17.40635
G1 X121.637 Y111.69 E17.40901
G1 X121.557 Y111.728 E17.41196
G1 X121.523 Y111.733 E17.4131
G1 X78.515 Y111.731 E18.84355
G1 X78.469 Y111.731 E18.84508
G1 X78.397 Y111.709 E18.84758
G1 X78.328 Y111.661 E18.85038
G1 X78.279 Y111.578 E18.85359
G1 X78.265 Y111.5 E18.85622
G1 X78.265 Y111.454 E18.85775
G1 X78.266 Y98.495 E19.28877
G1 X78.286 Y98.403 E19.2919
G1 X78.326 Y98.345 E19.29424
G1 X78.408 Y98.283 E19.29766
G1 X78.514 Y98.265 E19.30124
G0 F3600 X78.714 Y98.265
G0 X78.713 Y98.765
G0 X78.906 Y111.15
G0 X78.875 Y111.119
G1 F1200 X79.158 Y110.836 E19.31741
;TYPE:SKIN
G1 X79.541 Y111.22
G0 F3600 X80.037 Y111.15
G1 F1200 X78.845 Y109.957 E19.3735
G1 X78.775 Y109.887
G0 F3600 X78.845 Y109.392
G1 F1200 X80.603 Y111.15 E19.4562
G1 X80.673 Y111.22
G0 F3600 X81.168 Y111.15
G1 F1200 X78.845 Y108.826 E19.56549
G1 X78.775 Y108.756
G0 F3600 X78.845 Y108.26
G1 F1200 X81.734 Y111.15 E19.7014
G1 X81.804 Y111.22
G0 F3600 X82.3 Y111.15
G1 F1200 X78.845 Y107.695 E19.86391
G1 X78.775 Y107.625
G0 F3600 X78.845 Y107.129
G1 F1200 X82.865 Y111.15 E20.05302
G1 X82.935 Y111.22
G0 F3600 X83.431 Y111.15
G1 F1200 X78.845 Y106.563 E20.26876
G1 X78.775 Y106.493
G0 F3600 X78.845 Y105.998
G1 F1200 X83.997 Y111.15 E20.51109
G1 X84.067 Y111.22
G0 F3600 X84.562 Y111.15
G1 F1200 X78.845 Y105.432 E20.78003
G1 X78.775 Y105.362
G0 F3600 X78.845 Y104.866
G1 F1200 X85.128 Y111.15 E21.07558
G1 X85.198 Y111.22
G0 F3600 X85.694 Y111.15
G1 F1200 X78.845 Y104.301 E21.39774
G1 X78.775 Y104.231
G0 F3600 X78.845 Y103.735
G1 F1200 X86.259 Y111.15 E21.74649
G1 X86.329 Y111.22
G0 F3600 X86.825 Y111.15
G1 F1200 X78.845 Y103.169 E22.12187
G1 X78.775 Y103.099
G0 F3600 X78.845 Y102.604
G1 F1200 X87.391 Y111.15 E22.52385
G1 X87.461 Y111.22
G0 F3600 X87.957 Y111.15
G1 F1200 X78.845 Y102.038 E22.95245
G1 X78.775 Y101.968
G0 F3600 X78.845 Y101.472
G1 F1200 X88.522 Y111.15 E23.40765
G1 X88.592 Y111.22
G0 F3600 X89.088 Y111.15
G1 F1200 X78.845 Y100.906 E23.88947
G1 X78.775 Y100.836
G0 F3600 X78.845 Y100.341
G1 F1200 X89.654 Y111.15 E24.3979
G1 X89.724 Y111.22
G0 F3600 X90.22 Y111.15
G1 F1200 X78.845 Y99.775 E24.93294
G1 X78.775 Y99.705
G0 F3600 X78.845 Y99.209
G1 F1200 X90.786 Y111.15 E25.49461
G1 X90.856 Y111.22
G0 F3600 X91.351 Y111.15
G1 F1200 X79.046 Y98.845 E26.0734
G1 X78.976 Y98.775
G0 F3600 X79.611 Y98.845
G1 F1200 X91.917 Y111.15 E26.65221
G1 X91.987 Y111.22
G0 F3600 X92.483 Y111.15
G1 F1200 X80.177 Y98.845 E27.23102
G1 X80.107 Y98.775
G0 F3600 X80.743 Y98.845
G1 F1200 X93.048 Y111.15 E27.80981
G1 X93.118 Y111.22
G0 F3600 X93.614 Y111.15
G1 F1200 X81.308 Y98.845 E28.38863
G1 X81.238 Y98.775
G0 F3600 X81.874 Y98.845
G1 F1200 X94.18 Y111.15 E28.96744
G1 X94.25 Y111.22
G0 F3600 X94.745 Y111.15
G1 F1200 X82.44 Y98.845 E29.54623
G1 X82.37 Y98.775
G0 F3600 X83.005 Y98.845
G1 F1200 X95.311 Y111.15 E30.12504
G1 X95.381 Y111.22
G0 F3600 X95.877 Y111.15
G1 F1200 X83.571 Y98.845 E30.70386
G1 X83.501 Y98.775
G0 F3600 X84.137 Y98.845
G1 F1200 X96.443 Y111.15 E31.28267
G1 X96.513 Y111.22
G0 F3600 X97.008 Y111.15
G1 F1200 X84.702 Y98.845 E31.86148
G1 X84.632 Y98.775
G0 F3600 X85.268 Y98.845
G1 F1200 X97.574 Y111.15 E32.44029
G1 X97.644 Y111.22
G0 F3600 X98.14 Y111.15
G1 F1200 X85.834 Y98.845 E33.01911
G1 X85.764 Y98.775
G0 F3600 X86.399 Y98.845
G1 F1200 X98.705 Y111.15 E33.59792
G1 X98.775 Y111.22
G0 F3600 X99.271 Y111.15
G1 F1200 X86.965 Y98.845 E34.17673
G1 X86.895 Y98.775
G0 F3600 X87.531 Y98.845
G1 F1200 X99.837 Y111.15 E34.75555
G1 X99.907 Y111.22
G0 F3600 X100.403 Y111.151
G1 F1200 X88.097 Y98.845 E35.33438
G1 X88.027 Y98.775
G0 F3600 X88.662 Y98.845
G1 F1200 X100.969 Y111.151 E35.91324
G1 X101.039 Y111.221
G0 F3600 X101.534 Y111.151
G1 F1200 X89.228 Y98.845 E36.49208
G1 X89.158 Y98.775
G0 F3600 X89.794 Y98.845
G1 F1200 X102.1 Y111.151 E37.07092
G1 X102.17 Y111.221
G0 F3600 X102.666 Y111.151
G1 F1200 X90.359 Y98.845 E37.64978
G1 X90.289 Y98.775
G0 F3600 X90.925 Y98.845
G1 F1200 X103.231 Y111.151 E38.22861
G1 X103.301 Y111.221
G0 F3600 X103.797 Y111.151
G1 F1200 X91.491 Y98.845 E38.80745
G1 X91.421 Y98.775
G0 F3600 X92.056 Y98.845
G1 F1200 X104.363 Y111.151 E39.38631
G1 X104.433 Y111.221
G0 F3600 X104.928 Y111.151
G1 F1200 X92.622 Y98.845 E39.96515
G1 X92.552 Y98.775
G0 F3600 X93.188 Y98.845
G1 F1200 X105.494 Y111.151 E40.54398
G1 X105.564 Y111.221
G0 F3600 X106.06 Y111.151
G1 F1200 X93.754 Y98.845 E41.12282
G1 X93.684 Y98.775
G0 F3600 X94.32 Y98.845
G1 F1200 X106.626 Y111.151 E41.70166
G1 X106.696 Y111.221
G0 F3600 X107.191 Y111.151
G1 F1200 X94.885 Y98.845 E42.28049
G1 X94.815 Y98.775
G0 F3600 X95.451 Y98.845
G1 F1200 X107.757 Y111.151 E42.85933
G1 X107.827 Y111.221
G0 F3600 X108.323 Y111.151
G1 F1200 X96.017 Y98.845 E43.43816
G1 X95.947 Y98.775
G0 F3600 X96.583 Y98.845
G1 F1200 X108.888 Y111.151 E44.01698
G1 X108.958 Y111.221
G0 F3600 X109.454 Y111.151
G1 F1200 X97.148 Y98.845 E44.59581
G1 X97.078 Y98.775
G0 F3600 X97.714 Y98.845
G1 F1200 X110.02 Y111.151 E45.17465
G1 X110.09 Y111.221
G0 F3600 X110.586 Y111.152
G1 F1200 X98.28 Y98.845 E45.75351
G1 X98.21 Y98.775
G0 F3600 X98.845 Y98.845
G1 F1200 X111.152 Y111.152 E46.33239
G1 X111.222 Y111.222
G0 F3600 X111.717 Y111.152
G1 F1200 X99.411 Y98.845 E46.91125
G1 X99.341 Y98.775
G0 F3600 X99.977 Y98.845
G1 F1200 X112.283 Y111.152 E47.49011
G1 X112.353 Y111.222
G0 F3600 X112.849 Y111.152
G1 F1200 X100.542 Y98.845 E48.069
G1 X100.472 Y98.775
G0 F3600 X101.108 Y98.845
G1 F1200 X113.414 Y111.152 E48.64786
G1 X113.484 Y111.222
G0 F3600 X113.98 Y111.152
G1 F1200 X101.674 Y98.845 E49.22672
G1 X101.604 Y98.775
G0 F3600 X102.239 Y98.845
G1 F1200 X114.546 Y111.152 E49.8056
G1 X114.616 Y111.222
G0 F3600 X115.112 Y111.152
G1 F1200 X102.805 Y98.845 E50.38449
G1 X102.735 Y98.775
G0 F3600 X103.371 Y98.845
G1 F1200 X115.677 Y111.152 E50.96335
G1 X115.747 Y111.222
G0 F3600 X116.243 Y111.152
G1 F1200 X103.936 Y98.845 E51.54223
G1 X103.866 Y98.775
G0 F3600 X104.502 Y98.845
G1 F1200 X116.809 Y111.152 E52.12111
G1 X116.879 Y111.222
G0 F3600 X117.374 Y111.152
G1 F1200 X105.068 Y98.845 E52.69997
G1 X104.998 Y98.775
G0 F3600 X105.633 Y98.845
G1 F1200 X117.94 Y111.152 E53.27886
G1 X118.01 Y111.222
G0 F3600 X118.506 Y111.152
G1 F1200 X106.199 Y98.845 E53.85774
G1 X106.129 Y98.775
G0 F3600 X106.765 Y98.845
G1 F1200 X119.071 Y111.152 E54.4366
G1 X119.141 Y111.222
G0 F3600 X119.637 Y111.152
G1 F1200 X107.331 Y98.846 E55.01544
G1 X107.261 Y98.776
G0 F3600 X107.897 Y98.846
G1 F1200 X120.203 Y111.152 E55.59427
G1 X120.273 Y111.222
G0 F3600 X120.768 Y111.152
G1 F1200 X108.463 Y98.846 E56.17309
G1 X108.393 Y98.776
G0 F3600 X109.028 Y98.846
G1 F1200 X121.149 Y110.966 E56.7432
G1 X121.219 Y111.036
G0 F3600 X121.149 Y110.401
G1 F1200 X109.594 Y98.846 E57.28671
G1 X109.524 Y98.776
G0 F3600 X110.16 Y98.846
G1 F1200 X121.149 Y109.835 E57.8036
G1 X121.219 Y109.905
G0 F3600 X121.149 Y109.269
G1 F1200 X110.725 Y98.846 E58.29389
G1 X110.655 Y98.776
G0 F3600 X111.291 Y98.846
G1 F1200 X121.149 Y108.704 E58.75758
G1 X121.219 Y108.774
G0 F3600 X121.149 Y108.138
G1 F1200 X111.857 Y98.846 E59.19464
G1 X111.787 Y98.776
G0 F3600 X112.422 Y98.846
G1 F1200 X121.15 Y107.573 E59.60516
G1 X121.22 Y107.643
G0 F3600 X121.15 Y107.007
G1 F1200 X112.988 Y98.846 E59.98905
G1 X112.918 Y98.776
G0 F3600 X113.554 Y98.846
G1 F1200 X121.15 Y106.442 E60.34634
G1 X121.22 Y106.512
G0 F3600 X121.15 Y105.876
G1 F1200 X114.119 Y98.846 E60.67704
G1 X114.049 Y98.776
G0 F3600 X114.685 Y98.846
G1 F1200 X121.15 Y105.31 E60.98111
G1 X121.22 Y105.38
G0 F3600 X121.15 Y104.745
G1 F1200 X115.251 Y98.846 E61.25858
G1 X115.181 Y98.776
G0 F3600 X115.817 Y98.846
G1 F1200 X121.15 Y104.18 E61.50945
G1 X121.22 Y104.25
G0 F3600 X121.15 Y103.614
G1 F1200 X116.382 Y98.846 E61.73372
G1 X116.312 Y98.776
G0 F3600 X116.948 Y98.846
G1 F1200 X121.15 Y103.048 E61.93137
G1 X121.22 Y103.118
G0 F3600 X121.15 Y102.483
G1 F1200 X117.514 Y98.846 E62.10242
G1 X117.444 Y98.776
G0 F3600 X118.079 Y98.846
G1 F1200 X121.151 Y101.918 E62.24692
G1 X121.221 Y101.988
G0 F3600 X121.151 Y101.352
G1 F1200 X118.645 Y98.846 E62.36479
G1 X118.575 Y98.776
G0 F3600 X119.211 Y98.846
G1 F1200 X121.151 Y100.786 E62.45604
G1 X121.221 Y100.856
G0 F3600 X121.151 Y100.221
G1 F1200 X119.776 Y98.846 E62.52072
G1 X119.706 Y98.776
G0 F3600 X120.342 Y98.846
G1 F1200 X121.151 Y99.655 E62.55877
G1 X121.221 Y99.725
G0 F3600 X121.151 Y99.089
G1 F1200 X120.908 Y98.846 E62.5702
G0 F3600 X120.908 Y99.065
G1 F1500 E56.0702
G0 F3600 X121.318 Y98.68
G0 X122.687 Y98.68
G0 X122.767 Y93.365
G0 X122.667 Y93.365
;TYPE:WALL-INNER
G1 F1500 E62.5702
G1 F1200 X122.667 Y93.165 E62.57685
G1 X122.867 Y93.165 E62.58116
G1 X136.335 Y93.166 E63.02911
G1 X136.334 Y116.631 E63.80956
G1 X136.334 Y116.831 E63.81621
G1 X136.134 Y116.831 E63.82052
G1 X122.667 Y116.829 E64.26843
G1 X122.667 Y93.365 E65.04885
G0 F3600 X122.767 Y93.365
G0 X128.517 Y101.876
G0 X128.57 Y101.96
G1 F1200 X128.383 Y102.088 E65.05638
G1 X128.206 Y102.225 E65.06383
G1 X128.036 Y102.375 E65.07137
G1 X127.875 Y102.536 E65.07894
G1 X127.725 Y102.707 E65.08651
G1 X127.587 Y102.885 E65.094
G1 X127.46 Y103.071 E65.10149
G1 X127.346 Y103.265 E65.10897
G1 X127.242 Y103.468 E65.11656
G1 X127.153 Y103.676 E65.12409
G1 X127.077 Y103.886 E65.13151
G1 X127.013 Y104.104 E65.13907
G1 X126.963 Y104.326 E65.14664
G1 X126.928 Y104.549 E65.15415
G1 X126.907 Y104.774 E65.16166
G1 X126.9 Y105 E65.16918
G1 X126.907 Y105.226 E65.1767
G1 X126.928 Y105.451 E65.18422
G1 X126.963 Y105.674 E65.19173
G1 X127.013 Y105.896 E65.1993
G1 X127.077 Y106.114 E65.20685
G1 X127.153 Y106.324 E65.21428
G1 X127.242 Y106.532 E65.22181
G1 X127.346 Y106.735 E65.22939
G1 X127.46 Y106.929 E65.23688
G1 X127.587 Y107.115 E65.24437
G1 X127.725 Y107.293 E65.25186
G1 X127.875 Y107.464 E65.25942
G1 X128.036 Y107.625 E65.267
G1 X128.206 Y107.775 E65.27454
G1 X128.383 Y107.912 E65.28198
G1 X128.57 Y108.04 E65.28952
G1 X128.767 Y108.156 E65.29712
G1 X128.968 Y108.257 E65.3046
G1 X129.174 Y108.347 E65.31208
G1 X129.387 Y108.423 E65.3196
G1 X129.604 Y108.487 E65.32713
G1 X129.826 Y108.537 E65.3347
G1 X130.049 Y108.572 E65.3422
G1 X130.274 Y108.593 E65.34972
G1 X130.5 Y108.6 E65.35724
G1 X130.726 Y108.593 E65.36476
G1 X130.951 Y108.572 E65.37228
G1 X131.174 Y108.537 E65.37979
G1 X131.396 Y108.487 E65.38735
