;FLAVOR:Marlin
;TIME:1010
;Filament used: 0.716135m
;Layer height: 0.2
;Generated with Cura_SteamEngine master
M104 S200
M109 S200
; -- START GCODE --
G21                     ;set units to millimetres
G90                     ;set to absolute positioning
M106 S0                 ;set fan speed to zero (turned off)
G28 X0 Y0               ;move to the X/Y origin (Home)
G28 Z0                  ;move to the Z origin (Home)
G1 Z15.0 F1200          ;move Z to position 15.0 mm
G92 E0                  ;zero the extruded length
G1 E20 F200             ;extrude 20mm of feed stock
G92 E0                  ;zero the extruded length again
G1 F7200                ;set feedrate to 120 mm/s
; -- end of START GCODE --
;LAYER_COUNT:35
;LAYER:0
M107
G0 F3600 X95.065 Y90.727 Z0.2
G0 X94.685 Y91.146
;TYPE:SKIRT
G1 F1200 X95.065 Y90.727 E0.01881
G1 X95.5 Y90.366 E0.03762
G1 X95.982 Y90.07 E0.05643
G1 X96.5 Y89.845 E0.07521
G1 X97.045 Y89.695 E0.09401
G1 X97.43 Y89.637 E0.10696
G1 X97.926 Y89.587 E0.12354
G1 X98.337 Y89.567 E0.13723
G1 X117.177 Y89.614 E0.76385
G1 X117.741 Y89.655 E0.78266
G1 X118.293 Y89.776 E0.80146
G1 X118.823 Y89.973 E0.82026
G1 X119.32 Y90.243 E0.83907
G1 X119.854 Y90.651 E0.86143
G1 X120.058 Y90.836 E0.87059
G1 X120.449 Y91.244 E0.88938
G1 X120.778 Y91.704 E0.90819
G1 X121.04 Y92.205 E0.927
G1 X121.228 Y92.738 E0.94579
G1 X121.335 Y93.261 E0.96355
G1 X121.394 Y93.696 E0.97815
G1 X121.43 Y94.236 E0.99615
G1 X121.417 Y115.53 E1.70439
G1 X121.377 Y116.094 E1.7232
G1 X121.257 Y116.647 E1.74202
G1 X121.061 Y117.177 E1.76081
G1 X120.792 Y117.674 E1.77961
G1 X120.615 Y117.931 E1.78999
G1 X120.476 Y118.116 E1.79768
G1 X120.105 Y118.543 E1.8165
G1 X119.678 Y118.913 E1.83529
G1 X119.203 Y119.219 E1.85408
G1 X118.676 Y119.461 E1.87337
G1 X118.499 Y119.527 E1.87965
G1 X117.956 Y119.687 E1.89848
G1 X117.397 Y119.768 E1.91727
G1 X117.104 Y119.779 E1.92702
G1 X98.018 Y119.791 E2.56182
G1 X97.454 Y119.751 E2.58063
G1 X96.901 Y119.633 E2.59944
G1 X96.622 Y119.541 E2.60921
G1 X96.256 Y119.405 E2.62219
G1 X95.741 Y119.171 E2.64101
G1 X95.264 Y118.867 E2.65982
G1 X94.836 Y118.498 E2.67862
G1 X94.463 Y118.073 E2.69742
G1 X94.154 Y117.6 E2.71622
G1 X93.901 Y117.053 E2.73626
G1 X93.829 Y116.86 E2.74311
G1 X93.67 Y116.318 E2.7619
G1 X93.588 Y115.758 E2.78072
G1 X93.577 Y115.461 E2.79061
G1 X93.582 Y93.933 E3.50663
G1 X93.622 Y93.369 E3.52544
G1 X93.741 Y92.817 E3.54422
G1 X93.937 Y92.286 E3.56305
G1 X94.206 Y91.789 E3.58184
G1 X94.436 Y91.463 E3.59511
G1 X94.685 Y91.146 E3.60852
G0 F3600 X95 Y91.393
G1 F1200 X95.362 Y90.997 E3.62636
G1 X95.778 Y90.66 E3.64417
G1 X96.24 Y90.387 E3.66202
G1 X96.738 Y90.187 E3.67987
G1 X97.47 Y90.035 E3.70473
G1 X97.966 Y89.985 E3.72131
G1 X98.336 Y89.967 E3.73364
G1 X117.176 Y90.014 E4.36026
G1 X117.711 Y90.055 E4.3781
G1 X118.233 Y90.176 E4.39593
G1 X118.732 Y90.372 E4.41376
G1 X119.196 Y90.641 E4.4316
G1 X119.585 Y90.947 E4.44806
G1 X119.789 Y91.132 E4.45722
G1 X120.159 Y91.521 E4.47507
G1 X120.466 Y91.961 E4.49292
G1 X120.705 Y92.441 E4.51075
G1 X120.87 Y92.951 E4.52858
G1 X120.938 Y93.315 E4.5409
G1 X120.997 Y93.75 E4.5555
G1 X121.03 Y94.236 E4.5717
G1 X121.017 Y115.53 E5.27994
G1 X120.977 Y116.065 E5.29778
G1 X120.857 Y116.588 E5.31563
G1 X120.662 Y117.087 E5.33345
G1 X120.295 Y117.69 E5.35693
G1 X120.156 Y117.875 E5.36463
G1 X119.803 Y118.279 E5.38247
G1 X119.394 Y118.626 E5.40031
G1 X118.938 Y118.908 E5.41814
G1 X118.536 Y119.086 E5.43276
G1 X118.359 Y119.152 E5.43905
G1 X117.844 Y119.302 E5.45689
G1 X117.103 Y119.379 E5.48167
G1 X98.017 Y119.391 E6.11647
G1 X97.482 Y119.351 E6.13431
G1 X96.761 Y119.166 E6.15907
G1 X96.395 Y119.03 E6.17206
G1 X95.908 Y118.806 E6.18989
G1 X95.459 Y118.512 E6.20774
G1 X95.059 Y118.155 E6.22557
G1 X94.716 Y117.743 E6.2434
G1 X94.439 Y117.284 E6.26123
G1 X94.276 Y116.913 E6.27471
G1 X94.204 Y116.72 E6.28156
G1 X94.055 Y116.205 E6.29939
G1 X93.977 Y115.461 E6.32427
G1 X93.982 Y93.933 E7.0403
G1 X94.022 Y93.398 E7.05814
G1 X94.141 Y92.875 E7.07598
G1 X94.337 Y92.376 E7.09381
G1 X94.751 Y91.71 E7.11989
G1 X95 Y91.393 E7.1333
G0 F3600 X95.315 Y91.64
G1 F1200 X95.657 Y91.269 E7.15008
G1 X96.054 Y90.956 E7.1669
G1 X96.496 Y90.709 E7.18374
G1 X96.97 Y90.535 E7.20053
G1 X97.51 Y90.433 E7.21881
G1 X98.006 Y90.383 E7.23539
G1 X98.335 Y90.367 E7.24635
G1 X117.175 Y90.414 E7.87297
G1 X117.679 Y90.455 E7.88979
G1 X118.17 Y90.575 E7.9066
G1 X118.636 Y90.771 E7.92341
G1 X119.065 Y91.038 E7.94022
G1 X119.317 Y91.244 E7.95105
G1 X119.521 Y91.429 E7.96021
G1 X119.867 Y91.797 E7.97701
G1 X120.151 Y92.215 E7.99381
G1 X120.366 Y92.673 E8.01064
G1 X120.542 Y93.369 E8.03452
G1 X120.601 Y93.804 E8.04912
G1 X120.63 Y94.236 E8.06352
G1 X120.617 Y115.53 E8.77176
G1 X120.577 Y116.034 E8.78858
G1 X120.458 Y116.525 E8.80538
G1 X120.263 Y116.992 E8.82221
G1 X119.975 Y117.45 E8.84021
G1 X119.836 Y117.635 E8.8479
G1 X119.502 Y118.014 E8.86471
G1 X119.111 Y118.336 E8.88155
G1 X118.676 Y118.592 E8.89834
G1 X118.396 Y118.711 E8.90846
G1 X118.219 Y118.777 E8.91474
G1 X117.733 Y118.916 E8.93156
G1 X117.103 Y118.979 E8.95261
G1 X98.017 Y118.991 E9.58742
G1 X97.513 Y118.951 E9.60423
G1 X96.9 Y118.791 E9.6253
G1 X96.534 Y118.655 E9.63829
G1 X96.076 Y118.442 E9.65509
G1 X95.657 Y118.159 E9.67191
G1 X95.287 Y117.814 E9.68873
G1 X94.977 Y117.415 E9.70554
G1 X94.651 Y116.773 E9.72949
G1 X94.579 Y116.58 E9.73634
G1 X94.44 Y116.094 E9.75315
G1 X94.377 Y115.461 E9.77431
G1 X94.382 Y93.933 E10.49033
G1 X94.422 Y93.429 E10.50715
G1 X94.541 Y92.938 E10.52395
G1 X94.736 Y92.471 E10.54078
G1 X95.066 Y91.957 E10.5611
G1 X95.315 Y91.64 E10.57451
G1 F1500 E4.07451
G0 F3600 X97.088 Y93.396
G0 X98.186 Y94.184
G0 X98.272 Y94.37
G0 X98.172 Y94.37
;TYPE:WALL-INNER
G1 F1500 E10.57451
G1 F1200 X98.172 Y94.17 E10.58116
G1 X98.372 Y94.17 E10.58547
G1 X116.832 Y94.173 E11.19945
G1 X116.832 Y96.4 E11.27352
G1 X116.831 Y102.6 E11.47973
G1 X116.831 Y102.684 E11.48253
G1 X116.828 Y115 E11.89216
G1 X116.828 Y115.2 E11.89881
G1 X116.628 Y115.2 E11.90312
G1 X109.303 Y115.197 E12.14675
G1 X109.3 Y107.473 E12.40365
G1 X109.284 Y107.296 E12.40956
G1 X109.238 Y107.102 E12.41619
G1 X109.16 Y106.91 E12.42308
G1 X109.051 Y106.735 E12.42994
G1 X108.92 Y106.58 E12.43669
G1 X108.765 Y106.449 E12.44344
G1 X108.59 Y106.34 E12.4503
G1 X108.398 Y106.262 E12.45719
G1 X108.202 Y106.216 E12.46389
G1 X108.025 Y106.201 E12.4698
G1 X106.973 Y106.2 E12.50479
G1 X106.796 Y106.216 E12.5107
G1 X106.602 Y106.262 E12.51733
G1 X106.41 Y106.34 E12.52422
G1 X106.235 Y106.449 E12.53108
G1 X106.08 Y106.58 E12.53783
G1 X105.949 Y106.735 E12.54458
G1 X105.84 Y106.91 E12.55143
G1 X105.762 Y107.102 E12.55833
G1 X105.716 Y107.298 E12.56502
G1 X105.701 Y107.475 E12.57093
G1 X105.697 Y115.197 E12.82777
G1 X98.372 Y115.2 E13.0714
G1 X98.172 Y115.2 E13.07805
G1 X98.172 Y115 E13.08236
G1 X98.172 Y102.6 E13.49478
G1 X101.224 Y102.6 E13.59629
G1 X102.069 Y100.463 E13.67272
G1 X102.265 Y99.968 E13.69043
G1 X102.443 Y100.47 E13.69985
G1 X103.198 Y102.6 E13.77501
G1 X106.2 Y102.6 E13.87486
G1 X106.201 Y102.6 E13.87489
G1 X106.494 Y102.6 E13.88463
G1 X106.386 Y102.327 E13.89036
G1 X104.029 Y96.4 E14.10251
G1 X100.872 Y96.4 E14.20751
G1 X98.55 Y101.057 E14.38059
G1 X98.172 Y101.816 E14.40879
G1 X98.172 Y100.969 E14.42325
G1 X98.172 Y100.967 E14.42332
G1 X98.172 Y94.37 E14.64273
G0 F3600 X98.272 Y94.37
G0 X104.051 Y96.367
G0 X111.421 Y99.485
G0 X111.512 Y99.525
G1 F1200 X111.389 Y99.883 E14.65532
G1 X111.329 Y100.223 E14.66681
G1 X111.328 Y100.597 E14.67925
G1 X111.381 Y100.943 E14.69089
G1 X111.505 Y101.298 E14.7034
G1 X111.676 Y101.614 E14.71535
G1 X111.896 Y101.895 E14.72722
G1 X112.153 Y102.136 E14.73893
G1 X112.463 Y102.34 E14.75128
G1 X112.793 Y102.484 E14.76325
G1 X113.141 Y102.572 E14.77519
G1 X113.475 Y102.6 E14.78634
G1 X116.516 Y102.6 E14.88748
G1 X116.6 Y102.6 E14.88986
G1 X116.6 Y96.4 E15.00921
G1 X112.9 Y96.4 E15.13227
G1 X112.9 Y98.334 E15.1966
G1 X112.796 Y98.36 E15.20016
G1 X112.488 Y98.49 E15.21128
G1 X112.165 Y98.699 E15.22408
G1 X111.912 Y98.926 E15.23538
G1 X111.678 Y99.227 E15.24806
G1 X111.512 Y99.525 E15.25941
G0 F3600 X111.421 Y99.485
G0 X112.872 Y96.372
G0 X113.3 Y96.3
G0 X113.3 Y96.8
;TYPE:WALL-OUTER
G1 F1200 X113.3 Y98.657 E15.32117
G1 X113.234 Y98.662 E15.32337
G1 X112.924 Y98.74 E15.334
G1 X112.676 Y98.845 E15.34296
G1 X112.409 Y99.018 E15.35354
G1 X112.206 Y99.2 E15.36261
G1 X112.013 Y99.448 E15.37306
G1 X111.879 Y99.689 E15.38224
G1 X111.777 Y99.984 E15.39262
G1 X111.729 Y100.258 E15.40187
G1 X111.728 Y100.567 E15.41215
G1 X111.771 Y100.846 E15.42154
G1 X111.872 Y101.136 E15.43175
G1 X112.012 Y101.394 E15.44151
G1 X112.192 Y101.625 E15.45125
G1 X112.401 Y101.821 E15.46078
G1 X112.654 Y101.987 E15.47085
G1 X112.923 Y102.104 E15.4806
G1 X113.207 Y102.176 E15.49035
G1 X113.492 Y102.2 E15.49986
G1 X116.2 Y102.2 E15.58993
G1 X116.2 Y96.8 E15.76953
G1 X113.3 Y96.8 E15.86599
G0 F3600 X113.3 Y97
G0 X112.8 Y97
G0 X106.369 Y102.017
G0 X105.905 Y102.2
G1 F1200 X105.797 Y101.927 E15.87575
G1 X103.758 Y96.8 E16.05927
G1 X101.12 Y96.8 E16.14701
G1 X98.571 Y101.911 E16.33697
G1 X98.427 Y102.2 E16.34771
G1 X98.749 Y102.2 E16.35386
G1 X98.75 Y102.2 E16.3539
G1 X100.952 Y102.2 E16.42713
G1 X102.09 Y99.324 E16.53001
G1 X102.286 Y98.829 E16.54771
G1 X102.464 Y99.331 E16.55713
G1 X103.481 Y102.2 E16.65837
G1 X105.611 Y102.2 E16.72921
G1 X105.612 Y102.2 E16.72925
G1 X105.905 Y102.2 E16.73496
G0 F3600 X105.832 Y102.014
G0 X106.295 Y101.831
G0 X106.527 Y102.622
G0 X106.609 Y106.158
G0 X106.724 Y106.644
G1 F1200 X106.592 Y106.698 E16.7397
G1 X106.471 Y106.773 E16.74444
G1 X106.364 Y106.864 E16.74911
G1 X106.273 Y106.971 E16.75378
G1 X106.198 Y107.092 E16.75852
G1 X106.144 Y107.224 E16.76326
G1 X106.112 Y107.361 E16.76794
G1 X106.101 Y107.492 E16.77231
G1 X106.097 Y115.517 E17.03923
G1 X106.07 Y115.57 E17.0412
G1 X106.045 Y115.588 E17.04223
G1 X106.017 Y115.597 E17.04321
G1 X98.083 Y115.6 E17.30709
G1 X98.014 Y115.6 E17.30939
G1 X97.906 Y115.588 E17.313
G1 X97.815 Y115.552 E17.31626
G1 X97.772 Y115.502 E17.31845
G1 X97.772 Y115.433 E17.32074
G1 X97.772 Y93.955 E18.03511
G1 X97.79 Y93.9 E18.03703
G1 X97.836 Y93.836 E18.03965
G1 X97.9 Y93.79 E18.04227
G1 X97.964 Y93.77 E18.0445
G1 X116.988 Y93.773 E18.67724
G1 X117.037 Y93.773 E18.67887
G1 X117.102 Y93.793 E18.68114
G1 X117.157 Y93.831 E18.68336
G1 X117.207 Y93.897 E18.68611
G1 X117.227 Y93.958 E18.68825
G1 X117.232 Y94.003 E18.68975
G1 X117.232 Y94.052 E18.69138
G1 X117.228 Y115.433 E19.40252
G1 X117.228 Y115.502 E19.40481
G1 X117.182 Y115.554 E19.40712
G1 X117.095 Y115.587 E19.41022
G1 X116.984 Y115.6 E19.41394
G1 X116.915 Y115.6 E19.41623
G1 X108.983 Y115.597 E19.68005
G1 X108.93 Y115.57 E19.68203
G1 X108.912 Y115.545 E19.68305
G1 X108.903 Y115.517 E19.68403
G1 X108.9 Y107.491 E19.95098
G1 X108.888 Y107.36 E19.95535
G1 X108.856 Y107.224 E19.96
G1 X108.802 Y107.092 E19.96474
G1 X108.727 Y106.971 E19.96948
G1 X108.636 Y106.864 E19.97415
G1 X108.529 Y106.773 E19.97882
G1 X108.408 Y106.698 E19.98356
G1 X108.276 Y106.644 E19.9883
G1 X108.139 Y106.612 E19.99298
G1 X108.008 Y106.601 E19.99735
G1 X106.991 Y106.6 E20.03118
G1 X106.86 Y106.612 E20.03555
G1 X106.724 Y106.644 E20.0402
G0 F3600 X106.592 Y106.698
G0 X106.543 Y106.728
G0 X106.28 Y106.304
G0 X98.613 Y115.018
;TYPE:SKIN
G1 F1200 X98.351 Y114.756 E20.05252
G0 F3600 X98.351 Y114.19
G1 F1200 X99.179 Y115.018 E20.09147
G1 X99.249 Y115.088
G0 F3600 X99.745 Y115.018
G1 F1200 X98.351 Y113.624 E20.15704
G1 X98.281 Y113.554
G0 F3600 X98.351 Y113.059
G1 F1200 X100.31 Y115.017 E20.24916
G1 X100.38 Y115.087
G0 F3600 X100.875 Y115.017
G1 F1200 X98.351 Y112.493 E20.36788
G1 X98.281 Y112.423
G0 F3600 X98.351 Y111.927
G1 F1200 X101.441 Y115.017 E20.51323
G1 X101.511 Y115.087
G0 F3600 X102.006 Y115.017
G1 F1200 X98.351 Y111.362 E20.68515
G1 X98.281 Y111.292
G0 F3600 X98.351 Y110.796
G1 F1200 X102.572 Y115.017 E20.88369
G1 X102.642 Y115.087
G0 F3600 X103.137 Y115.017
G1 F1200 X98.351 Y110.23 E21.10883
G1 X98.281 Y110.16
G0 F3600 X98.351 Y109.665
G1 F1200 X103.703 Y115.017 E21.36057
G1 X103.773 Y115.087
G0 F3600 X104.268 Y115.016
G1 F1200 X98.351 Y109.099 E21.63889
G1 X98.281 Y109.029
G0 F3600 X98.351 Y108.533
G1 F1200 X104.834 Y115.016 E21.94383
G1 X104.904 Y115.086
G0 F3600 X105.399 Y115.016
G1 F1200 X98.351 Y107.968 E22.27535
G1 X98.281 Y107.898
G0 F3600 X98.351 Y107.402
G1 F1200 X105.518 Y114.568 E22.61244
G1 X105.588 Y114.638
G0 F3600 X105.518 Y114.003
G1 F1200 X98.351 Y106.836 E22.94955
G1 X98.281 Y106.766
G0 F3600 X98.351 Y106.271
G1 F1200 X105.518 Y113.438 E23.28666
G1 X105.588 Y113.508
G0 F3600 X105.518 Y112.872
G1 F1200 X98.351 Y105.705 E23.62378
G1 X98.281 Y105.635
G0 F3600 X98.351 Y105.139
G1 F1200 X105.518 Y112.306 E23.96089
G1 X105.588 Y112.376
G0 F3600 X105.519 Y111.741
G1 F1200 X98.351 Y104.574 E24.29803
G1 X98.281 Y104.504
G0 F3600 X98.351 Y104.008
G1 F1200 X105.519 Y111.176 E24.63519
G1 X105.589 Y111.246
G0 F3600 X105.519 Y110.61
G1 F1200 X98.351 Y103.442 E24.97235
G1 X98.281 Y103.372
G0 F3600 X98.351 Y102.876
G1 F1200 X105.52 Y110.045 E25.30956
G1 X105.59 Y110.115
G0 F3600 X105.52 Y109.479
G1 F1200 X98.819 Y102.779 E25.62473
G1 X98.749 Y102.709
G0 F3600 X99.385 Y102.779
G1 F1200 X105.52 Y108.914 E25.9133
G1 X105.59 Y108.984
G0 F3600 X105.52 Y108.349
G1 F1200 X99.95 Y102.779 E26.1753
G1 X99.88 Y102.709
G0 F3600 X100.516 Y102.779
G1 F1200 X105.52 Y107.783 E26.41067
G1 X105.59 Y107.853
G0 F3600 X105.544 Y107.241
G1 F1200 X101.082 Y102.779 E26.62055
G1 X101.012 Y102.709
G0 F3600 X101.43 Y102.562
G1 F1200 X105.686 Y106.817 E26.82071
G1 X105.756 Y106.887
G0 F3600 X105.922 Y106.488
G1 F1200 X101.591 Y102.157 E27.02443
G1 X101.521 Y102.087
G0 F3600 X101.751 Y101.751
G1 F1200 X106.235 Y106.235 E27.23534
G1 X106.305 Y106.305
G0 F3600 X106.633 Y106.068
G1 F1200 X103.345 Y102.78 E27.39
G1 X103.275 Y102.71
G0 F3600 X103.911 Y102.78
G1 F1200 X107.151 Y106.02 E27.5424
G1 X107.221 Y106.09
G0 F3600 X107.717 Y106.02
G1 F1200 X104.477 Y102.78 E27.6948
G1 X104.407 Y102.71
G0 F3600 X105.042 Y102.78
G1 F1200 X108.321 Y106.058 E27.84901
G1 X108.391 Y106.128
G0 F3600 X109.083 Y106.712
G0 X109.44 Y107.177
G1 F1200 X116.648 Y114.385 E28.18805
G1 X116.718 Y114.455
G0 F3600 X116.648 Y113.82
G1 F1200 X105.608 Y102.78 E28.70734
G1 X105.538 Y102.71
G0 F3600 X106.174 Y102.78
G1 F1200 X116.648 Y113.254 E29.20001
G1 X116.718 Y113.324
G0 F3600 X116.648 Y112.688
G1 F1200 X106.739 Y102.78 E29.66607
G1 X106.669 Y102.71
G0 F3600 X106.396 Y101.871
G1 F1200 X116.648 Y112.123 E30.14829
G1 X116.718 Y112.193
G0 F3600 X116.648 Y111.557
G1 F1200 X106.023 Y100.932 E30.64806
G1 X105.953 Y100.862
G0 F3600 X105.65 Y99.993
G1 F1200 X116.648 Y110.991 E31.16537
G1 X116.718 Y111.061
G0 F3600 X116.648 Y110.426
G1 F1200 X105.276 Y99.054 E31.70028
G1 X105.206 Y98.984
G0 F3600 X104.904 Y98.116
G1 F1200 X116.648 Y109.86 E32.25268
G1 X116.718 Y109.93
G0 F3600 X116.648 Y109.294
G1 F1200 X104.53 Y97.176 E32.82267
G1 X104.46 Y97.106
G0 F3600 X104.157 Y96.237
G1 F1200 X116.649 Y108.729 E33.41026
G1 X116.719 Y108.799
G0 F3600 X116.649 Y108.164
G1 F1200 X102.836 Y94.351 E34.05998
G1 X102.766 Y94.281
G0 F3600 X103.402 Y94.351
G1 F1200 X116.649 Y107.598 E34.68308
G1 X116.719 Y107.668
G0 F3600 X116.649 Y107.032
G1 F1200 X103.968 Y94.351 E35.27955
G1 X103.898 Y94.281
G0 F3600 X104.533 Y94.351
G1 F1200 X111.223 Y101.041 E35.59423
G1 X111.293 Y101.111
G0 F3600 X111.147 Y100.399
G1 F1200 X105.099 Y94.351 E35.87871
G1 X105.029 Y94.281
G0 F3600 X105.665 Y94.351
G1 F1200 X111.204 Y99.89 E36.13925
G1 X111.274 Y99.96
G0 F3600 X111.342 Y99.463
G1 F1200 X106.231 Y94.352 E36.37965
G1 X106.161 Y94.282
G0 F3600 X106.797 Y94.352
G1 F1200 X111.546 Y99.101 E36.60303
G1 X111.616 Y99.171
G0 F3600 X111.796 Y98.785
G1 F1200 X107.362 Y94.352 E36.81157
G1 X107.292 Y94.282
G0 F3600 X107.928 Y94.352
G1 F1200 X112.101 Y98.525 E37.00786
G1 X112.171 Y98.595
G0 F3600 X112.451 Y98.309
G1 F1200 X108.494 Y94.352 E37.19398
G1 X108.424 Y94.282
G0 F3600 X109.059 Y94.352
G1 F1200 X112.719 Y98.011 E37.36611
G1 X112.789 Y98.081
G0 F3600 X112.719 Y97.445
G1 F1200 X109.626 Y94.352 E37.5116
G1 X109.556 Y94.282
G0 F3600 X110.191 Y94.352
