;FLAVOR:Marlin
;TIME:9997
;Filament used: 7.08563m
;Layer height: 0.2
;Generated with Cura_SteamEngine master
M104 S200
M109 S200
; -- START GCODE --
G21                     ;set units to millimetres
G90                     ;set to absolute positioning
M106 S0                 ;set fan speed to zero (turned off)
G28 X0 Y0               ;move to the X/Y origin (Home)
G28 Z0                  ;move to the Z origin (Home)
G1 Z15.0 F1200          ;move Z to position 15.0 mm
G92 E0                  ;zero the extruded length
G1 E20 F200             ;extrude 20mm of feed stock
G92 E0                  ;zero the extruded length again
G1 F7200                ;set feedrate to 120 mm/s
; -- end of START GCODE --
;LAYER_COUNT:35
;LAYER:0
M107
G0 F3600 X65.314 Y59.611 Z0.2
G0 X65.554 Y59.368
;TYPE:SKIRT
G1 F1200 X65.937 Y59.038 E0.01681
G1 X66.367 Y58.772 E0.03363
G1 X66.833 Y58.577 E0.05043
G1 X67.503 Y58.434 E0.07322
G1 X67.988 Y58.384 E0.08944
G1 X68.319 Y58.367 E0.10046
G1 X87.055 Y58.382 E0.72362
G1 X87.158 Y58.384 E0.72705
G1 X91.105 Y58.514 E0.8584
G1 X98.262 Y58.368 E1.09649
G1 X98.33 Y58.367 E1.09875
G1 X117.055 Y58.382 E1.72155
G1 X117.158 Y58.384 E1.72497
G1 X121.105 Y58.514 E1.85632
G1 X128.262 Y58.368 E2.09442
G1 X128.335 Y58.367 E2.09684
G1 X147.182 Y58.416 E2.7237
G1 X147.686 Y58.457 E2.74052
G1 X148.177 Y58.577 E2.75733
G1 X148.643 Y58.773 E2.77414
G1 X149.073 Y59.04 E2.79098
G1 X149.523 Y59.443 E2.81107
G1 X149.744 Y59.682 E2.8219
G1 X150.057 Y60.08 E2.83874
G1 X150.304 Y60.521 E2.85555
G1 X150.478 Y60.996 E2.87237
G1 X150.574 Y61.492 E2.88918
G1 X150.595 Y61.851 E2.90114
G1 X150.62 Y83.539 E3.62248
G1 X150.618 Y83.645 E3.62601
G1 X150.499 Y87.376 E3.75017
G1 X150.629 Y94.184 E3.97664
G1 X150.63 Y94.252 E3.97891
G1 X150.578 Y116.535 E4.72004
G1 X150.578 Y116.573 E4.72131
G1 X150.499 Y122.173 E4.90758
G1 X150.63 Y126.35 E5.04658
G1 X150.632 Y126.453 E5.05001
G1 X150.612 Y147.555 E5.75186
G1 X150.572 Y148.059 E5.76868
G1 X150.452 Y148.55 E5.78549
G1 X150.257 Y149.017 E5.80232
G1 X149.991 Y149.446 E5.81911
G1 X149.66 Y149.829 E5.83595
G1 X149.374 Y150.08 E5.8486
G1 X149.088 Y150.302 E5.86064
G1 X148.666 Y150.579 E5.87743
G1 X148.205 Y150.787 E5.89425
G1 X147.717 Y150.919 E5.91107
G1 X147.131 Y150.974 E5.93064
G1 X128.678 Y151 E6.54439
G1 X128.613 Y150.999 E6.54656
G1 X121.009 Y150.856 E6.79951
G1 X117.268 Y150.98 E6.92401
G1 X117.165 Y150.982 E6.92743
G1 X98.676 Y151 E7.54238
G1 X98.613 Y150.999 E7.54448
G1 X91.009 Y150.856 E7.79743
G1 X87.268 Y150.98 E7.92192
G1 X87.162 Y150.982 E7.92545
G1 X68.032 Y150.983 E8.56172
G1 X67.528 Y150.943 E8.57853
G1 X67.018 Y150.818 E8.596
G1 X66.635 Y150.69 E8.60943
G1 X66.169 Y150.492 E8.62627
G1 X65.741 Y150.224 E8.64306
G1 X65.36 Y149.891 E8.6599
G1 X64.935 Y149.351 E8.68275
G1 X62.429 Y145.342 E8.84
G1 X59.299 Y140.851 E9.02207
G1 X55.921 Y136.543 E9.20415
G1 X52.292 Y132.422 E9.38678
G1 X48.441 Y128.515 E9.56925
G1 X46.47 Y126.679 E9.65884
G1 X42.304 Y123.115 E9.84118
G1 X36.938 Y119.095 E10.06419
G1 X36.927 Y119.087 E10.06464
G1 X35.673 Y118.139 E10.11693
G1 X35.295 Y117.803 E10.13375
G1 X34.975 Y117.412 E10.15055
G1 X34.72 Y116.975 E10.16738
G1 X34.537 Y116.504 E10.18419
G1 X34.431 Y116.009 E10.20102
G1 X34.403 Y115.591 E10.21496
G1 X34.372 Y94.584 E10.91365
G1 X34.381 Y94.333 E10.92201
G1 X34.441 Y93.555 E10.94796
G1 X34.52 Y93.056 E10.96476
G1 X34.676 Y92.575 E10.98158
G1 X34.906 Y92.124 E10.99842
G1 X35.204 Y91.716 E11.01522
G1 X35.748 Y91.214 E11.03984
G1 X39.074 Y88.792 E11.17669
G1 X43.394 Y85.4 E11.35937
G1 X47.515 Y81.769 E11.54205
G1 X51.431 Y77.905 E11.72503
G1 X53.244 Y75.956 E11.81356
G1 X56.833 Y71.757 E11.99729
G1 X60.139 Y67.415 E12.1788
G1 X63.224 Y62.847 E12.36213
G1 X64.867 Y60.181 E12.46629
G1 X65.314 Y59.611 E12.49038
G1 X65.554 Y59.368 E12.50174
G1 F1500 E6.00174
G0 F3600 X67.397 Y61.087
G0 X68.186 Y62.184
G0 X68.372 Y62.27
G0 X68.372 Y62.17
;TYPE:WALL-INNER
G1 F1500 E12.50174
G1 F1200 X86.832 Y62.173 E13.11573
G1 X86.832 Y64.4 E13.1898
G1 X86.831 Y70.6 E13.39601
G1 X86.831 Y70.684 E13.3988
G1 X86.828 Y83 E13.80844
G1 X86.828 Y83.2 E13.81509
G1 X86.628 Y83.2 E13.81939
G1 X79.303 Y83.197 E14.06303
G1 X79.3 Y75.473 E14.31993
G1 X79.284 Y75.296 E14.32584
G1 X79.238 Y75.102 E14.33247
G1 X79.16 Y74.91 E14.33936
G1 X79.051 Y74.735 E14.34622
G1 X78.92 Y74.58 E14.35297
G1 X78.765 Y74.449 E14.35972
G1 X78.59 Y74.34 E14.36658
G1 X78.398 Y74.262 E14.37347
G1 X78.202 Y74.216 E14.38016
G1 X78.025 Y74.201 E14.38607
G1 X76.973 Y74.2 E14.42106
G1 X76.796 Y74.216 E14.42697
G1 X76.602 Y74.262 E14.43361
G1 X76.41 Y74.34 E14.4405
G1 X76.235 Y74.449 E14.44736
G1 X76.08 Y74.58 E14.45411
G1 X75.949 Y74.735 E14.46086
G1 X75.84 Y74.91 E14.46771
G1 X75.762 Y75.102 E14.47461
G1 X75.716 Y75.298 E14.4813
G1 X75.701 Y75.475 E14.48721
G1 X75.697 Y83.197 E14.74404
G1 X68.372 Y83.2 E14.98767
G1 X68.172 Y83.2 E14.99433
G1 X68.172 Y83 E14.99863
G1 X68.172 Y70.6 E15.41106
G1 X71.224 Y70.6 E15.51257
G1 X72.069 Y68.463 E15.589
G1 X72.265 Y67.968 E15.60671
G1 X72.443 Y68.47 E15.61612
G1 X73.198 Y70.6 E15.69129
G1 X76.2 Y70.6 E15.79113
G1 X76.201 Y70.6 E15.79117
G1 X76.494 Y70.6 E15.80091
G1 X76.386 Y70.327 E15.80664
G1 X74.029 Y64.4 E16.01878
G1 X70.872 Y64.4 E16.12379
G1 X68.55 Y69.057 E16.29687
G1 X68.172 Y69.816 E16.32507
G1 X68.172 Y68.969 E16.33953
G1 X68.172 Y68.967 E16.33959
G1 X68.172 Y62.37 E16.55901
G1 X68.172 Y62.17 E16.56566
G1 X68.372 Y62.17 E16.56997
G0 F3600 X68.372 Y62.27
G0 X74.051 Y64.367
G0 X81.421 Y67.485
G0 X81.512 Y67.525
G1 F1200 X81.389 Y67.883 E16.58256
G1 X81.329 Y68.223 E16.59404
G1 X81.328 Y68.597 E16.60648
G1 X81.381 Y68.941 E16.61806
G1 X81.504 Y69.299 E16.63065
G1 X81.677 Y69.615 E16.64263
G1 X81.896 Y69.895 E16.65445
G1 X82.153 Y70.137 E16.6662
G1 X82.463 Y70.339 E16.6785
G1 X82.793 Y70.484 E16.69049
G1 X83.141 Y70.572 E16.70243
G1 X83.475 Y70.6 E16.71358
G1 X86.516 Y70.6 E16.81472
G1 X86.6 Y70.6 E16.8171
G1 X86.6 Y64.4 E16.93645
G1 X82.9 Y64.4 E17.05951
G1 X82.9 Y66.334 E17.12383
G1 X82.796 Y66.36 E17.1274
G1 X82.488 Y66.49 E17.13852
G1 X82.165 Y66.699 E17.15131
G1 X81.912 Y66.926 E17.16262
G1 X81.678 Y67.227 E17.1753
G1 X81.512 Y67.525 E17.18665
G0 F3600 X81.421 Y67.485
G0 X82.872 Y64.372
G0 X83.3 Y64.3
G0 X83.3 Y64.8
;TYPE:WALL-OUTER
G1 F1200 X83.3 Y66.657 E17.24841
G1 X83.234 Y66.662 E17.25061
G1 X82.924 Y66.74 E17.26124
G1 X82.676 Y66.845 E17.2702
G1 X82.409 Y67.018 E17.28078
G1 X82.206 Y67.2 E17.28985
G1 X82.013 Y67.448 E17.3003
G1 X81.879 Y67.689 E17.30947
G1 X81.777 Y67.984 E17.31986
G1 X81.729 Y68.258 E17.32911
G1 X81.728 Y68.567 E17.33939
G1 X81.771 Y68.845 E17.34874
G1 X81.871 Y69.137 E17.35901
G1 X82.012 Y69.394 E17.36876
G1 X82.192 Y69.625 E17.3785
G1 X82.401 Y69.821 E17.38803
G1 X82.654 Y69.986 E17.39807
G1 X82.923 Y70.104 E17.40784
G1 X83.207 Y70.176 E17.41759
G1 X83.492 Y70.2 E17.4271
G1 X86.2 Y70.2 E17.51717
G1 X86.2 Y64.8 E17.69677
G1 X83.3 Y64.8 E17.79323
G0 F3600 X83.3 Y65
G0 X82.8 Y65
G0 X76.369 Y70.017
G0 X75.905 Y70.2
G1 F1200 X75.797 Y69.927 E17.80299
G1 X73.758 Y64.8 E17.98651
G1 X71.12 Y64.8 E18.07425
G1 X68.571 Y69.911 E18.26421
G1 X68.427 Y70.2 E18.27495
G1 X68.749 Y70.2 E18.2811
G1 X68.75 Y70.2 E18.28114
G1 X70.952 Y70.2 E18.35437
G1 X72.09 Y67.324 E18.45725
G1 X72.286 Y66.829 E18.47495
G1 X72.464 Y67.331 E18.48437
G1 X73.481 Y70.2 E18.58561
G1 X75.611 Y70.2 E18.65645
G1 X75.612 Y70.2 E18.65649
G1 X75.905 Y70.2 E18.6622
G0 F3600 X75.832 Y70.014
G0 X76.295 Y69.831
G0 X76.527 Y70.622
G0 X76.609 Y74.158
G0 X76.724 Y74.644
G1 F1200 X76.592 Y74.698 E18.66694
G1 X76.471 Y74.773 E18.67168
G1 X76.364 Y74.864 E18.67635
G1 X76.273 Y74.971 E18.68102
G1 X76.198 Y75.092 E18.68576
G1 X76.144 Y75.224 E18.6905
G1 X76.112 Y75.361 E18.69518
G1 X76.101 Y75.492 E18.69955
G1 X76.097 Y83.517 E18.96647
G1 X76.07 Y83.57 E18.96844
G1 X76.045 Y83.588 E18.96947
G1 X76.017 Y83.597 E18.97045
G1 X68.083 Y83.6 E19.23433
G1 X68.014 Y83.6 E19.23663
G1 X67.906 Y83.588 E19.24024
G1 X67.815 Y83.552 E19.2435
G1 X67.772 Y83.502 E19.24569
G1 X67.772 Y83.433 E19.24798
G1 X67.772 Y61.955 E19.96235
G1 X67.79 Y61.9 E19.96427
G1 X67.836 Y61.836 E19.96689
G1 X67.9 Y61.79 E19.96951
G1 X67.964 Y61.77 E19.97174
G1 X86.988 Y61.773 E20.60448
G1 X87.037 Y61.773 E20.60611
G1 X87.102 Y61.793 E20.60838
G1 X87.157 Y61.831 E20.6106
G1 X87.207 Y61.897 E20.61335
G1 X87.227 Y61.958 E20.61549
G1 X87.232 Y62.003 E20.61699
G1 X87.232 Y62.052 E20.61862
G1 X87.228 Y83.433 E21.32976
G1 X87.228 Y83.502 E21.33205
G1 X87.182 Y83.554 E21.33436
G1 X87.095 Y83.587 E21.33746
G1 X86.984 Y83.6 E21.34118
G1 X86.915 Y83.6 E21.34347
G1 X78.983 Y83.597 E21.60729
G1 X78.93 Y83.57 E21.60927
G1 X78.912 Y83.545 E21.61029
G1 X78.903 Y83.517 E21.61127
G1 X78.9 Y75.491 E21.87822
G1 X78.888 Y75.36 E21.88259
G1 X78.856 Y75.224 E21.88724
G1 X78.802 Y75.092 E21.89198
G1 X78.727 Y74.971 E21.89672
G1 X78.636 Y74.864 E21.90139
G1 X78.529 Y74.773 E21.90606
G1 X78.408 Y74.698 E21.9108
G1 X78.276 Y74.644 E21.91554
G1 X78.139 Y74.612 E21.92022
G1 X78.008 Y74.601 E21.92459
G1 X76.991 Y74.6 E21.95842
G1 X76.86 Y74.612 E21.96279
G1 X76.724 Y74.644 E21.96744
G0 F3600 X76.592 Y74.698
G0 X76.543 Y74.728
G0 X76.28 Y74.304
G0 X68.876 Y83.018
;TYPE:SKIN
G1 F1200 X68.352 Y82.494 E21.99209
G0 F3600 X68.352 Y81.928
G1 F1200 X69.442 Y83.018 E22.04336
G1 X69.512 Y83.088
G0 F3600 X70.007 Y83.018
G1 F1200 X68.352 Y81.363 E22.1212
G1 X68.282 Y81.293
G0 F3600 X68.352 Y80.797
G1 F1200 X70.572 Y83.017 E22.22562
G1 X70.642 Y83.087
G0 F3600 X71.138 Y83.017
G1 F1200 X68.352 Y80.231 E22.35667
G1 X68.282 Y80.161
G0 F3600 X68.352 Y79.666
G1 F1200 X71.704 Y83.017 E22.51431
G1 X71.774 Y83.087
G0 F3600 X72.269 Y83.017
G1 F1200 X68.352 Y79.1 E22.69856
G1 X68.282 Y79.03
G0 F3600 X68.352 Y78.534
G1 F1200 X72.834 Y83.017 E22.9094
G1 X72.904 Y83.087
G0 F3600 X73.4 Y83.017
G1 F1200 X68.352 Y77.969 E23.14684
G1 X68.282 Y77.899
G0 F3600 X68.352 Y77.403
G1 F1200 X73.965 Y83.016 E23.41086
G1 X74.035 Y83.086
G0 F3600 X74.531 Y83.016
G1 F1200 X68.352 Y76.837 E23.7015
G1 X68.282 Y76.767
G0 F3600 X68.352 Y76.272
G1 F1200 X75.096 Y83.016 E24.01872
G1 X75.166 Y83.086
G0 F3600 X75.517 Y82.871
G1 F1200 X68.352 Y75.706 E24.35574
G1 X68.282 Y75.636
G0 F3600 X68.352 Y75.14
G1 F1200 X75.517 Y82.305 E24.69276
G1 X75.587 Y82.375
G0 F3600 X75.517 Y81.74
G1 F1200 X68.352 Y74.575 E25.02978
G1 X68.282 Y74.505
G0 F3600 X68.352 Y74.009
G1 F1200 X75.518 Y81.175 E25.36685
G1 X75.588 Y81.245
G0 F3600 X75.518 Y80.609
G1 F1200 X68.352 Y73.443 E25.70391
G1 X68.282 Y73.373
G0 F3600 X68.352 Y72.877
G1 F1200 X75.518 Y80.043 E26.04098
G1 X75.588 Y80.113
G0 F3600 X75.519 Y79.478
G1 F1200 X68.352 Y72.312 E26.37807
G1 X68.282 Y72.242
G0 F3600 X68.352 Y71.746
G1 F1200 X75.519 Y78.913 E26.71518
G1 X75.589 Y78.983
G0 F3600 X75.519 Y78.348
G1 F1200 X68.352 Y71.18 E27.05232
G1 X68.282 Y71.11
G0 F3600 X68.517 Y70.779
G1 F1200 X75.519 Y77.782 E27.3817
G1 X75.589 Y77.852
G0 F3600 X75.519 Y77.216
G1 F1200 X69.082 Y70.779 E27.68447
G1 X69.012 Y70.709
G0 F3600 X69.648 Y70.779
G1 F1200 X75.52 Y76.651 E27.96067
G1 X75.59 Y76.721
G0 F3600 X75.52 Y76.086
G1 F1200 X70.214 Y70.779 E28.21028
G1 X70.144 Y70.709
G0 F3600 X70.779 Y70.779
G1 F1200 X75.52 Y75.52 E28.43328
G1 X75.59 Y75.59
G0 F3600 X75.596 Y75.031
G1 F1200 X71.345 Y70.779 E28.63325
G1 X71.275 Y70.709
G0 F3600 X71.505 Y70.374
G1 F1200 X75.786 Y74.655 E28.83462
G1 X75.856 Y74.725
G0 F3600 X76.058 Y74.361
G1 F1200 X71.665 Y69.968 E29.04125
G1 X71.595 Y69.898
G0 F3600 X71.826 Y69.563
G1 F1200 X76.408 Y74.145 E29.25678
G1 X76.478 Y74.215
G0 F3600 X76.857 Y74.029
G1 F1200 X73.609 Y70.78 E29.40958
G1 X73.539 Y70.71
G0 F3600 X74.174 Y70.78
G1 F1200 X77.414 Y74.019 E29.56195
G1 X77.484 Y74.089
G0 F3600 X77.979 Y74.019
G1 F1200 X74.74 Y70.78 E29.7143
G1 X74.67 Y70.71
G0 F3600 X75.306 Y70.78
G1 F1200 X78.758 Y74.232 E29.87668
G1 X78.828 Y74.302
G0 F3600 X79.265 Y74.739
G1 F1200 X86.648 Y82.122 E30.22395
G1 X86.718 Y82.192
G0 F3600 X86.648 Y81.556
G1 F1200 X75.871 Y70.78 E30.73084
G1 X75.801 Y70.71
G0 F3600 X76.437 Y70.78
G1 F1200 X86.648 Y80.991 E31.21114
G1 X86.718 Y81.061
G0 F3600 X86.648 Y80.425
G1 F1200 X76.595 Y70.373 E31.68398
G1 X76.525 Y70.303
G0 F3600 X76.223 Y69.435
G1 F1200 X86.648 Y79.859 E32.17431
G1 X86.718 Y79.929
G0 F3600 X86.648 Y79.294
G1 F1200 X75.849 Y68.496 E32.68224
G1 X75.779 Y68.426
G0 F3600 X75.476 Y67.556
G1 F1200 X86.648 Y78.728 E33.20774
G1 X86.718 Y78.798
G0 F3600 X86.648 Y78.162
G1 F1200 X75.103 Y66.618 E33.75076
G1 X75.033 Y66.548
G0 F3600 X74.73 Y65.679
G1 F1200 X86.648 Y77.597 E34.31134
G1 X86.718 Y77.667
G0 F3600 X86.648 Y77.031
G1 F1200 X74.357 Y64.74 E34.88947
G1 X74.287 Y64.67
G0 F3600 X73.836 Y64.219
G1 F1200 X71.967 Y62.35 E34.97738
G1 X71.897 Y62.28
G0 F3600 X71.401 Y62.35
G1 F1200 X73.27 Y64.219 E35.0653
G1 X73.34 Y64.289
G0 F3600 X72.704 Y64.219
G1 F1200 X70.835 Y62.35 E35.15321
G1 X70.765 Y62.28
G0 F3600 X70.27 Y62.35
G1 F1200 X72.139 Y64.219 E35.24112
G1 X72.209 Y64.289
G0 F3600 X71.573 Y64.219
G1 F1200 X69.704 Y62.35 E35.32903
G1 X69.634 Y62.28
G0 F3600 X69.138 Y62.35
G1 F1200 X71.007 Y64.219 E35.41694
G1 X71.077 Y64.289
G0 F3600 X70.654 Y64.432
G1 F1200 X68.573 Y62.35 E35.51485
G1 X68.503 Y62.28
G0 F3600 X68.351 Y62.694
G1 F1200 X70.466 Y64.809 E35.61434
G1 X70.536 Y64.879
G0 F3600 X70.278 Y65.187
G1 F1200 X68.351 Y63.26 E35.70498
G1 X68.281 Y63.19
G0 F3600 X68.351 Y63.826
G1 F1200 X70.09 Y65.565 E35.78677
G1 X70.16 Y65.635
G0 F3600 X69.901 Y65.941
G1 F1200 X68.351 Y64.391 E35.85968
G1 X68.281 Y64.321
G0 F3600 X68.351 Y64.957
G1 F1200 X69.713 Y66.319 E35.92374
G1 X69.783 Y66.389
G0 F3600 X69.525 Y66.697
G1 F1200 X68.351 Y65.523 E35.97897
G1 X68.281 Y65.453
G0 F3600 X68.351 Y66.089
G1 F1200 X69.337 Y67.074 E36.02532
G1 X69.407 Y67.144
G0 F3600 X69.149 Y67.452
G1 F1200 X68.351 Y66.654 E36.06286
G1 X68.281 Y66.584
G0 F3600 X68.351 Y67.22
G1 F1200 X68.961 Y67.829 E36.09153
G1 X69.031 Y67.899
G0 F3600 X68.562 Y67.996
G1 F1200 X68.468 Y68.468 E36.10693
G0 F3600 X68.585 Y68.585
G0 X70.851 Y64.366
G0 X74.051 Y64.367
G0 X76.527 Y70.622
G0 X73.175 Y70.632
G0 X71.987 Y69.158
G1 F1200 X72.774 Y69.946 E36.14397
G1 X72.844 Y70.016
G0 F3600 X72.464 Y69.07
G1 F1200 X72.147 Y68.753 E36.15888
G0 F3600 X73.175 Y70.632
G0 X76.527 Y70.622
G0 X74.051 Y64.367
G0 X72.533 Y62.351
G1 F1200 X86.648 Y76.466 E36.82281
G1 X86.718 Y76.536
G0 F3600 X86.648 Y75.9
G1 F1200 X73.099 Y62.351 E37.46011
G1 X73.029 Y62.281
G0 F3600 X73.664 Y62.351
G1 F1200 X86.648 Y75.335 E38.07084
G1 X86.718 Y75.405
G0 F3600 X86.648 Y74.769
G1 F1200 X82.378 Y70.499 E38.27169
G1 X82.308 Y70.429
G0 F3600 X83.203 Y70.758
G1 F1200 X86.648 Y74.203 E38.43373
G1 X86.718 Y74.273
G0 F3600 X86.648 Y73.638
G1 F1200 X83.79 Y70.779 E38.56819
G1 X83.72 Y70.709
G0 F3600 X84.356 Y70.779
G1 F1200 X86.648 Y73.072 E38.67602
G1 X86.718 Y73.142
G0 F3600 X86.648 Y72.506
G1 F1200 X84.922 Y70.779 E38.75723
G1 X84.852 Y70.709
G0 F3600 X85.487 Y70.779
G1 F1200 X86.648 Y71.941 E38.81186
G1 X86.718 Y72.011
G0 F3600 X86.648 Y71.375
G1 F1200 X86.053 Y70.779 E38.83987
G1 X85.983 Y70.709
G0 F3600 X83.135 Y70.611
G0 X82.444 Y70.374
G0 X81.444 Y69.565
G1 F1200 X74.23 Y62.351 E39.1792
G1 X74.16 Y62.281
G0 F3600 X74.796 Y62.351
G1 F1200 X81.164 Y68.719 E39.47873
G1 X81.234 Y68.789
G0 F3600 X81.158 Y68.148
G1 F1200 X75.362 Y62.351 E39.75138
G1 X75.292 Y62.281
G0 F3600 X75.928 Y62.351
G1 F1200 X81.265 Y67.689 E40.00244
G1 X81.335 Y67.759
G0 F3600 X81.434 Y67.292
G1 F1200 X76.494 Y62.351 E40.23482
G1 X76.424 Y62.281
G0 F3600 X77.059 Y62.351
G1 F1200 X81.661 Y66.953 E40.45129
G1 X81.731 Y67.023
G0 F3600 X81.935 Y66.661
G1 F1200 X77.625 Y62.351 E40.65402
G1 X77.555 Y62.281
G0 F3600 X78.191 Y62.351
G1 F1200 X82.261 Y66.422 E40.84548
G1 X82.331 Y66.492
G0 F3600 X82.636 Y66.231
G1 F1200 X78.756 Y62.351 E41.02798
G1 X78.686 Y62.281
G0 F3600 X79.322 Y62.351
G1 F1200 X82.719 Y65.748 E41.18777
G1 X82.789 Y65.818
G0 F3600 X82.719 Y65.183
G1 F1200 X79.888 Y62.352 E41.32093
G1 X79.818 Y62.282
G0 F3600 X80.454 Y62.352
G1 F1200 X82.719 Y64.617 E41.42747
G1 X82.789 Y64.687
G0 F3600 X82.887 Y64.22
G1 F1200 X81.02 Y62.352 E41.51531
G1 X80.95 Y62.282
G0 F3600 X81.585 Y62.352
G1 F1200 X83.453 Y64.22 E41.60317
