; generated by Slic3r 1.2.9 on 2017-09-20 at 13:48:27

; external perimeters extrusion width = 0.40mm
; perimeters extrusion width = 0.67mm
; infill extrusion width = 0.67mm
; solid infill extrusion width = 0.67mm
; top infill extrusion width = 0.67mm

M107
M104 S210 ; set temperature
; -- START GCODE --
	G90                     ;set to absolute positioning
G28                     ;move to Home
G92 E0                  ;zero the extruded length
G1 F7200                ;set feedrate to travel_speed value
; -- end of START GCODE --
M109 S210 ; wait for temperature to be reached
G21 ; set units to millimeters
G90 ; use absolute coordinates
M82 ; use absolute distances for extrusion
G92 E0
G1 Z0.400 F9000.000
G1 E-4.00000 F2400.00000
G92 E0
G1 X84.971 Y84.216 F9000.000
G1 E4.00000 F2400.00000
G1 X85.788 Y83.411 E4.13622 F1800.000
G1 X86.720 Y82.742 E4.27249
G1 X87.746 Y82.228 E4.40875
G1 X88.747 Y81.902 E4.53382
G1 X89.878 Y81.716 E4.66996
G1 X90.500 Y81.687 E4.74386
G1 X109.500 Y81.687 E7.00040
G1 X110.027 Y81.708 E7.06299
G1 X111.170 Y81.883 E7.20038 F1800.000
G1 X112.341 Y82.264 E7.34662
G1 X113.360 Y82.791 E7.48286
G1 X114.212 Y83.411 E7.60801
G1 X115.029 Y84.216 E7.74423
G1 X115.714 Y85.148 E7.88159
G1 X116.272 Y86.246 E8.02784
G1 X116.620 Y87.339 E8.16409
G1 X116.784 Y88.380 E8.28923
G1 X116.813 Y89.000 E8.36298
G1 X116.813 Y110.500 E10.91643
G1 X116.755 Y111.384 E11.02161
G1 X116.389 Y112.900 E11.20681
G1 X116.160 Y113.451 E11.27768
G1 X115.324 Y114.818 E11.46800
G1 X114.362 Y115.830 E11.63376
G1 X113.432 Y116.516 E11.77112
G1 X112.545 Y116.978 E11.88989
G1 X111.852 Y117.244 E11.97807
G1 X111.077 Y117.448 E12.07323
G1 X110.077 Y117.590 E12.19314
G1 X109.500 Y117.613 E12.26174
G1 X90.500 Y117.613 E14.51827
G1 X89.923 Y117.590 E14.58690
G1 X88.923 Y117.448 E14.70678
G1 X88.116 Y117.234 E14.80596
G1 X87.340 Y116.926 E14.90513
G1 X86.568 Y116.516 E15.00895
G1 X85.716 Y115.896 E15.13407
G1 X84.676 Y114.818 E15.31199
G1 X83.840 Y113.451 E15.50226
G1 X83.610 Y112.897 E15.57345
G1 X83.245 Y111.384 E15.75839
G1 X83.187 Y110.500 E15.86356
G1 X83.187 Y89.000 E18.41701
G1 X83.216 Y88.380 E18.49077
G1 X83.380 Y87.340 E18.61583
G1 X83.728 Y86.246 E18.75213
G1 X84.242 Y85.220 E18.88841
G1 X84.933 Y84.262 E19.02866
G1 E15.02866 F2400.00000
G92 E0
G1 X108.900 Y97.400 F9000.000
G1 E4.00000 F2400.00000
G1 X105.983 Y97.400 E4.34640 F1800.000
G1 X105.665 Y97.373 E4.38430
G1 X105.298 Y97.269 E4.42970
G1 X105.048 Y97.158 E4.46212
G1 X104.769 Y96.972 E4.50196
G1 X104.496 Y96.704 E4.54740
G1 X104.331 Y96.486 E4.57983
G1 X104.175 Y96.190 E4.61962
G1 X104.065 Y95.823 E4.66509
G1 X104.025 Y95.553 E4.69755
G1 X104.030 Y95.218 E4.73729
G1 X104.109 Y94.844 E4.78279
G1 X104.205 Y94.587 E4.81527
G1 X104.370 Y94.297 E4.85495
G1 X104.620 Y94.006 E4.90049
G1 X104.827 Y93.827 E4.93299
G1 X105.111 Y93.652 E4.97262
G1 X105.600 Y93.467 E5.03472
G1 X105.600 Y91.600 E5.25647
G1 X108.900 Y91.600 E5.64839
G1 X108.900 Y97.340 E6.33010
G1 X108.900 Y97.800 F9000.000
G1 X100.804 Y98.828 F9000.000
G1 X97.386 Y90.230 E7.42899 F1800.000
G1 X104.172 Y90.231 E8.23491
G1 X104.172 Y92.553 E8.51074
G1 X103.980 Y92.671 E8.53740
G1 X103.605 Y92.995 E8.59632
G1 X103.197 Y93.471 E8.67082
G1 X102.906 Y93.981 E8.74048
G1 X102.734 Y94.445 E8.79931
G1 X102.604 Y95.057 E8.87366
G1 X102.594 Y95.646 E8.94356
G1 X102.667 Y96.135 E9.00229
G1 X102.847 Y96.733 E9.07650
G1 X103.122 Y97.256 E9.14664
G1 X103.420 Y97.649 E9.20527
G1 X103.865 Y98.087 E9.27933
G1 X104.359 Y98.414 E9.34972
G1 X104.809 Y98.615 E9.40826
G1 X105.408 Y98.785 E9.48217
G1 X105.924 Y98.828 E9.54366
G1 X108.270 Y98.828 E9.82233
G1 X108.270 Y109.071 E11.03881
G1 X102.928 Y109.071 E11.67329
G1 X102.921 Y102.116 E12.49934
G1 X102.685 Y101.387 E12.59034
G1 X102.277 Y100.826 E12.67275
G1 X101.876 Y100.483 E12.73535
G1 X101.258 Y100.168 E12.81776
G1 X100.644 Y100.071 E12.89156
G1 X99.356 Y100.071 E13.04451
G1 X98.747 Y100.168 E13.11780
G1 X98.149 Y100.469 E13.19727
G1 X97.732 Y100.814 E13.26159
G1 X97.315 Y101.387 E13.34571
G1 X97.079 Y102.116 E13.43672
G1 X97.072 Y109.071 E14.26277
G1 X91.730 Y109.071 E14.89725
G1 X91.730 Y98.828 E16.11372
G1 X100.744 Y98.828 E17.18428
G1 X101.268 Y96.216 F9000.000
G1 X100.898 Y93.707 F9000.000
G1 X100.918 Y92.627 F9000.000
G1 X97.885 Y90.569 F9000.000
G1 X93.126 Y90.201 F9000.000
G1 X92.137 Y90.507 F9000.000
G1 X92.056 Y90.556 F9000.000
G1 X92.060 Y91.280 F9000.000
G1 X91.730 Y91.203 E17.22457 F1800.000
G1 X91.730 Y90.230 E17.34008
G1 X92.584 Y90.230 E17.44154
G1 X92.087 Y91.227 E17.57382
G1 X93.055 Y90.886 F9000.000
G1 X91.346 Y94.312 E18.02852 F1800.000
G1 X91.016 Y94.234 E18.06881
G1 X91.016 Y89.516 E18.62915
G1 X108.984 Y89.517 E20.76317
G1 X108.984 Y90.886 E20.92579
G1 X104.886 Y90.886 E21.41253
G1 X104.886 Y92.952 E21.65794
G1 X104.404 Y93.249 E21.72518
G1 X104.112 Y93.500 E21.77089
G1 X103.783 Y93.884 E21.83091
G1 X103.555 Y94.284 E21.88558
G1 X103.421 Y94.644 E21.93124
G1 X103.317 Y95.138 E21.99116
G1 X103.310 Y95.600 E22.04598
G1 X103.366 Y95.979 E22.09158
G1 X103.511 Y96.462 E22.15141
G1 X103.726 Y96.871 E22.20638
G1 X103.958 Y97.177 E22.25192
G1 X104.317 Y97.530 E22.31166
G1 X104.704 Y97.786 E22.36678
G1 X105.053 Y97.942 E22.41225
G1 X105.536 Y98.079 E22.47191
G1 X105.953 Y98.114 E22.52160
G1 X108.984 Y98.114 E22.88155
G1 X108.984 Y109.785 E24.26766
G1 X102.214 Y109.785 E25.07169
G1 X102.207 Y102.229 E25.96909
G1 X102.040 Y101.715 E26.03327
G1 X101.749 Y101.314 E26.09221
G1 X101.476 Y101.081 E26.13473
G1 X101.034 Y100.856 E26.19367
G1 X100.588 Y100.785 E26.24736
G1 X99.412 Y100.785 E26.38695
G1 X98.968 Y100.855 E26.44033
G1 X98.542 Y101.070 E26.49700
G1 X98.257 Y101.307 E26.54105
G1 X97.960 Y101.715 E26.60103
G1 X97.793 Y102.229 E26.66521
G1 X97.786 Y109.785 E27.56260
G1 X91.016 Y109.785 E28.36664
G1 X91.016 Y98.114 E29.75275
G1 X94.073 Y98.114 E30.11583
G1 X94.739 Y96.432 E30.33069
G1 X95.335 Y98.114 E30.54263
G1 X99.752 Y98.114 E31.06722
G1 X96.878 Y90.886 E31.99104
G1 X93.115 Y90.886 E32.43794
G1 X93.497 Y91.600 F9000.000
G1 X90.632 Y97.343 E33.20017 F1800.000
G1 X90.302 Y97.265 E33.24046
G1 X90.302 Y89.019 E34.21986
G1 X90.349 Y88.847 E34.24095
G1 X90.492 Y88.802 E34.25879
G1 X109.477 Y88.802 E36.51361
G1 X109.647 Y88.830 E36.53396
G1 X109.698 Y88.992 E36.55415
G1 X109.698 Y110.463 E39.10422
G1 X109.469 Y110.499 E39.13180
G1 X101.501 Y110.499 E40.07814
G1 X101.493 Y102.342 E41.04689
G1 X101.396 Y102.043 E41.08423
G1 X101.221 Y101.802 E41.11970
G1 X101.077 Y101.679 E41.14214
G1 X100.811 Y101.544 E41.17761
G1 X100.531 Y101.499 E41.21119
G1 X99.469 Y101.499 E41.33744
G1 X99.190 Y101.543 E41.37091
G1 X98.936 Y101.672 E41.40477
G1 X98.781 Y101.799 E41.42854
G1 X98.604 Y102.043 E41.46439
G1 X98.507 Y102.342 E41.50173
G1 X98.499 Y110.499 E42.47048
G1 X90.531 Y110.499 E43.41682
G1 X90.302 Y110.463 E43.44440
G1 X90.302 Y97.400 E44.99588
G1 X93.588 Y97.400 E45.38613
G1 X94.776 Y94.398 E45.76961
G1 X95.839 Y97.400 E46.14788
G1 X98.699 Y97.400 E46.48753
G1 X96.393 Y91.600 E47.22881
G1 X93.557 Y91.600 E47.56567
G1 X93.116 Y91.479 F9000.000
G1 X92.998 Y90.201 F9000.000
G1 X96.990 Y90.201 E48.57091 F1800.000
G1 X91.813 Y91.589 F9000.000
G1 X91.391 Y93.379 E48.78937 F1800.000
G1 X91.099 Y94.620 F9000.000
G1 X90.677 Y96.411 E49.00783 F1800.000
G1 E45.00783 F2400.00000
G92 E0
G1 X93.995 Y98.000 F9000.000
G1 X95.551 Y100.728 F9000.000
G1 X96.563 Y100.157 F9000.000
G1 X97.124 Y99.912 F9000.000
G1 X97.376 Y99.819 F9000.000
G1 X97.398 Y99.601 F9000.000
G1 E4.00000 F2400.00000
G1 X97.060 Y99.264 E4.06010 F1800.000
G1 X95.989 Y99.264 E4.19499
G1 X97.382 Y100.657 E4.44307
G1 X96.934 Y101.280 E4.53971
G1 X94.918 Y99.264 E4.89873
G1 X93.847 Y99.264 E5.03361
G1 X96.671 Y102.088 E5.53661
G1 X96.642 Y103.130 E5.66792
G1 X92.776 Y99.264 E6.35655
G1 X92.165 Y99.724 E6.45286
G1 X96.641 Y104.200 E7.25006
G1 X96.640 Y105.270 E7.38483
G1 X92.165 Y100.795 E8.18186
G1 X92.165 Y101.866 E8.31675
G1 X96.639 Y106.340 E9.11360
G1 X96.638 Y107.410 E9.24837
G1 X92.165 Y102.937 E10.04505
G1 X92.165 Y104.008 E10.17994
G1 X96.637 Y108.480 E10.97645
G1 X95.722 Y108.635 E11.09344
G1 X92.165 Y105.079 E11.72682
G1 X92.165 Y106.150 E11.86171
G1 X94.651 Y108.635 E12.30432
G1 X93.580 Y108.635 E12.43921
G1 X92.165 Y107.221 E12.69107
G1 X92.165 Y108.292 E12.82595
G1 X92.508 Y108.635 E12.88705
G1 X98.112 Y100.064 F9000.000
G1 X98.597 Y99.746 E12.95591 F1800.000
G1 X98.915 Y99.600 E12.99748
G1 X99.237 Y99.455 E13.08635 F1800.000
G1 X99.328 Y99.450 E13.10940
G1 X100.672 Y99.450 E13.44783
G1 X101.459 Y99.510 E13.64665
G1 X101.882 Y99.541 F9000.000
G1 X107.835 Y105.494 E14.67477 F1800.000
G1 X107.835 Y104.455 E14.80163
G1 X101.958 Y98.579 E15.81666
G1 X101.653 Y98.274 F9000.000
G1 X100.775 Y97.395 E15.96833 F1800.000
G1 X102.404 Y96.947 F9000.000
G1 X99.404 Y93.947 E16.48652 F1800.000
G1 X100.089 Y95.671 F9000.000
G1 X107.835 Y103.417 E17.82430 F1800.000
G1 X107.835 Y102.378 E17.95116
G1 X104.479 Y99.023 E18.53068
G1 X105.759 Y99.264 F9000.000
G1 X107.835 Y101.339 E18.88916 F1800.000
G1 X107.835 Y100.301 E19.01601
G1 X106.798 Y99.264 E19.19508
G1 X103.357 Y102.055 F9000.000
G1 X107.835 Y106.532 E19.96848 F1800.000
G1 X107.835 Y107.571 E20.09533
G1 X103.358 Y103.094 E20.86856
G1 X103.359 Y104.134 E20.99553
G1 X107.827 Y108.603 E21.76736
G1 X106.822 Y108.635 E21.89027
G1 X103.360 Y105.174 E22.48822
G1 X103.361 Y106.213 E22.61519
G1 X105.783 Y108.635 E23.03357
G1 X104.744 Y108.635 E23.16042
G1 X103.362 Y107.253 E23.39923
G1 X103.363 Y108.292 E23.52621
G1 X103.706 Y108.635 E23.58545
G1 X98.719 Y92.223 F9000.000
G1 X102.161 Y95.666 E24.18005 F1800.000
G1 X102.258 Y94.724 E24.29565
G1 X98.200 Y90.666 E24.99666
G1 X99.238 Y90.666 E25.12353
G1 X102.506 Y93.933 E25.68785
G1 X102.879 Y93.268 E25.78102
G1 X100.277 Y90.666 E26.23046
G1 X101.316 Y90.666 E26.35732
G1 X103.362 Y92.712 E26.71068
G1 X103.736 Y92.048 E26.80379
G1 X102.354 Y90.666 E27.04245
G1 X103.393 Y90.666 E27.16931
G1 X103.736 Y91.009 E27.22855
G1 X104.529 Y90.201 F9000.000
G1 X108.627 Y90.201 E28.26054 F1800.000
M104 S220 ; set temperature
G1 Z0.600 F9000.000
G1 X90.958 Y89.458 F9000.000
G1 X109.042 Y89.465 E29.20531 F2100.000
G1 X109.042 Y109.679 E30.26136
G1 X102.320 Y109.679 E30.61252
G1 X102.315 Y102.159 E31.00542
G1 X102.024 Y101.458 E31.04504
G1 X101.580 Y101.013 E31.07788
G1 X101.068 Y100.752 E31.10791
G1 X100.604 Y100.679 E31.13245
G1 X99.396 Y100.679 E31.19556
G1 X98.879 Y100.761 E31.22289
G1 X98.186 Y101.186 E31.26538
G1 X97.761 Y101.879 E31.30788
G1 X97.679 Y102.396 E31.33521
G1 X97.679 Y109.679 E31.71570
G1 X90.958 Y109.679 E32.06683
G1 X90.958 Y89.518 E33.12009
G1 X90.362 Y88.851 F9000.000
G1 X90.540 Y88.830 E33.12947 F2100.000
G1 X109.615 Y88.837 E34.12601
G1 X109.670 Y89.007 E34.13537
G1 X109.670 Y110.307 E35.24815
G1 X101.693 Y110.307 E35.66494
G1 X101.686 Y102.284 E36.08413
G1 X101.492 Y101.814 E36.11071
G1 X101.206 Y101.528 E36.13181
G1 X100.871 Y101.357 E36.15145
G1 X100.555 Y101.307 E36.16820
G1 X99.445 Y101.307 E36.22614
G1 X99.101 Y101.362 E36.24436
G1 X98.643 Y101.643 E36.27244
G1 X98.362 Y102.101 E36.30053
G1 X98.307 Y102.445 E36.31875
G1 X98.307 Y110.307 E36.72949
G1 X90.330 Y110.307 E37.14627
G1 X90.330 Y89.055 E38.25659
G1 X90.353 Y88.910 E38.26423
G1 X90.027 Y88.538 F9000.000
G1 X90.201 Y88.411 E38.27065 F1050.000
G1 X90.367 Y88.354 E38.27584
G1 X90.512 Y88.337 E38.28017
G1 X109.572 Y88.344 E38.84608
G1 X109.793 Y88.407 E38.85292
G1 X109.967 Y88.533 E38.85929
G1 X110.088 Y88.700 E38.86543
G1 X110.155 Y88.904 E38.87180
G1 X110.163 Y89.008 E38.87488
G1 X110.163 Y110.482 E39.51247
G1 X110.144 Y110.583 E39.51552
G1 X110.098 Y110.661 E39.51821
G1 X109.941 Y110.761 E39.52374
G1 X109.766 Y110.794 E39.52903
G1 X109.576 Y110.800 E39.53466
G1 X101.516 Y110.800 E39.77399
G1 X101.408 Y110.783 E39.77723
G1 X101.332 Y110.744 E39.77975
G1 X101.238 Y110.634 E39.78408
G1 X101.200 Y110.476 E39.78888
G1 X101.194 Y102.382 E40.02921
G1 X101.074 Y102.093 E40.03850
G1 X100.913 Y101.932 E40.04527
G1 X100.717 Y101.832 E40.05180
G1 X100.516 Y101.800 E40.05785
G1 X99.484 Y101.800 E40.08848
G1 X99.275 Y101.833 E40.09477
G1 X99.001 Y102.001 E40.10431
G1 X98.833 Y102.275 E40.11385
G1 X98.800 Y102.484 E40.12014
G1 X98.800 Y110.484 E40.35767
G1 X98.784 Y110.584 E40.36067
G1 X98.704 Y110.715 E40.36523
G1 X98.642 Y110.760 E40.36752
G1 X98.476 Y110.800 E40.37256
G1 X90.428 Y110.800 E40.61153
G1 X90.115 Y110.777 E40.62084
G1 X89.937 Y110.696 E40.62664
G1 X89.860 Y110.606 E40.63018
G1 X89.837 Y110.482 E40.63392
G1 X89.837 Y89.016 E41.27127
G1 X89.872 Y88.796 E41.27788
G1 X89.988 Y88.583 E41.28507
G1 X90.234 Y88.598 F9000.000
G1 E37.28507 F2400.00000
G92 E0
G1 X91.339 Y90.146 F9000.000
G1 E4.00000 F2400.00000
G1 X91.646 Y89.839 E4.02344 F1200.000
G1 X92.565 Y89.840 E4.07313
G1 X91.339 Y91.065 E4.16683
G1 X91.339 Y91.985 E4.21654
G1 X93.484 Y89.840 E4.38052
G1 X93.378 Y90.865 E4.43622
G1 X91.409 Y92.834 E4.58675
G1 X92.463 Y92.700 E4.64415
G1 X92.135 Y93.027 E4.66919
G1 X95.849 Y89.933 F9000.000
G1 X95.446 Y89.862 E4.69111 F3600.000
G1 X96.046 Y90.429 E4.73538
G1 X94.112 Y90.088 E4.84057
G1 X93.900 Y90.513 E4.86599
G1 X96.244 Y90.926 E4.99344
G1 X96.441 Y91.423 E5.02207
G1 X93.688 Y90.938 E5.17178
G1 X93.476 Y91.362 E5.19720
G1 X96.639 Y91.920 E5.36918
G1 X96.836 Y92.417 E5.39781
G1 X93.265 Y91.787 E5.59205
G1 X93.053 Y92.212 E5.61746
G1 X97.034 Y92.914 E5.83396
G1 X97.231 Y93.410 E5.86260
G1 X92.841 Y92.636 E6.10136
G1 X92.629 Y93.061 E6.12678
G1 X97.429 Y93.907 E6.38781
G1 X97.626 Y94.404 E6.41644
G1 X91.252 Y93.280 E6.76310
G1 X91.250 Y93.742 E6.78782
G1 X97.824 Y94.901 E7.14532
G1 X98.021 Y95.398 E7.17396
G1 X91.250 Y94.204 E7.54220
G1 X91.250 Y94.666 E7.56694
G1 X98.219 Y95.895 E7.94592
G1 X98.416 Y96.392 E7.97456
G1 X91.250 Y95.128 E8.36428
G1 X91.250 Y95.590 E8.38903
G1 X98.614 Y96.888 E8.78949
G1 X98.798 Y97.383 E8.81775
G1 X91.250 Y96.052 E9.22822
G1 X91.250 Y96.514 E9.25296
G1 X96.380 Y97.418 E9.53192
G1 X94.987 Y97.635 F9000.000
G1 X91.250 Y96.976 E9.73514 F3600.000
G1 X91.250 Y97.438 E9.75989
G1 X94.987 Y98.097 E9.96311
G1 X94.987 Y98.559 E9.98785
G1 X91.250 Y97.900 E10.19107
G1 X91.250 Y98.362 E10.21582
G1 X94.987 Y99.021 E10.41904
G1 X94.987 Y99.483 E10.44378
G1 X91.250 Y98.824 E10.64701
G1 X91.250 Y99.286 E10.67175
G1 X94.270 Y99.818 E10.83596
G1 X91.649 Y99.818 F9000.000
G1 X91.250 Y99.748 E10.85767 F3600.000
G1 X92.412 Y100.161 F9000.000
G1 X91.339 Y101.234 E10.93758 F1200.000
G1 X91.339 Y102.129 E10.98475
G1 X93.308 Y100.161 E11.13136
G1 X94.203 Y100.161 E11.17853
G1 X91.339 Y103.025 E11.39185
G1 X91.339 Y103.921 E11.43902
G1 X97.499 Y97.761 E11.89780
G1 X96.603 Y97.761 F9000.000
G1 X95.220 Y99.144 E12.00082 F1200.000
G1 X95.220 Y98.248 E12.04799
G1 X95.708 Y97.761 E12.08431
G1 X98.395 Y97.761 F9000.000
G1 X91.339 Y104.816 E12.60979 F1200.000
G1 X91.339 Y105.712 E12.65696
G1 X105.239 Y91.812 E13.69222
G1 X105.239 Y92.708 E13.73939
G1 X91.339 Y106.608 E14.77464
G1 X96.710 Y109.298 F9000.000
G1 X97.298 Y108.710 E14.81845 F1200.000
G1 X97.298 Y107.814 E14.86562
G1 X95.814 Y109.298 E14.97613
G1 X94.919 Y109.298 E15.02330
G1 X97.298 Y106.919 E15.20052
G1 X97.298 Y106.023 E15.24769
G1 X94.023 Y109.298 E15.49161
G1 X93.127 Y109.298 E15.53878
G1 X97.298 Y105.127 E15.84941
G1 X97.298 Y104.231 E15.89658
G1 X92.232 Y109.298 E16.27391
G1 X91.358 Y109.276 E16.31997
G1 X97.298 Y103.336 E16.76241
G1 X97.298 Y102.440 E16.80958
G1 X91.339 Y108.399 E17.25341
G1 X91.339 Y107.504 E17.30058
G1 X103.667 Y95.175 E18.21879
G1 X103.762 Y95.976 E18.26126
G1 X99.440 Y100.298 E18.58317
G1 X100.336 Y100.298 E18.63034
G1 X104.036 Y96.598 E18.90589
G1 X104.444 Y97.086 E18.93938
G1 X101.124 Y100.405 E19.18659
G1 X101.718 Y100.708 E19.22166
G1 X104.959 Y97.466 E19.46309
G1 X105.618 Y97.703 E19.49996
G1 X102.174 Y101.147 E19.75645
G1 X102.500 Y101.717 E19.79103
G1 X106.428 Y97.788 E20.08363
G1 X107.256 Y97.857 E20.12734
G1 X102.696 Y102.417 E20.46696
G1 X102.696 Y103.312 E20.51409
G1 X108.083 Y97.925 E20.91526
G1 X108.163 Y98.741 E20.95840
G1 X102.697 Y104.207 E21.36552
G1 X102.698 Y105.102 E21.41265
G1 X108.125 Y99.675 E21.81685
G1 X108.534 Y100.161 F9000.000
