; generated by Slic3r 1.2.9 on 2017-10-05 at 17:35:01

; external perimeters extrusion width = 0.40mm
; perimeters extrusion width = 0.68mm
; infill extrusion width = 1.28mm
; solid infill extrusion width = 0.68mm
; top infill extrusion width = 0.68mm

M107
M104 S220 ; set temperature
; -- START GCODE --
	G90                     ;set to absolute positioning
G28                     ;move to Home
G92 E0                  ;zero the extruded length
G1 F7200                ;set feedrate to travel_speed value
; -- end of START GCODE --
M109 S220 ; wait for temperature to be reached
G21 ; set units to millimeters
G90 ; use absolute coordinates
M82 ; use absolute distances for extrusion
G92 E0
G1 Z0.400 F9000.000
G1 E-4.00000 F2400.00000
G92 E0
G1 X41.333 Y77.220 F9000.000
G1 E4.00000 F2400.00000
G1 X43.493 Y76.405 E4.27422 F1800.000
G1 X44.750 Y76.286 E4.42419
G1 X155.250 Y76.286 E17.54774
G1 X157.525 Y76.683 E17.82197
G1 X159.530 Y77.827 E18.09619 F1800.000
G1 X161.030 Y79.583 E18.37042
G1 X161.845 Y81.743 E18.64464
G1 X161.964 Y83.000 E18.79461
G1 X161.964 Y117.000 E22.83263
G1 X161.567 Y119.275 E23.10685
G1 X160.423 Y121.280 E23.38107
G1 X158.667 Y122.780 E23.65530
G1 X156.507 Y123.595 E23.92952
G1 X155.250 Y123.714 E24.07949
G1 X44.750 Y123.714 E37.20304
G1 X42.475 Y123.317 E37.47727
G1 X40.470 Y122.173 E37.75149
G1 X38.970 Y120.417 E38.02572
G1 X38.155 Y118.257 E38.29994
G1 X38.036 Y117.000 E38.44991
G1 X38.036 Y83.000 E42.48792
G1 X38.433 Y80.725 E42.76215
G1 X39.577 Y78.720 E43.03637
G1 X41.287 Y77.259 E43.30347
G1 E39.30347 F2400.00000
G92 E0
G1 X146.350 Y115.700 F9000.000
G1 E4.00000 F2400.00000
G1 X146.350 Y113.916 E4.21183 F1800.000
G1 X147.073 Y113.916 E4.29764
G1 X147.073 Y112.484 E4.46778
G1 X146.350 Y112.484 E4.55359
G1 X146.350 Y111.148 E4.71220
G1 X147.073 Y111.148 E4.79801
G1 X147.073 Y109.716 E4.96814
G1 X146.350 Y109.716 E5.05394
G1 X146.350 Y101.306 E6.05273
G1 X147.073 Y101.110 E6.14163
G1 X147.073 Y100.261 E6.24256
G1 X146.350 Y100.261 E6.32837
G1 X146.350 Y98.925 E6.48698
G1 X147.073 Y98.925 E6.57279
G1 X147.073 Y97.492 E6.74293
G1 X146.350 Y97.492 E6.82874
G1 X146.350 Y92.544 E7.41643
G1 X147.073 Y92.349 E7.50532
G1 X147.073 Y91.499 E7.60627
G1 X146.350 Y91.499 E7.69208
G1 X146.350 Y90.163 E7.85069
G1 X147.073 Y90.163 E7.93649
G1 X147.073 Y88.731 E8.10663
G1 X146.350 Y88.731 E8.19244
G1 X146.350 Y86.741 E8.42871
G1 X147.083 Y86.542 E8.51893
G1 X147.073 Y85.962 E8.58776
G1 X146.350 Y85.962 E8.67358
G1 X146.350 Y84.300 E8.87103
G1 X153.950 Y84.300 E9.77364
G1 X153.950 Y85.962 E9.97109
G1 X153.219 Y85.962 E10.05793
G1 X153.216 Y86.626 E10.13669
G1 X153.950 Y86.791 E10.22604
G1 X153.950 Y88.731 E10.45643
G1 X153.219 Y88.731 E10.54327
G1 X153.219 Y90.241 E10.72271
G1 X153.950 Y90.241 E10.80955
G1 X153.950 Y97.492 E11.67071
G1 X153.219 Y97.492 E11.75755
G1 X153.219 Y99.003 E11.93699
G1 X153.950 Y99.003 E12.02383
G1 X153.950 Y103.655 E12.57625
G1 X153.546 Y103.783 E12.62662
G1 X153.543 Y104.094 E12.66360
G1 X153.950 Y104.229 E12.71449
G1 X153.950 Y107.408 E13.09194
G1 X153.219 Y107.408 E13.17878
G1 X153.219 Y108.468 E13.30473
G1 X153.950 Y108.468 E13.39157
G1 X153.950 Y109.716 E13.53976
G1 X153.219 Y109.716 E13.62660
G1 X153.219 Y111.227 E13.80603
G1 X153.950 Y111.227 E13.89287
G1 X153.950 Y112.484 E14.04217
G1 X153.219 Y112.484 E14.12901
G1 X153.219 Y113.995 E14.30846
G1 X153.950 Y113.995 E14.39530
G1 X153.950 Y115.700 E14.59782
G1 X146.410 Y115.700 E15.49331
G1 X145.950 Y115.700 F9000.000
G1 E11.49331 F2400.00000
G92 E0
G1 X145.750 Y113.316 F9000.000
G1 X134.211 Y90.367 F9000.000
G1 X134.229 Y90.379 F9000.000
G1 E4.00000 F2400.00000
G1 X135.083 Y88.180 E4.28015 F1800.000
G1 X135.326 Y87.987 E4.31701
G1 X135.502 Y88.228 E4.35239
G1 X135.858 Y88.885 E4.44113
G1 X136.159 Y89.514 E4.52401
G1 X137.247 Y92.094 E4.85659
G1 X136.992 Y92.297 E4.89522
G1 X134.878 Y90.763 E5.20547
G1 X134.225 Y90.461 E5.29088
G1 X133.664 Y90.473 E5.35752
G1 X133.604 Y90.459 E5.36479
G1 X133.278 Y90.267 E5.40977
G1 X133.078 Y90.114 E5.43968
G1 X133.183 Y89.746 E5.48516
G1 X133.211 Y89.135 E5.55777
G1 X134.191 Y90.332 E5.74151
G1 X134.007 Y88.980 F9000.000
G1 X133.729 Y88.640 E5.79362 F1800.000
G1 X133.255 Y88.711 E5.85057
G1 X132.344 Y88.518 E5.96107
G1 X132.482 Y89.447 E6.07257
G1 X132.474 Y89.630 E6.09432
G1 X132.356 Y90.043 E6.14531
G1 X132.330 Y90.275 E6.17308
G1 X132.372 Y90.389 E6.18752
G1 X132.489 Y90.562 E6.21232
G1 X132.878 Y90.861 E6.27057
G1 X133.339 Y91.132 E6.33402
G1 X133.592 Y91.189 E6.36489
G1 X134.075 Y91.179 E6.42225
G1 X134.515 Y91.382 E6.47979
G1 X135.402 Y92.025 E6.60993
G1 X135.305 Y92.044 E6.62169
G1 X135.268 Y92.355 E6.65887
G1 X135.551 Y92.484 E6.69586
G1 X135.130 Y92.886 E6.76495
G1 X135.440 Y93.279 E6.82444
G1 X135.730 Y93.590 E6.87491
G1 X136.498 Y94.240 E6.99443
G1 X137.039 Y94.830 E7.08953
G1 X136.884 Y95.825 E7.20914
G1 X135.974 Y95.091 E7.34809
G1 X135.597 Y94.851 E7.40108
G1 X135.541 Y94.762 E7.41357
G1 X135.384 Y94.751 E7.43236
G1 X134.977 Y94.634 E7.48265
G1 X134.731 Y94.432 E7.52042
G1 X134.605 Y94.259 E7.54577
G1 X133.300 Y93.690 E7.71493
G1 X132.756 Y93.342 E7.79158
G1 X132.129 Y92.982 E7.87744
G1 X131.699 Y92.836 E7.93137
G1 X131.303 Y92.770 E7.97909
G1 X130.572 Y92.771 E8.06590
G1 X129.684 Y92.806 E8.17146
G1 X129.633 Y92.784 E8.17804
G1 X129.337 Y92.813 E8.21329
G1 X129.105 Y92.774 E8.24131
G1 X128.889 Y93.032 E8.28126
G1 X128.553 Y93.061 E8.32135
G1 X127.935 Y93.502 E8.41155
G1 X127.584 Y91.722 E8.62708
G1 X127.938 Y91.448 E8.68026
G1 X127.833 Y91.160 E8.71657
G1 X128.377 Y90.726 E8.79925
G1 X128.671 Y90.578 E8.83838
G1 X128.963 Y90.489 E8.87462
G1 X129.193 Y90.515 E8.90211
G1 X130.072 Y89.665 E9.04725
G1 X129.660 Y89.198 E9.12127
G1 X127.853 Y90.375 E9.37739
G1 X127.107 Y91.280 E9.51660
G1 X126.894 Y90.302 E9.63546
G1 X125.447 Y89.059 E9.86200
G1 X119.300 Y85.367 E10.71362
G1 X119.481 Y84.709 E10.79461
G1 X132.098 Y84.628 E12.29313
G1 X145.003 Y84.628 E13.82584
G1 X144.951 Y92.977 E14.81742
G1 X143.956 Y93.217 E14.93899
G1 X143.103 Y93.369 E15.04197
G1 X141.894 Y94.420 E15.23224
G1 X139.748 Y96.872 E15.61926
G1 X139.029 Y97.346 E15.72154
G1 X138.378 Y96.820 E15.82089
G1 X138.554 Y95.515 E15.97727
G1 X138.422 Y93.042 E16.27142
G1 X136.811 Y89.221 E16.76387
G1 X136.495 Y88.560 E16.85092
G1 X136.107 Y87.845 E16.94748
G1 X135.465 Y86.965 E17.07693
G1 X134.962 Y87.364 E17.15322
G1 X134.548 Y87.225 E17.20513
G1 X134.018 Y87.250 E17.26817
G1 X134.470 Y87.787 E17.35155
G1 X134.028 Y88.924 E17.49643
G1 X133.745 Y89.282 F9000.000
G1 X136.089 Y92.958 F9000.000
G1 X136.532 Y92.535 E17.56916 F1800.000
G1 X137.365 Y92.375 E17.66999
G1 X137.715 Y93.205 E17.77696
G1 X137.789 Y94.592 E17.94199
G1 X136.994 Y93.724 E18.08181
G1 X136.134 Y92.997 E18.21555
G1 X137.597 Y97.714 F9000.000
G1 X138.429 Y98.545 E18.35519 F1800.000
G1 X138.490 Y98.632 E18.36781
G1 X138.709 Y98.632 E18.39374
G1 X138.873 Y99.323 E18.47804
G1 X137.442 Y100.047 E18.66853
G1 X137.593 Y97.774 E18.93907
G1 X137.804 Y97.372 F9000.000
G1 X138.419 Y102.768 F9000.000
G1 X139.246 Y103.450 E19.06634 F1800.000
G1 X138.340 Y104.220 E19.20756
G1 X137.608 Y103.515 E19.32826
G1 X137.673 Y104.479 E19.44302
G1 X137.764 Y104.467 E19.45391
G1 X137.856 Y104.876 E19.50366
G1 X138.188 Y104.552 E19.55878
G1 X138.375 Y105.225 E19.64171
G1 X138.720 Y105.205 E19.68279
G1 X138.745 Y105.045 E19.70198
G1 X139.632 Y104.842 E19.81006
G1 X139.783 Y105.559 E19.89700
G1 X139.308 Y106.014 E19.97515
G1 X139.597 Y106.198 E20.01587
G1 X139.134 Y107.081 E20.13424
G1 X138.993 Y107.691 E20.20863
G1 X138.898 Y107.998 E20.24684
G1 X138.895 Y108.714 E20.33180
G1 X138.687 Y109.298 E20.40551
G1 X138.756 Y109.600 E20.44225
G1 X138.828 Y110.243 E20.51906
G1 X138.455 Y110.353 E20.56527
G1 X138.338 Y110.807 E20.62102
G1 X138.169 Y110.919 E20.64513
G1 X138.216 Y111.006 E20.65685
G1 X137.974 Y111.533 E20.72569
G1 X137.827 Y111.741 E20.75598
G1 X137.430 Y112.075 E20.81759
G1 X136.991 Y112.326 E20.87766
G1 X136.764 Y112.307 E20.90469
G1 X136.662 Y112.374 E20.91913
G1 X136.290 Y112.544 E20.96775
G1 X135.489 Y112.460 E21.06343
G1 X135.375 Y112.776 E21.10333
G1 X135.451 Y112.826 E21.11421
G1 X134.593 Y113.397 E21.23659
G1 X134.226 Y113.153 E21.28894
G1 X133.828 Y113.354 E21.34196
G1 X132.970 Y113.553 E21.44651
G1 X131.907 Y114.126 E21.58994
G1 X131.023 Y114.221 E21.69558
G1 X129.524 Y114.068 E21.87454
G1 X128.888 Y114.381 E21.95877
G1 X128.819 Y112.834 E22.14277
G1 X129.457 Y113.207 E22.23055
G1 X129.643 Y113.030 E22.26105
G1 X131.788 Y112.327 E22.52918
G1 X133.652 Y110.664 E22.82579
G1 X134.946 Y109.625 E23.02301
G1 X135.560 Y109.200 E23.11167
G1 X135.041 Y109.009 E23.17743
G1 X135.552 Y108.746 E23.24573
G1 X135.586 Y108.155 E23.31596
G1 X135.542 Y107.841 E23.35370
G1 X135.413 Y107.891 E23.37015
G1 X135.520 Y107.687 E23.39755
G1 X135.494 Y107.499 E23.42014
G1 X135.615 Y107.507 E23.43457
G1 X135.958 Y106.855 E23.52204
G1 X135.280 Y106.966 E23.60362
G1 X135.794 Y105.643 E23.77216
G1 X136.072 Y105.338 E23.82121
G1 X135.961 Y104.845 E23.88122
G1 X136.331 Y104.669 E23.92988
G1 X135.897 Y103.776 E24.04780
G1 X136.510 Y102.890 E24.17567
G1 X136.884 Y103.659 E24.27721
G1 X137.435 Y103.348 E24.35239
G1 X137.302 Y103.220 E24.37438
G1 X138.363 Y102.790 E24.51038
G1 X138.721 Y102.505 F9000.000
G1 X134.386 Y103.703 F9000.000
G1 X133.042 Y104.558 E24.69951 F1800.000
G1 X132.486 Y104.755 E24.76954
G1 X132.105 Y105.800 E24.90162
G1 X129.967 Y105.893 E25.15582
G1 X128.964 Y105.499 E25.28378
G1 X128.464 Y104.927 E25.37403
G1 X127.933 Y104.422 E25.46111
G1 X128.175 Y103.836 E25.53644
G1 X128.283 Y103.843 E25.54937
G1 X128.401 Y103.559 E25.58589
G1 X128.374 Y103.535 E25.59024
G1 X129.631 Y103.143 E25.74658
G1 X129.758 Y103.147 E25.76176
G1 X129.839 Y103.028 E25.77885
G1 X130.436 Y102.890 E25.85159
G1 X130.755 Y103.203 E25.90466
G1 X130.961 Y103.219 E25.92922
G1 X131.595 Y103.025 E26.00793
G1 X132.301 Y103.275 E26.09694
G1 X134.327 Y103.691 E26.34251
G1 X134.682 Y103.972 F9000.000
G1 X127.886 Y100.400 F9000.000
G1 X127.728 Y99.872 E26.40798 F1800.000
G1 X128.464 Y100.159 E26.50178
G1 X129.612 Y100.560 E26.64628
G1 X129.636 Y102.342 E26.85787
G1 X129.406 Y102.395 E26.88591
G1 X129.345 Y102.484 E26.89872
G1 X128.231 Y102.832 E27.03741
G1 X127.750 Y101.113 E27.24935
G1 X127.558 Y100.714 E27.30197
G1 X127.843 Y100.441 E27.34882
G1 X129.861 Y102.121 F9000.000
G1 X142.481 Y101.122 F9000.000
G1 X140.260 Y113.562 F9000.000
G1 X132.414 Y115.314 F9000.000
G1 X130.457 Y115.382 F9000.000
G1 X128.486 Y115.644 F9000.000
G1 X123.798 Y113.766 F9000.000
G1 X126.399 Y107.750 F9000.000
G1 X125.277 Y106.798 F9000.000
G1 X124.184 Y106.044 F9000.000
G1 X123.745 Y105.884 F9000.000
G1 X123.832 Y105.575 F9000.000
G1 X123.560 Y105.566 F9000.000
G1 X123.379 Y105.945 E27.39865 F1800.000
G1 X123.008 Y105.777 E27.44704
G1 X122.732 Y105.501 E27.49332
G1 X122.994 Y105.200 E27.54076
G1 X123.321 Y105.446 E27.58935
G1 X123.506 Y105.539 E27.61399
G1 X123.401 Y106.738 F9000.000
G1 X123.346 Y107.560 E27.71174 F1800.000
G1 X123.365 Y107.993 E27.76329
G1 X123.314 Y108.009 E27.76963
G1 X123.414 Y108.409 E27.81859
G1 X122.931 Y108.774 E27.89045
G1 X123.332 Y109.759 E28.01681
G1 X123.692 Y110.440 E28.10823
G1 X123.051 Y110.897 E28.20172
G1 X122.517 Y110.327 E28.29446
G1 X121.733 Y109.261 E28.45164
G1 X121.304 Y108.424 E28.56336
G1 X121.169 Y107.599 E28.66263
G1 X121.132 Y107.048 E28.72819
G1 X120.946 Y106.228 E28.82801
G1 X121.164 Y105.902 E28.87467
G1 X121.521 Y105.635 E28.92765
G1 X121.945 Y105.736 E28.97939
G1 X122.149 Y106.172 E29.03658
G1 X122.471 Y106.318 E29.07855
G1 X122.505 Y106.284 E29.08423
G1 X122.595 Y106.374 E29.09929
G1 X123.346 Y106.714 E29.19725
G1 X123.794 Y106.812 F9000.000
G1 X126.407 Y112.550 F9000.000
G1 X127.063 Y112.368 E29.27813 F1800.000
G1 X127.783 Y112.495 E29.36497
G1 X127.707 Y113.502 E29.48490
G1 X126.875 Y113.834 E29.59133
G1 X126.626 Y113.381 E29.65273
G1 X126.422 Y112.608 E29.74771
G1 X126.302 Y112.164 F9000.000
G1 X121.935 Y102.434 F9000.000
G1 X121.991 Y100.355 E29.99469 F1800.000
G1 X123.066 Y100.687 E30.12840
G1 X122.922 Y100.260 E30.18192
G1 X122.704 Y99.849 E30.23724
G1 X123.279 Y99.383 E30.32512
G1 X123.687 Y99.724 E30.38829
G1 X123.955 Y100.389 E30.47348
G1 X124.225 Y100.082 E30.52208
G1 X124.710 Y100.391 E30.59040
G1 X124.846 Y100.543 E30.61457
G1 X125.765 Y101.180 E30.74738
G1 X125.773 Y100.106 E30.87485
G1 X125.634 Y99.956 E30.89913
G1 X124.825 Y98.794 E31.06726
G1 X124.627 Y98.582 E31.10173
G1 X124.309 Y98.470 E31.14177
G1 X123.621 Y98.021 E31.23939
G1 X123.788 Y97.109 E31.34950
G1 X122.959 Y97.537 E31.46031
G1 X123.895 Y95.086 E31.77195
G1 X124.320 Y94.343 E31.87359
G1 X125.190 Y93.175 E32.04657
G1 X126.426 Y92.796 E32.20013
G1 X126.020 Y93.619 E32.30909
G1 X126.614 Y93.861 E32.38530
G1 X126.819 Y94.357 E32.44900
G1 X127.077 Y94.714 E32.50134
G1 X127.983 Y94.191 E32.62557
G1 X128.785 Y94.562 E32.73049
G1 X128.856 Y94.616 E32.74115
G1 X130.154 Y94.923 E32.89960
G1 X129.687 Y96.158 E33.05644
G1 X132.216 Y96.762 E33.36515
G1 X133.096 Y96.711 E33.46986
G1 X133.911 Y97.056 E33.57497
G1 X133.384 Y98.060 E33.70962
G1 X133.795 Y97.890 E33.76241
G1 X134.211 Y98.464 E33.84669
G1 X133.867 Y98.866 E33.90955
G1 X131.960 Y100.181 E34.18464
G1 X130.331 Y100.935 E34.39785
G1 X130.313 Y99.563 E34.56088
G1 X129.732 Y99.846 E34.63757
G1 X128.711 Y99.489 E34.76606
G1 X128.029 Y99.223 E34.85301
G1 X126.888 Y99.561 E34.99431
G1 X127.076 Y100.186 E35.07188
G1 X126.724 Y100.523 E35.12976
G1 X126.743 Y100.667 E35.14698
G1 X127.079 Y101.366 E35.23913
G1 X127.486 Y102.822 E35.41872
G1 X127.339 Y103.662 E35.51998
G1 X127.025 Y104.374 E35.61240
G1 X126.576 Y104.578 E35.67094
G1 X126.216 Y104.676 E35.71524
G1 X124.305 Y105.085 E35.94734
G1 X124.050 Y105.013 E35.97881
G1 X123.700 Y104.837 E36.02544
G1 X122.911 Y104.243 E36.14273
G1 X122.683 Y103.963 E36.18549
G1 X122.444 Y102.484 E36.36353
G1 X121.995 Y102.439 E36.41709
G1 X121.536 Y102.413 F9000.000
G1 X121.412 Y99.548 F9000.000
G1 X114.566 Y97.194 F9000.000
G1 X114.419 Y97.080 F9000.000
G1 X113.031 Y97.080 E36.58188 F1800.000
G1 X113.061 Y96.790 E36.61646
G1 X113.172 Y96.224 E36.68495
G1 X113.226 Y96.037 E36.70810
G1 X113.385 Y95.657 E36.75694
G1 X113.553 Y95.422 E36.79130
G1 X113.821 Y95.464 E36.82355
G1 X113.977 Y95.641 E36.85153
G1 X114.059 Y95.790 E36.87179
G1 X114.131 Y95.974 E36.89522
G1 X114.404 Y97.022 E37.02383
G1 E33.02383 F2400.00000
G92 E0
G1 X114.566 Y97.194 F9000.000
G1 X108.155 Y97.194 F9000.000
G1 X108.007 Y97.080 F9000.000
G1 E4.00000 F2400.00000
G1 X106.620 Y97.080 E4.16479 F1800.000
G1 X106.695 Y96.513 E4.23273
G1 X106.822 Y96.020 E4.29309
G1 X106.973 Y95.657 E4.33980
G1 X107.141 Y95.422 E4.37417
G1 X107.409 Y95.464 E4.40640
G1 X107.565 Y95.641 E4.43441
G1 X107.648 Y95.790 E4.45465
G1 X107.720 Y95.973 E4.47804
G1 X107.992 Y97.022 E4.60668
G1 E0.60668 F2400.00000
G92 E0
G1 X108.155 Y97.194 F9000.000
G1 X91.264 Y96.466 F9000.000
G1 X91.168 Y96.394 F9000.000
G1 E4.00000 F2400.00000
G1 X91.009 Y96.528 E4.02468 F1800.000
G1 X90.793 Y96.641 E4.05359
G1 X90.027 Y96.992 E4.15366
G1 X90.263 Y95.872 E4.28953
G1 X90.330 Y95.680 E4.31368
G1 X90.445 Y95.505 E4.33852
G1 X90.625 Y95.444 E4.36114
G1 X90.942 Y95.432 E4.39878
G1 X91.174 Y95.461 E4.42656
G1 X91.233 Y95.712 E4.45716
G1 X91.252 Y96.005 E4.49197
G1 X91.197 Y96.342 E4.53258
G1 X89.426 Y97.251 F9000.000
G1 X88.755 Y97.703 E4.62868 F1800.000
G1 X88.483 Y97.942 E4.67165
G1 X88.069 Y98.416 E4.74643
G1 X87.736 Y98.988 E4.82502
G1 X87.587 Y99.344 E4.87090
G1 X87.472 Y99.718 E4.91727
G1 X87.408 Y100.047 E4.95719
G1 X87.040 Y100.032 E5.00089
G1 X86.981 Y99.130 E5.10825
G1 X86.979 Y96.456 E5.42589
G1 X89.369 Y97.232 E5.72434
G1 E1.72434 F2400.00000
G92 E0
G1 X89.461 Y97.262 F9000.000
G1 X91.490 Y100.300 F9000.000
G1 X91.374 Y100.421 F9000.000
G1 E4.00000 F2400.00000
G1 X91.216 Y101.233 E4.09819 F1800.000
G1 X91.167 Y101.365 E4.11494
G1 X91.092 Y101.489 E4.13207
G1 X90.851 Y101.515 E4.16087
G1 X90.621 Y101.499 E4.18828
G1 X90.599 Y101.137 E4.23136
G1 X90.636 Y100.867 E4.26363
G1 X90.720 Y100.795 E4.27681
G1 X91.322 Y100.451 E4.35912
G1 E0.35912 F2400.00000
G92 E0
G1 X91.490 Y100.300 F9000.000
